;FLAVOR:Marlin
;TIME:30903
;Filament used: 24.5308m
;Layer height: 0.2
;MINX:6.075
;MINY:36.039
;MINZ:0.12
;MAXX:213.925
;MAXY:183.961
;MAXZ:10.72
;Generated with Cura_SteamEngine 4.6.0
M140 S60
M105
M190 S60
M104 S225
M105
M109 S225
M82 ;absolute extrusion mode
M201 X500.00 Y500.00 Z100.00 E5000.00 ;Setup machine max acceleration
M203 X500.00 Y500.00 Z10.00 E50.00 ;Setup machine max feedrate
M204 P500.00 R1000.00 T500.00 ;Setup Print/Retract/Travel acceleration
M205 X8.00 Y8.00 Z0.40 E5.00 ;Setup Jerk
M220 S100 ;Reset Feedrate
M221 S100 ;Reset Flowrate

G28 ;Home

G92 E0 ;Reset Extruder
G1 Z2.0 F3000 ;Move Z Axis up
G1 X10.1 Y20 Z0.28 F5000.0 ;Move to start position
G1 X10.1 Y200.0 Z0.28 F1500.0 E15 ;Draw the first line
G1 X10.4 Y200.0 Z0.28 F5000.0 ;Move to side a little
G1 X10.4 Y20 Z0.28 F1500.0 E30 ;Draw the second line
G92 E0 ;Reset Extruder
G1 Z2.0 F3000 ;Move Z Axis up

G92 E0
G92 E0
G1 F2700 E-9
;LAYER_COUNT:53
;LAYER:0
M107
G1 F300 Z0.32
G0 F9000 X153.42 Y61.958 Z0.32
;TYPE:SKIRT
G1 F300 Z0.12
G1 F2700 E0
G1 F1800 X154.156 Y60.175 E0.03849
G1 X155.38 Y58.57 E0.07877
G1 X156.975 Y57.347 E0.11888
G1 X158.871 Y56.565 E0.15981
G1 X160.83 Y56.308 E0.19924
G1 X162.83 Y56.571 E0.2395
G1 X164.692 Y57.343 E0.27972
G1 X164.976 Y57.561 E0.28687
G1 X164.988 Y57.569 E0.28716
G1 X165.334 Y57.832 E0.29583
G1 X165.333 Y57.833 E0.29586
G1 X166.292 Y58.57 E0.31999
G1 X166.48 Y58.814 E0.32614
G1 X167.494 Y60.144 E0.35952
G1 X168.264 Y62.011 E0.39982
G1 X168.539 Y64.07 E0.44127
G1 X168.284 Y66.02 E0.48052
G1 X167.967 Y66.772 E0.4968
G1 X167.949 Y66.815 E0.49773
G1 X167.51 Y67.893 E0.52096
G1 X166.298 Y69.473 E0.5607
G1 X165.876 Y69.792 E0.57126
G1 X165.844 Y69.816 E0.57206
G1 X164.7 Y70.7 E0.60091
G1 X162.835 Y71.478 E0.64124
G1 X160.84 Y71.74 E0.68139
G1 X160.403 Y71.684 E0.69018
G1 X159.602 Y71.576 E0.70631
G1 X159.52 Y71.57 E0.70795
G1 X158.833 Y71.473 E0.7218
G1 X156.966 Y70.698 E0.76214
G1 X155.377 Y69.481 E0.80208
G1 X154.151 Y67.882 E0.84229
G1 X153.389 Y66.039 E0.88209
G1 X153.135 Y64.101 E0.92109
G1 X153.42 Y61.958 E0.96424
G0 F9000 X153.03 Y61.854
G1 F1800 X153.806 Y59.975 E1.00481
G1 X155.094 Y58.285 E1.04721
G1 X156.773 Y56.998 E1.08943
G1 X158.768 Y56.175 E1.13249
G1 X160.827 Y55.904 E1.17394
G1 X162.935 Y56.182 E1.21637
G1 X164.893 Y56.993 E1.25866
G1 X165.22 Y57.244 E1.26689
G1 X165.23 Y57.251 E1.26713
G1 X166.577 Y58.285 E1.30102
G1 X166.798 Y58.571 E1.30823
G1 X167.844 Y59.943 E1.34266
G1 X168.655 Y61.907 E1.38507
G1 X168.943 Y64.07 E1.42861
G1 X168.674 Y66.125 E1.46997
G1 X168.336 Y66.927 E1.48734
G1 X168.32 Y66.965 E1.48816
G1 X167.86 Y68.094 E1.51249
G1 X166.582 Y69.76 E1.55439
G1 X166.118 Y70.111 E1.566
G1 X166.089 Y70.133 E1.56673
G1 X164.905 Y71.048 E1.59659
G1 X162.936 Y71.869 E1.63917
G1 X160.845 Y72.143 E1.68125
G1 X160.34 Y72.079 E1.69141
G1 X159.548 Y71.972 E1.70736
G1 X159.468 Y71.966 E1.70896
G1 X158.727 Y71.862 E1.72389
G1 X156.761 Y71.046 E1.76637
G1 X155.094 Y69.768 E1.80829
G1 X153.904 Y68.216 E1.84732
G1 X153.806 Y68.089 E1.85052
G1 X153.803 Y68.085 E1.85062
G1 X152.998 Y66.142 E1.89259
G1 X152.731 Y64.1 E1.93368
G1 X153.03 Y61.854 E1.9789
G0 F9000 X152.64 Y61.751
G1 F1800 X153.458 Y59.772 E2.02164
G1 X154.81 Y57.999 E2.06613
G1 X156.572 Y56.647 E2.11045
G1 X158.664 Y55.785 E2.15561
G1 X160.827 Y55.5 E2.19914
G1 X163.038 Y55.792 E2.24365
G1 X165.099 Y56.646 E2.28817
G1 X165.464 Y56.926 E2.29735
G1 X166.861 Y57.999 E2.3325
G1 X167.116 Y58.329 E2.34083
G1 X168.196 Y59.745 E2.37636
G1 X169.043 Y61.799 E2.4207
G1 X169.346 Y64.069 E2.4664
G1 X169.063 Y66.23 E2.5099
G1 X168.704 Y67.082 E2.52835
G1 X168.69 Y67.116 E2.52908
G1 X168.21 Y68.296 E2.5545
G1 X166.867 Y70.046 E2.59853
G1 X166.359 Y70.43 E2.61123
G1 X166.334 Y70.449 E2.61186
G1 X165.108 Y71.396 E2.64278
G1 X163.04 Y72.259 E2.68749
G1 X160.847 Y72.547 E2.73163
G1 X160.275 Y72.474 E2.74314
G1 X159.495 Y72.369 E2.75885
G1 X159.408 Y72.362 E2.76059
G1 X158.622 Y72.252 E2.77643
G1 X156.56 Y71.395 E2.82099
G1 X154.809 Y70.053 E2.86502
G1 X154.804 Y70.046 E2.86519
G1 X153.587 Y68.459 E2.9051
G1 X153.578 Y68.449 E2.90537
G1 X153.495 Y68.342 E2.90807
G1 X153.455 Y68.289 E2.90939
G1 X153.361 Y68.062 E2.9143
G1 X153.36 Y68.062 E2.91432
G1 X152.609 Y66.246 E2.95353
G1 X152.328 Y64.097 E2.99678
G1 X152.64 Y61.751 E3.04401
G0 F9000 X152.25 Y61.647
G1 F1800 X153.107 Y59.571 E3.08883
G1 X154.522 Y57.716 E3.13539
G1 X156.371 Y56.298 E3.18189
G1 X158.56 Y55.396 E3.22914
G1 X160.827 Y55.097 E3.27477
G1 X163.14 Y55.402 E3.32133
G1 X165.298 Y56.295 E3.36794
G1 X165.707 Y56.609 E3.37823
G1 X167.145 Y57.712 E3.41439
G1 X167.434 Y58.086 E3.42383
G1 X168.545 Y59.543 E3.46039
G1 X169.434 Y61.697 E3.50689
G1 X169.75 Y64.068 E3.55463
G1 X169.452 Y66.337 E3.6003
G1 X169.073 Y67.238 E3.6198
G1 X169.061 Y67.267 E3.62043
G1 X168.562 Y68.493 E3.64684
G1 X167.15 Y70.333 E3.69313
G1 X166.6 Y70.749 E3.70689
G1 X165.309 Y71.747 E3.73945
G1 X163.6 Y72.46 E3.77641
G1 X163.6 Y72.459 E3.77643
G1 X163.145 Y72.648 E3.78626
G1 X160.844 Y72.95 E3.83257
G1 X160.242 Y72.873 E3.84468
G1 X159.441 Y72.765 E3.86081
G1 X159.357 Y72.759 E3.86249
G1 X158.513 Y72.64 E3.8795
G1 X156.36 Y71.746 E3.92603
G1 X154.524 Y70.338 E3.9722
G1 X154.477 Y70.278 E3.97372
G1 X153.269 Y68.703 E4.01333
G1 X153.104 Y68.489 E4.01872
G1 X152.219 Y66.348 E4.06496
G1 X151.924 Y64.097 E4.11026
G1 X152.25 Y61.647 E4.15959
G0 F9000 X151.861 Y61.539
G1 F1800 X152.756 Y59.373 E4.20635
G1 X154.239 Y57.428 E4.25517
G1 X156.167 Y55.95 E4.30365
G1 X158.457 Y55.005 E4.35308
G1 X160.827 Y54.694 E4.40078
G1 X163.243 Y55.012 E4.44941
G1 X165.501 Y55.946 E4.49818
G1 X165.951 Y56.292 E4.50951
G1 X165.958 Y56.297 E4.50968
G1 X166.306 Y56.562 E4.51841
G1 X166.306 Y56.563 E4.51843
G1 X167.432 Y57.429 E4.54677
G1 X167.753 Y57.844 E4.55724
G1 X168.893 Y59.339 E4.59476
G1 X169.823 Y61.593 E4.64342
G1 X170.153 Y64.07 E4.69329
G1 X169.842 Y66.442 E4.74103
G1 X169.442 Y67.393 E4.76162
G1 X169.431 Y67.418 E4.76216
G1 X168.91 Y68.698 E4.78974
G1 X167.438 Y70.617 E4.83801
G1 X166.841 Y71.068 E4.85294
G1 X166.823 Y71.082 E4.85339
G1 X165.511 Y72.096 E4.88648
G1 X163.251 Y73.038 E4.93535
G1 X160.846 Y73.354 E4.98375
G1 X160.174 Y73.268 E4.99727
G1 X159.388 Y73.162 E5.0131
G1 X159.317 Y73.156 E5.01452
G1 X158.408 Y73.029 E5.03284
G1 X156.158 Y72.095 E5.08145
G1 X154.895 Y71.127 E5.11321
G1 X154.894 Y71.128 E5.11324
G1 X154.242 Y70.627 E5.12965
G1 X154.161 Y70.523 E5.13228
G1 X152.952 Y68.946 E5.17193
G1 X152.946 Y68.939 E5.17212
G1 X152.757 Y68.695 E5.17828
G1 X152.622 Y68.369 E5.18532
G1 X152.621 Y68.369 E5.18534
G1 X152.087 Y67.081 E5.21316
G1 X152.088 Y67.081 E5.21318
G1 X151.828 Y66.451 E5.22678
G1 X151.521 Y64.102 E5.27406
G1 X151.861 Y61.539 E5.32566
G0 F9000 X151.471 Y61.438
G1 F1800 X152.409 Y59.167 E5.37469
G1 X153.949 Y57.147 E5.42538
G1 X155.969 Y55.598 E5.47618
G1 X158.349 Y54.617 E5.52755
G1 X160.828 Y54.291 E5.57745
G1 X163.349 Y54.623 E5.62819
G1 X165.702 Y55.596 E5.679
G1 X166.195 Y55.975 E5.69141
G1 X166.2 Y55.979 E5.69154
G1 X167.717 Y57.143 E5.7297
G1 X168.078 Y57.611 E5.74149
G1 X169.243 Y59.137 E5.77981
G1 X170.213 Y61.49 E5.8306
G1 X170.556 Y64.066 E5.88246
G1 X170.232 Y66.547 E5.93239
G1 X169.81 Y67.548 E5.95407
G1 X169.802 Y67.569 E5.95452
G1 X169.262 Y68.895 E5.98309
G1 X167.721 Y70.904 E6.03362
G1 X167.082 Y71.387 E6.0496
G1 X167.067 Y71.399 E6.04998
G1 X165.715 Y72.444 E6.08409
G1 X163.355 Y73.427 E6.1351
G1 X160.843 Y73.757 E6.18566
G1 X159.335 Y73.558 E6.21602
G1 X159.238 Y73.55 E6.21796
G1 X158.302 Y73.419 E6.23682
G1 X155.958 Y72.445 E6.28748
G1 X153.956 Y70.911 E6.33781
G1 X153.845 Y70.768 E6.34142
G1 X153.844 Y70.768 E6.34144
G1 X152.634 Y69.19 E6.38112
G1 X152.629 Y69.183 E6.3813
G1 X152.406 Y68.893 E6.3886
G1 X151.439 Y66.558 E6.43903
G1 X151.117 Y64.097 E6.48856
G1 X151.471 Y61.438 E6.54209
G0 F9000 X151.082 Y61.332
G1 F1800 X152.059 Y58.967 E6.59316
G1 X153.665 Y56.86 E6.64603
G1 X155.767 Y55.249 E6.69888
G1 X158.247 Y54.226 E6.75241
G1 X160.828 Y53.887 E6.80436
G1 X163.451 Y54.233 E6.85716
G1 X165.903 Y55.246 E6.91011
G1 X166.438 Y55.657 E6.92357
G1 X166.442 Y55.661 E6.92368
G1 X166.795 Y55.93 E6.93254
G1 X166.796 Y55.929 E6.93257
G1 X168 Y56.856 E6.96289
G1 X168.389 Y57.359 E6.97558
G1 X169.594 Y58.939 E7.01523
G1 X170.602 Y61.382 E7.06797
G1 X170.96 Y64.069 E7.12207
G1 X170.621 Y66.654 E7.1741
G1 X170.179 Y67.704 E7.19683
G1 X170.172 Y67.719 E7.19716
G1 X169.611 Y69.098 E7.22687
G1 X168.004 Y71.192 E7.27955
G1 X167.324 Y71.706 E7.29656
G1 X167.312 Y71.715 E7.29686
G1 X165.917 Y72.793 E7.33204
G1 X163.459 Y73.817 E7.38518
G1 X160.849 Y74.16 E7.43771
G1 X160.072 Y74.061 E7.45334
G1 X160.072 Y74.062 E7.45336
G1 X159.281 Y73.955 E7.46929
G1 X159.196 Y73.948 E7.47099
G1 X158.198 Y73.808 E7.4911
G1 X155.752 Y72.792 E7.54396
G1 X153.671 Y71.196 E7.5963
G1 X153.529 Y71.014 E7.6009
G1 X152.317 Y69.433 E7.64066
G1 X152.058 Y69.097 E7.64912
G1 X151.049 Y66.661 E7.70174
G1 X150.714 Y64.097 E7.75334
G1 X151.082 Y61.332 E7.80901
G0 F9000 X150.692 Y61.227
G1 F1800 X151.709 Y58.767 E7.86213
G1 X153.379 Y56.575 E7.91712
G1 X155.566 Y54.899 E7.97211
G1 X158.137 Y53.838 E8.02761
G1 X158.157 Y53.834 E8.02802
G1 X160.812 Y53.485 E8.08146
G1 X160.843 Y53.485 E8.08208
G1 X163.555 Y53.843 E8.13667
G1 X166.107 Y54.898 E8.19178
G1 X166.682 Y55.34 E8.20625
G1 X166.685 Y55.342 E8.20632
G1 X168.289 Y56.574 E8.24668
G1 X168.707 Y57.116 E8.26034
G1 X169.944 Y58.739 E8.30107
G1 X170.992 Y61.278 E8.35588
G1 X171.363 Y64.064 E8.41197
G1 X171.01 Y66.759 E8.46621
G1 X170.547 Y67.859 E8.49003
G1 X170.543 Y67.87 E8.49026
G1 X169.962 Y69.298 E8.52103
G1 X168.29 Y71.477 E8.57584
G1 X167.565 Y72.025 E8.59397
G1 X167.557 Y72.032 E8.59419
G1 X166.123 Y73.14 E8.63035
G1 X163.56 Y74.208 E8.68576
G1 X160.851 Y74.564 E8.74029
G1 X160.022 Y74.458 E8.75697
G1 X159.228 Y74.351 E8.77295
G1 X159.145 Y74.344 E8.77462
G1 X158.99 Y74.323 E8.77774
G1 X158.99 Y74.324 E8.77776
G1 X158.093 Y74.197 E8.79584
G1 X155.551 Y73.141 E8.85077
G1 X153.387 Y71.483 E8.90517
G1 X153.216 Y71.263 E8.91073
G1 X153.217 Y71.263 E8.91075
G1 X152 Y69.676 E8.95066
G1 X151.997 Y69.673 E8.95075
G1 X151.71 Y69.3 E8.96014
G1 X150.66 Y66.765 E9.0149
G1 X150.311 Y64.095 E9.06863
G1 X150.692 Y61.227 E9.12637
G0 F9000 X150.303 Y61.123
G1 F1800 X151.36 Y58.565 E9.1816
G1 X153.095 Y56.289 E9.23871
G1 X155.361 Y54.552 E9.29569
G1 X158.023 Y53.454 E9.35316
G1 X158.08 Y53.441 E9.35432
G1 X160.79 Y53.085 E9.40887
G1 X160.866 Y53.085 E9.41039
G1 X163.661 Y53.453 E9.46664
G1 X166.307 Y54.548 E9.52379
G1 X166.926 Y55.023 E9.53936
G1 X166.927 Y55.024 E9.53939
G1 X168.571 Y56.287 E9.58076
G1 X169.025 Y56.874 E9.59557
G1 X170.292 Y58.536 E9.63728
G1 X171.381 Y61.175 E9.69425
G1 X171.767 Y64.067 E9.75247
G1 X171.401 Y66.864 E9.80877
G1 X170.916 Y68.014 E9.83367
G1 X170.913 Y68.021 E9.83383
G1 X170.311 Y69.5 E9.86569
G1 X168.575 Y71.763 E9.92261
G1 X167.806 Y72.344 E9.94184
G1 X167.801 Y72.348 E9.94197
G1 X166.324 Y73.49 E9.97923
G1 X163.668 Y74.596 E10.03664
G1 X160.848 Y74.967 E10.09341
G1 X159.975 Y74.856 E10.11097
G1 X159.975 Y74.855 E10.11099
G1 X159.174 Y74.747 E10.12712
G1 X159.093 Y74.742 E10.12874
G1 X157.983 Y74.586 E10.15111
G1 X155.35 Y73.492 E10.208
G1 X153.103 Y71.77 E10.2645
G1 X152.897 Y71.504 E10.27121
G1 X151.682 Y69.92 E10.31105
G1 X151.68 Y69.918 E10.31111
G1 X151.592 Y69.805 E10.31397
G1 X151.593 Y69.804 E10.31399
G1 X151.358 Y69.498 E10.32169
G1 X150.27 Y66.868 E10.37849
G1 X149.907 Y64.097 E10.43426
G1 X150.303 Y61.123 E10.49414
G0 F9000 X149.913 Y61.018
G1 F1800 X151.009 Y58.365 E10.55142
G1 X152.807 Y56.006 E10.61061
G1 X155.163 Y54.2 E10.66985
G1 X157.901 Y53.071 E10.72896
G1 X158.016 Y53.046 E10.7313
G1 X160.761 Y52.685 E10.78655
G1 X160.895 Y52.685 E10.78923
G1 X163.724 Y53.058 E10.84617
G1 X163.771 Y53.066 E10.84712
G1 X164.264 Y53.269 E10.85776
G1 X166.508 Y54.198 E10.90623
G1 X168.859 Y56.004 E10.96539
G1 X169.343 Y56.631 E10.9812
G1 X170.643 Y58.336 E11.02399
G1 X171.772 Y61.071 E11.08303
G1 X172.171 Y64.066 E11.14333
G1 X171.791 Y66.969 E11.20176
G1 X171.285 Y68.169 E11.22775
G1 X171.284 Y68.172 E11.22781
G1 X170.663 Y69.697 E11.26067
G1 X168.858 Y72.05 E11.31985
G1 X168.047 Y72.663 E11.34014
G1 X168.046 Y72.665 E11.34018
G1 X166.529 Y73.837 E11.37844
G1 X163.769 Y74.987 E11.43811
G1 X160.849 Y75.371 E11.49688
G1 X159.922 Y75.252 E11.51553
G1 X159.121 Y75.144 E11.53166
G1 X159.065 Y75.141 E11.53278
G1 X157.879 Y74.975 E11.55668
G1 X155.149 Y73.841 E11.61567
G1 X152.818 Y72.054 E11.67429
G1 X152.581 Y71.749 E11.682
G1 X151.01 Y69.702 E11.73349
G1 X149.879 Y66.97 E11.7925
G1 X149.503 Y64.097 E11.85032
G1 X149.913 Y61.018 E11.91231
G1 F2700 E2.91231
G1 F300 Z0.32
G0 F9000 X65.5 Y64.07 Z0.32
G1 F300 Z0.12
G1 F2700 E11.91231
G1 F1800 X65.121 Y66.964 E11.97055
G1 X63.992 Y69.693 E12.02949
G1 X62.183 Y72.053 E12.08883
G1 X59.862 Y73.834 E12.14721
G1 X57.104 Y74.983 E12.20684
G1 X54.158 Y75.373 E12.26614
G1 X53.903 Y75.34 E12.27127
G1 X53.844 Y75.33 E12.27247
G1 X53.466 Y75.275 E12.28009
G1 X53.462 Y75.275 E12.28017
G1 X52.083 Y75.098 E12.30791
G1 X52.083 Y75.097 E12.30793
G1 X51.163 Y74.958 E12.3265
G1 X48.497 Y73.851 E12.38411
G1 X46.143 Y72.049 E12.44327
G1 X44.342 Y69.702 E12.50231
G1 X43.209 Y66.966 E12.5614
G1 X42.831 Y64.082 E12.61945
G1 X43.234 Y61.056 E12.68037
G1 X44.351 Y58.343 E12.73892
G1 X46.138 Y56.004 E12.79766
G1 X48.411 Y54.26 E12.85483
G1 X51.263 Y53.058 E12.9166
G1 X51.287 Y53.054 E12.91708
G1 X54.093 Y52.685 E12.97356
G1 X54.225 Y52.685 E12.9762
G1 X57.054 Y53.058 E13.03314
G1 X57.101 Y53.066 E13.03409
G1 X57.594 Y53.269 E13.04473
G1 X59.838 Y54.198 E13.0932
G1 X62.189 Y56.004 E13.15236
G1 X62.673 Y56.631 E13.16817
G1 X63.973 Y58.336 E13.21095
G1 X65.1 Y61.067 E13.26991
G1 X65.5 Y64.07 E13.33037
G0 F9000 X65.096 Y64.071
G1 F1800 X64.73 Y66.863 E13.38656
G1 X63.643 Y69.492 E13.44334
G1 X61.898 Y71.768 E13.50057
G1 X59.661 Y73.485 E13.55684
G1 X57 Y74.592 E13.61436
G1 X54.156 Y74.969 E13.67161
G1 X53.966 Y74.944 E13.67544
G1 X53.523 Y74.879 E13.68437
G1 X53.513 Y74.878 E13.68457
G1 X52.132 Y74.7 E13.71236
G1 X51.27 Y74.57 E13.72976
G1 X48.698 Y73.502 E13.78533
G1 X46.429 Y71.765 E13.84236
G1 X44.691 Y69.501 E13.89932
G1 X43.6 Y66.866 E13.95623
G1 X43.235 Y64.083 E14.01224
G1 X43.625 Y61.159 E14.07111
G1 X44.701 Y58.545 E14.12752
G1 X46.426 Y56.287 E14.18423
G1 X48.611 Y54.61 E14.23919
G1 X51.372 Y53.447 E14.29898
G1 X54.122 Y53.085 E14.35433
G1 X54.196 Y53.085 E14.35581
G1 X56.991 Y53.453 E14.41207
G1 X59.637 Y54.548 E14.46922
G1 X60.256 Y55.023 E14.48479
G1 X60.257 Y55.024 E14.48481
G1 X61.901 Y56.287 E14.52619
G1 X62.355 Y56.874 E14.541
G1 X63.622 Y58.536 E14.5827
G1 X64.709 Y61.171 E14.63958
G1 X65.096 Y64.071 E14.69797
G0 F9000 X64.692 Y64.066
G1 F1800 X64.34 Y66.759 E14.75217
G1 X63.293 Y69.291 E14.80685
G1 X61.612 Y71.483 E14.86197
G1 X59.459 Y73.135 E14.91613
G1 X56.894 Y74.204 E14.97158
G1 X54.159 Y74.566 E15.02664
G1 X54.015 Y74.547 E15.02954
G1 X53.959 Y74.538 E15.03067
G1 X53.581 Y74.483 E15.03829
G1 X53.564 Y74.481 E15.03863
G1 X52.203 Y74.306 E15.06602
G1 X51.378 Y74.181 E15.08267
G1 X48.9 Y73.152 E15.13622
G1 X46.714 Y71.479 E15.19115
G1 X45.233 Y69.554 E15.23962
G1 X45.232 Y69.555 E15.23965
G1 X45.042 Y69.303 E15.24594
G1 X43.99 Y66.761 E15.30085
G1 X43.639 Y64.08 E15.3548
G1 X44.014 Y61.266 E15.41146
G1 X45.051 Y58.745 E15.46586
G1 X46.712 Y56.572 E15.52044
G1 X48.816 Y54.957 E15.57337
G1 X51.477 Y53.836 E15.63099
G1 X54.144 Y53.485 E15.68467
G1 X54.173 Y53.485 E15.68525
G1 X56.885 Y53.843 E15.73984
G1 X59.437 Y54.898 E15.79495
G1 X60.012 Y55.34 E15.80942
G1 X60.015 Y55.342 E15.8095
G1 X61.619 Y56.574 E15.84986
G1 X62.037 Y57.116 E15.86352
G1 X63.274 Y58.739 E15.90424
G1 X64.32 Y61.274 E15.95897
G1 X64.692 Y64.066 E16.01518
G0 F9000 X64.289 Y64.073
G1 F1800 X63.951 Y66.651 E16.06706
G1 X62.942 Y69.09 E16.11974
G1 X61.327 Y71.198 E16.17273
G1 X59.256 Y72.787 E16.22482
G1 X57.372 Y73.574 E16.26557
G1 X57.372 Y73.575 E16.26559
G1 X56.795 Y73.813 E16.27805
G1 X54.154 Y74.162 E16.33121
G1 X54.033 Y74.145 E16.33365
G1 X54.017 Y74.143 E16.33397
G1 X53.639 Y74.088 E16.34159
G1 X53.614 Y74.084 E16.3421
