;FLAVOR:Marlin
;TIME:10141
;Filament used: 6.35281m
;Layer height: 0.2
;MINX:78.2
;MINY:81.499
;MINZ:0.12
;MAXX:136.068
;MAXY:159.926
;MAXZ:28.52
;Generated with Cura_SteamEngine 4.6.0
M140 S60
M105
M190 S60
M104 S225
M105
M109 S225
M82 ;absolute extrusion mode
M201 X500.00 Y500.00 Z100.00 E5000.00 ;Setup machine max acceleration
M203 X500.00 Y500.00 Z10.00 E50.00 ;Setup machine max feedrate
M204 P500.00 R1000.00 T500.00 ;Setup Print/Retract/Travel acceleration
M205 X8.00 Y8.00 Z0.40 E5.00 ;Setup Jerk
M220 S100 ;Reset Feedrate
M221 S100 ;Reset Flowrate

G28 ;Home

G92 E0 ;Reset Extruder
G1 Z2.0 F3000 ;Move Z Axis up
G1 X10.1 Y20 Z0.28 F5000.0 ;Move to start position
G1 X10.1 Y200.0 Z0.28 F1500.0 E15 ;Draw the first line
G1 X10.4 Y200.0 Z0.28 F5000.0 ;Move to side a little
G1 X10.4 Y20 Z0.28 F1500.0 E30 ;Draw the second line
G92 E0 ;Reset Extruder
G1 Z2.0 F3000 ;Move Z Axis up

G92 E0
G92 E0
G1 F2700 E-9
;LAYER_COUNT:142
;LAYER:0
M107
G1 F300 Z0.32
G0 F7500 X111.559 Y125.811 Z0.32
;TYPE:SKIRT
G1 F300 Z0.12
G1 F2700 E0
G1 F1500 X111.779 Y125.811 E0.00439
G1 X111.888 Y126 E0.00874
G1 X111.779 Y126.189 E0.0131
G1 X111.559 Y126.189 E0.01749
G1 X111.45 Y126 E0.02184
G1 X111.559 Y125.811 E0.0262
G0 F7500 X111.329 Y125.411
G1 F1500 X112.009 Y125.411 E0.03977
G1 X112.35 Y126 E0.05335
G1 X112.009 Y126.589 E0.06693
G1 X111.329 Y126.589 E0.0805
G1 X110.988 Y126 E0.09408
G1 X111.329 Y125.411 E0.10766
G0 F7500 X111.098 Y125.011
G1 F1500 X112.24 Y125.011 E0.13045
G1 X112.811 Y126 E0.15324
G1 X112.24 Y126.989 E0.17603
G1 X111.098 Y126.989 E0.19882
G1 X110.527 Y126 E0.22161
G1 X111.098 Y125.011 E0.2444
G0 F7500 X110.867 Y124.611
G1 F1500 X112.471 Y124.611 E0.27641
G1 X113.274 Y126 E0.30843
G1 X112.471 Y127.389 E0.34045
G1 X110.867 Y127.389 E0.37246
G1 X110.064 Y126 E0.40448
G1 X110.867 Y124.611 E0.43649
G0 F7500 X110.636 Y124.211
G1 F1500 X112.702 Y124.211 E0.47772
G1 X113.735 Y126 E0.51895
G1 X112.702 Y127.789 E0.56017
G1 X110.636 Y127.789 E0.6014
G1 X109.603 Y126 E0.64263
G1 X110.636 Y124.211 E0.68385
G0 F7500 X110.406 Y123.811
G1 F1500 X112.932 Y123.811 E0.73426
G1 X114.197 Y126 E0.78472
G1 X112.932 Y128.189 E0.83517
G1 X110.406 Y128.189 E0.88558
G1 X109.141 Y126 E0.93603
G1 X110.406 Y123.811 E0.98649
G0 F7500 X110.174 Y123.411
G1 F1500 X113.164 Y123.411 E1.04616
G1 X114.659 Y126 E1.10582
G1 X113.164 Y128.589 E1.16548
G1 X110.174 Y128.589 E1.22515
G1 X108.679 Y126 E1.28481
G1 X110.174 Y123.411 E1.34447
G1 F2700 E-7.65553
G1 F300 Z0.32
G0 F7500 X88.835 Y146.379 Z0.32
G1 F300 Z0.12
G1 F2700 E1.34447
G1 F1500 X88.835 Y147.5 E1.36684
G1 X87.165 Y147.5 E1.40017
G1 X87.165 Y146.379 E1.42254
G1 X88.835 Y146.379 E1.45587
G0 F7500 X88.435 Y146.779
G1 F1500 X88.435 Y147.1 E1.46227
G1 X87.565 Y147.1 E1.47963
G1 X87.565 Y146.779 E1.48604
G1 X88.435 Y146.779 E1.5034
G1 F2700 E-7.4966
G1 F300 Z0.32
;MESH:Z-leveling_rod_v1.1_sla_body.stl
G0 F7500 X93.65 Y138.5 Z0.32
;TYPE:WALL-INNER
G1 F300 Z0.12
G1 F2700 E1.5034
G1 F1500 X93.65 Y98.5 E2.30164
G1 X82.35 Y98.5 E2.52715
G1 X82.35 Y138.5 E3.32539
G1 X93.65 Y138.5 E3.55089
G0 F7500 X93.25 Y138.1
G1 F1500 X93.25 Y98.9 E4.33317
G1 X82.75 Y98.9 E4.54271
G1 X82.75 Y138.1 E5.32499
G1 X93.25 Y138.1 E5.53453
G0 F7500 X92.85 Y137.7
;TYPE:WALL-OUTER
G1 F1500 X92.85 Y99.3 E6.30084
G1 X83.15 Y99.3 E6.49442
G1 X83.15 Y137.7 E7.26073
G1 X92.85 Y137.7 E7.4543
G0 F7500 X93.35 Y137.7
G0 X92.589 Y149.5
;TYPE:WALL-INNER
G1 F1500 X92.589 Y145.115 E7.54181
G1 X92.131 Y144.379 E7.55911
G1 X83.411 Y144.379 E7.73313
G1 X83.411 Y148.764 E7.82064
G1 X83.869 Y149.5 E7.83793
G1 X92.589 Y149.5 E8.01195
G0 F7500 X92.189 Y149.1
G1 F1500 X92.189 Y145.229 E8.0892
G1 X91.909 Y144.779 E8.09978
G1 X83.811 Y144.779 E8.26138
G1 X83.811 Y148.65 E8.33863
G1 X84.091 Y149.1 E8.34921
G1 X92.189 Y149.1 E8.51081
G0 F7500 X91.789 Y148.7
;TYPE:WALL-OUTER
G1 F1500 X91.789 Y145.343 E8.57781
G1 X91.687 Y145.179 E8.58166
G1 X84.211 Y145.179 E8.73085
G1 X84.211 Y148.536 E8.79784
G1 X84.313 Y148.7 E8.8017
G1 X91.789 Y148.7 E8.95089
G0 F7500 X92.289 Y148.7
G0 X95.887 Y157.44
;TYPE:WALL-INNER
G1 F1500 X95.431 Y157.5 E8.96007
G1 X80.568 Y157.5 E9.25668
G1 X80.117 Y157.441 E9.26575
G1 X79.754 Y157.291 E9.27359
G1 X79.445 Y157.054 E9.28136
G1 X79.208 Y156.745 E9.28913
G1 X79.06 Y156.387 E9.29686
G1 X79 Y155.931 E9.30604
G1 X79 Y84.068 E10.74015
G1 X79.059 Y83.617 E10.74922
G1 X79.209 Y83.254 E10.75706
G1 X79.446 Y82.945 E10.76483
G1 X79.755 Y82.708 E10.7726
G1 X80.113 Y82.56 E10.78034
G1 X80.569 Y82.5 E10.78951
G1 X95.432 Y82.5 E11.08612
G1 X95.883 Y82.559 E11.0952
G1 X96.246 Y82.709 E11.10304
G1 X96.555 Y82.946 E11.11081
G1 X96.792 Y83.255 E11.11858
G1 X96.94 Y83.613 E11.12631
G1 X97 Y84.069 E11.13549
G1 X97 Y155.932 E12.56959
G1 X96.941 Y156.383 E12.57867
G1 X96.791 Y156.746 E12.58651
G1 X96.554 Y157.055 E12.59428
G1 X96.245 Y157.292 E12.60205
G1 X95.887 Y157.44 E12.60978
G0 F7500 X95.991 Y157.83
G1 F1500 X95.46 Y157.9 E12.62047
G1 X80.539 Y157.9 E12.91823
G1 X80.013 Y157.831 E12.92882
G1 X79.553 Y157.641 E12.93875
G1 X79.159 Y157.34 E12.94865
G1 X78.858 Y156.946 E12.95854
G1 X78.67 Y156.491 E12.96837
G1 X78.6 Y155.96 E12.97905
G1 X78.6 Y84.039 E14.41432
G1 X78.669 Y83.513 E14.4249
G1 X78.859 Y83.053 E14.43483
G1 X79.16 Y82.659 E14.44473
G1 X79.554 Y82.358 E14.45462
G1 X80.009 Y82.17 E14.46445
G1 X80.54 Y82.1 E14.47514
G1 X95.461 Y82.1 E14.7729
G1 X95.987 Y82.169 E14.78349
G1 X96.447 Y82.359 E14.79342
G1 X96.841 Y82.66 E14.80331
G1 X97.142 Y83.054 E14.81321
G1 X97.33 Y83.509 E14.82303
G1 X97.4 Y84.04 E14.83372
G1 X97.4 Y155.961 E16.26898
G1 X97.331 Y156.487 E16.27957
G1 X97.141 Y156.947 E16.2895
G1 X96.84 Y157.341 E16.2994
G1 X96.446 Y157.642 E16.30929
G1 X95.991 Y157.83 E16.31912
G0 F7500 X96.095 Y158.22
;TYPE:WALL-OUTER
G1 F1500 X95.489 Y158.3 E16.33131
G1 X80.51 Y158.3 E16.63024
G1 X79.909 Y158.221 E16.64233
G1 X79.352 Y157.991 E16.65436
G1 X78.874 Y157.625 E16.66637
G1 X78.508 Y157.147 E16.67839
G1 X78.28 Y156.595 E16.69031
G1 X78.2 Y155.989 E16.7025
G1 X78.2 Y84.01 E18.13892
G1 X78.279 Y83.409 E18.15102
G1 X78.509 Y82.852 E18.16305
G1 X78.875 Y82.374 E18.17506
G1 X79.353 Y82.008 E18.18707
G1 X79.905 Y81.78 E18.19899
G1 X80.511 Y81.7 E18.21119
G1 X95.49 Y81.7 E18.51011
G1 X96.091 Y81.779 E18.52221
G1 X96.648 Y82.009 E18.53424
G1 X97.126 Y82.375 E18.54625
G1 X97.492 Y82.853 E18.55826
G1 X97.72 Y83.405 E18.57018
G1 X97.8 Y84.011 E18.58238
G1 X97.8 Y155.99 E20.0188
G1 X97.721 Y156.591 E20.0309
G1 X97.491 Y157.148 E20.04292
G1 X97.125 Y157.626 E20.05494
G1 X96.647 Y157.992 E20.06695
G1 X96.095 Y158.22 E20.07887
G0 F7500 X95.982 Y157.795
G0 X95.781 Y157.062
;TYPE:SKIN
G1 F1500 X95.41 Y157.11 E20.08633
G1 X80.588 Y157.11 E20.38212
G1 X80.223 Y157.063 E20.38947
G1 X79.952 Y156.95 E20.39533
G1 X79.724 Y156.775 E20.40106
G1 X79.549 Y156.547 E20.4068
G1 X79.438 Y156.281 E20.41255
G1 X79.39 Y155.91 E20.42002
G1 X79.39 Y84.088 E21.8533
G1 X79.437 Y83.723 E21.86065
G1 X79.55 Y83.452 E21.8665
G1 X79.725 Y83.224 E21.87224
G1 X79.953 Y83.049 E21.87798
G1 X80.219 Y82.938 E21.88373
G1 X80.59 Y82.89 E21.89119
G1 X95.412 Y82.89 E22.18698
G1 X95.777 Y82.937 E22.19433
G1 X96.048 Y83.05 E22.20019
G1 X96.276 Y83.225 E22.20592
G1 X96.451 Y83.453 E22.21166
G1 X96.562 Y83.719 E22.21741
G1 X96.61 Y84.09 E22.22488
G1 X96.61 Y155.912 E23.65816
G1 X96.563 Y156.277 E23.6655
G1 X96.45 Y156.548 E23.67136
G1 X96.275 Y156.776 E23.6771
G1 X96.047 Y156.951 E23.68284
G1 X95.781 Y157.062 E23.68859
G0 F7500 X92.979 Y149.89
G1 F1500 X92.979 Y145.004 E23.78609
G1 X92.348 Y143.989 E23.80994
G1 X83.021 Y143.989 E23.99607
G1 X83.021 Y148.875 E24.09358
G1 X83.652 Y149.89 E24.11743
G1 X92.979 Y149.89 E24.30356
G0 F7500 X94.04 Y138.89
G1 F1500 X94.04 Y98.11 E25.11737
G1 X81.96 Y98.11 E25.35844
G1 X81.96 Y138.89 E26.17225
G1 X94.04 Y138.89 E26.41332
G0 F7500 X92.217 Y149.128
G0 X80.579 Y156.947
G1 F1500 X79.551 Y155.919 E26.44233
G0 F7500 X79.549 Y155.351
G1 F1500 X81.147 Y156.949 E26.48743
G0 F7500 X81.713 Y156.949
G1 F1500 X79.549 Y154.785 E26.5485
G0 F7500 X79.549 Y154.219
G1 F1500 X82.278 Y156.949 E26.62553
G0 F7500 X82.844 Y156.949
G1 F1500 X79.549 Y153.654 E26.71853
G0 F7500 X79.549 Y153.088
G1 F1500 X83.41 Y156.949 E26.82749
G0 F7500 X83.976 Y156.949
G1 F1500 X79.549 Y152.522 E26.95243
G0 F7500 X79.549 Y151.957
G1 F1500 X84.541 Y156.949 E27.09332
G0 F7500 X85.107 Y156.949
G1 F1500 X79.549 Y151.391 E27.25017
G0 F7500 X79.549 Y150.825
G1 F1500 X85.673 Y156.949 E27.42301
G0 F7500 X86.238 Y156.949
G1 F1500 X79.549 Y150.26 E27.61179
G0 F7500 X79.549 Y149.694
G1 F1500 X86.804 Y156.949 E27.81654
G0 F7500 X87.37 Y156.949
G1 F1500 X79.549 Y149.128 E28.03726
G0 F7500 X79.549 Y148.563
G1 F1500 X87.935 Y156.949 E28.27393
G0 F7500 X88.501 Y156.949
G1 F1500 X79.549 Y147.997 E28.52658
G0 F7500 X79.549 Y147.431
G1 F1500 X89.067 Y156.949 E28.7952
G0 F7500 X89.632 Y156.949
G1 F1500 X79.549 Y146.866 E29.07976
G0 F7500 X79.549 Y146.3
G1 F1500 X90.198 Y156.949 E29.3803
G0 F7500 X90.764 Y156.949
G1 F1500 X83.864 Y150.049 E29.57503
G0 F7500 X84.429 Y150.049
G1 F1500 X91.329 Y156.949 E29.76976
G0 F7500 X91.895 Y156.949
G1 F1500 X84.995 Y150.049 E29.9645
G0 F7500 X85.561 Y150.049
G1 F1500 X92.461 Y156.949 E30.15923
G0 F7500 X93.026 Y156.949
G1 F1500 X86.127 Y150.049 E30.35395
G0 F7500 X86.692 Y150.049
G1 F1500 X93.592 Y156.949 E30.54868
G0 F7500 X94.158 Y156.949
G1 F1500 X87.258 Y150.049 E30.74341
G0 F7500 X87.824 Y150.049
G1 F1500 X94.724 Y156.949 E30.93815
G0 F7500 X95.289 Y156.949
G1 F1500 X88.389 Y150.049 E31.13288
G0 F7500 X88.955 Y150.049
G1 F1500 X95.789 Y156.883 E31.32575
G0 F7500 X96.144 Y156.672
G1 F1500 X89.521 Y150.049 E31.51267
G0 F7500 X90.086 Y150.049
G1 F1500 X96.367 Y156.329 E31.68992
G0 F7500 X96.449 Y155.846
G1 F1500 X90.652 Y150.049 E31.85352
G0 F7500 X91.218 Y150.049
G1 F1500 X96.449 Y155.28 E32.00115
G0 F7500 X96.449 Y154.714
G1 F1500 X91.783 Y150.049 E32.13282
G0 F7500 X92.349 Y150.049
G1 F1500 X96.449 Y154.149 E32.24853
G0 F7500 X96.449 Y153.583
G1 F1500 X92.915 Y150.049 E32.34827
G0 F7500 X93.138 Y149.707
G1 F1500 X96.449 Y153.017 E32.4417
G0 F7500 X96.449 Y152.452
G1 F1500 X93.138 Y149.141 E32.53514
G0 F7500 X93.138 Y148.575
G1 F1500 X96.449 Y151.886 E32.62858
G0 F7500 X96.449 Y151.32
G1 F1500 X93.138 Y148.01 E32.72201
G0 F7500 X93.138 Y147.444
G1 F1500 X96.449 Y150.755 E32.81546
G0 F7500 X96.449 Y150.189
G1 F1500 X93.138 Y146.878 E32.9089
G0 F7500 X93.138 Y146.313
G1 F1500 X96.449 Y149.623 E33.00233
G0 F7500 X96.449 Y149.058
G1 F1500 X93.138 Y145.747 E33.09577
G0 F7500 X93.138 Y145.181
G1 F1500 X96.449 Y148.492 E33.18922
G0 F7500 X96.449 Y147.926
G1 F1500 X92.578 Y144.056 E33.29845
G0 F7500 X92.35 Y143.828
G1 F1500 X87.571 Y139.049 E33.43333
G0 F7500 X87.005 Y139.049
G1 F1500 X91.785 Y143.828 E33.56821
G0 F7500 X91.219 Y143.828
G1 F1500 X86.44 Y139.049 E33.70309
G0 F7500 X85.874 Y139.049
G1 F1500 X90.653 Y143.828 E33.83796
G0 F7500 X90.088 Y143.828
G1 F1500 X85.308 Y139.049 E33.97285
G0 F7500 X84.743 Y139.049
G1 F1500 X89.522 Y143.828 E34.10772
G0 F7500 X88.956 Y143.828
G1 F1500 X84.177 Y139.049 E34.2426
G0 F7500 X83.611 Y139.049
G1 F1500 X88.391 Y143.828 E34.37748
G0 F7500 X87.825 Y143.828
G1 F1500 X83.046 Y139.049 E34.51236
G0 F7500 X82.48 Y139.049
G1 F1500 X87.259 Y143.828 E34.64723
G0 F7500 X86.694 Y143.828
G1 F1500 X81.914 Y139.049 E34.78212
G0 F7500 X81.8 Y138.934
G1 F1500 X79.549 Y136.683 E34.84565
G0 F7500 X79.549 Y136.118
G1 F1500 X81.8 Y138.368 E34.90916
G0 F7500 X81.8 Y137.803
G1 F1500 X79.549 Y135.552 E34.97269
G0 F7500 X79.549 Y134.986
G1 F1500 X81.8 Y137.237 E35.03622
G0 F7500 X81.8 Y136.671
G1 F1500 X79.549 Y134.42 E35.09975
G0 F7500 X79.549 Y133.855
G1 F1500 X81.8 Y136.106 E35.16327
G0 F7500 X81.8 Y135.54
G1 F1500 X79.549 Y133.289 E35.2268
G0 F7500 X79.549 Y132.723
G1 F1500 X81.8 Y134.974 E35.29033
G0 F7500 X81.8 Y134.408
G1 F1500 X79.549 Y132.158 E35.35384
G0 F7500 X79.549 Y131.592
G1 F1500 X81.8 Y133.843 E35.41737
G0 F7500 X81.8 Y133.277
G1 F1500 X79.549 Y131.026 E35.4809
G0 F7500 X79.549 Y130.461
G1 F1500 X81.8 Y132.711 E35.54441
G0 F7500 X81.8 Y132.146
G1 F1500 X79.549 Y129.895 E35.60794
G0 F7500 X79.549 Y129.329
G1 F1500 X81.8 Y131.58 E35.67147
G0 F7500 X81.8 Y131.014
G1 F1500 X79.549 Y128.764 E35.73498
G0 F7500 X79.549 Y128.198
G1 F1500 X81.8 Y130.449 E35.79851
G0 F7500 X81.8 Y129.883
G1 F1500 X79.549 Y127.632 E35.86204
G0 F7500 X79.549 Y127.067
G1 F1500 X81.8 Y129.317 E35.92555
G0 F7500 X81.8 Y128.752
G1 F1500 X79.549 Y126.501 E35.98908
G0 F7500 X79.549 Y125.935
G1 F1500 X81.8 Y128.186 E36.05261
G0 F7500 X81.8 Y127.62
G1 F1500 X79.549 Y125.37 E36.11612
G0 F7500 X79.549 Y124.804
G1 F1500 X81.8 Y127.055 E36.17965
G0 F7500 X81.8 Y126.489
G1 F1500 X79.549 Y124.238 E36.24318
G0 F7500 X79.549 Y123.672
G1 F1500 X81.8 Y125.923 E36.30671
G0 F7500 X81.8 Y125.358
G1 F1500 X79.549 Y123.107 E36.37024
G0 F7500 X79.549 Y122.541
G1 F1500 X81.8 Y124.792 E36.43376
G0 F7500 X81.8 Y124.226
G1 F1500 X79.549 Y121.975 E36.49729
G0 F7500 X79.549 Y121.41
G1 F1500 X81.8 Y123.66 E36.56081
G0 F7500 X81.8 Y123.095
G1 F1500 X79.549 Y120.844 E36.62433
G0 F7500 X79.549 Y120.278
G1 F1500 X81.8 Y122.529 E36.68786
G0 F7500 X81.8 Y121.963
G1 F1500 X79.549 Y119.713 E36.75138
G0 F7500 X79.549 Y119.147
G1 F1500 X81.8 Y121.398 E36.8149
G0 F7500 X81.8 Y120.832
G1 F1500 X79.549 Y118.581 E36.87843
G0 F7500 X79.549 Y118.016
G1 F1500 X81.8 Y120.266 E36.94195
G0 F7500 X81.8 Y119.701
G1 F1500 X79.549 Y117.45 E37.00547
G0 F7500 X79.549 Y116.884
G1 F1500 X81.8 Y119.135 E37.069
G0 F7500 X81.8 Y118.569
G1 F1500 X79.549 Y116.319 E37.13252
G0 F7500 X79.549 Y115.753
G1 F1500 X81.8 Y118.004 E37.19605
G0 F7500 X81.8 Y117.438
G1 F1500 X79.549 Y115.187 E37.25957
G0 F7500 X79.549 Y114.622
G1 F1500 X81.8 Y116.872 E37.32309
G0 F7500 X81.8 Y116.307
G1 F1500 X79.549 Y114.056 E37.38662
G0 F7500 X79.549 Y113.49
G1 F1500 X81.8 Y115.741 E37.45014
G0 F7500 X81.8 Y115.175
G1 F1500 X79.549 Y112.924 E37.51367
G0 F7500 X79.549 Y112.359
G1 F1500 X81.8 Y114.609 E37.57719
G0 F7500 X81.8 Y114.044
G1 F1500 X79.549 Y111.793 E37.64071
G0 F7500 X79.549 Y111.227
G1 F1500 X81.8 Y113.478 E37.70424
G0 F7500 X81.8 Y112.912
G1 F1500 X79.549 Y110.662 E37.76776
G0 F7500 X79.549 Y110.096
G1 F1500 X81.8 Y112.347 E37.83128
G0 F7500 X81.8 Y111.781
G1 F1500 X79.549 Y109.53 E37.89481
G0 F7500 X79.549 Y108.965
G1 F1500 X81.8 Y111.215 E37.95833
G0 F7500 X81.8 Y110.65
G1 F1500 X79.549 Y108.399 E38.02185
G0 F7500 X79.549 Y107.833
G1 F1500 X81.8 Y110.084 E38.08538
G0 F7500 X81.8 Y109.518
G1 F1500 X79.549 Y107.268 E38.1489
G0 F7500 X79.549 Y106.702
G1 F1500 X81.8 Y108.953 E38.21242
G0 F7500 X81.8 Y108.387
G1 F1500 X79.549 Y106.136 E38.27595
G0 F7500 X79.549 Y105.571
G1 F1500 X81.8 Y107.821 E38.33947
G0 F7500 X81.8 Y107.256
G1 F1500 X79.549 Y105.005 E38.40299
G0 F7500 X79.549 Y104.439
G1 F1500 X81.8 Y106.69 E38.46652
G0 F7500 X81.8 Y106.124
G1 F1500 X79.549 Y103.873 E38.53005
G0 F7500 X79.549 Y103.308
G1 F1500 X81.8 Y105.559 E38.59358
G0 F7500 X81.8 Y104.993
G1 F1500 X79.549 Y102.742 E38.65711
G0 F7500 X79.549 Y102.176
G1 F1500 X81.8 Y104.427 E38.72063
G0 F7500 X81.8 Y103.861
G1 F1500 X79.549 Y101.611 E38.78415
G0 F7500 X79.549 Y101.045
G1 F1500 X81.8 Y103.296 E38.84768
G0 F7500 X81.8 Y102.73
G1 F1500 X79.549 Y100.479 E38.9112
G0 F7500 X79.549 Y99.914
G1 F1500 X81.8 Y102.164 E38.97472
G0 F7500 X81.8 Y101.599
G1 F1500 X79.549 Y99.348 E39.03825
G0 F7500 X79.549 Y98.782
G1 F1500 X81.8 Y101.033 E39.10177
G0 F7500 X81.8 Y100.467
G1 F1500 X79.549 Y98.217 E39.16529
G0 F7500 X79.549 Y97.651
G1 F1500 X81.8 Y99.902 E39.22882
G0 F7500 X81.8 Y99.336
G1 F1500 X79.549 Y97.085 E39.29234
G0 F7500 X79.549 Y96.52
G1 F1500 X81.8 Y98.77 E39.35586
G0 F7500 X81.8 Y98.205
G1 F1500 X79.549 Y95.954 E39.41939
G0 F7500 X79.549 Y95.388
G1 F1500 X82.109 Y97.949 E39.49165
G0 F7500 X82.675 Y97.949
G1 F1500 X79.549 Y94.823 E39.57987
G0 F7500 X79.549 Y94.257
G1 F1500 X83.241 Y97.949 E39.68407
G0 F7500 X83.807 Y97.949
G1 F1500 X79.549 Y93.691 E39.80424
G0 F7500 X79.549 Y93.125
G1 F1500 X84.372 Y97.949 E39.94037
G0 F7500 X84.938 Y97.949
G1 F1500 X79.549 Y92.56 E40.09246
G0 F7500 X79.549 Y91.994
G1 F1500 X85.504 Y97.949 E40.26052
G0 F7500 X86.069 Y97.949
