;FLAVOR:Marlin
;TIME:4097
;Filament used: 2.59246m
;Layer height: 0.2
;MINX:73.7
;MINY:84.249
;MINZ:0.12
;MAXX:146.3
;MAXY:143.749
;MAXZ:13.12
;Generated with Cura_SteamEngine 4.6.0
M140 S60
M105
M190 S60
M104 S225
M105
M109 S225
M82 ;absolute extrusion mode
M201 X500.00 Y500.00 Z100.00 E5000.00 ;Setup machine max acceleration
M203 X500.00 Y500.00 Z10.00 E50.00 ;Setup machine max feedrate
M204 P500.00 R1000.00 T500.00 ;Setup Print/Retract/Travel acceleration
M205 X8.00 Y8.00 Z0.40 E5.00 ;Setup Jerk
M220 S100 ;Reset Feedrate
M221 S100 ;Reset Flowrate

G28 ;Home

G92 E0 ;Reset Extruder
G1 Z2.0 F3000 ;Move Z Axis up
G1 X10.1 Y20 Z0.28 F5000.0 ;Move to start position
G1 X10.1 Y200.0 Z0.28 F1500.0 E15 ;Draw the first line
G1 X10.4 Y200.0 Z0.28 F5000.0 ;Move to side a little
G1 X10.4 Y20 Z0.28 F1500.0 E30 ;Draw the second line
G92 E0 ;Reset Extruder
G1 Z2.0 F3000 ;Move Z Axis up

G92 E0
G92 E0
G1 F2700 E-9
;LAYER_COUNT:65
;LAYER:0
M107
G1 F300 Z0.32
G0 F9000 X129.339 Y103.35 Z0.32
;TYPE:SKIRT
G1 F300 Z0.12
G1 F2700 E0
G1 F1800 X129.662 Y103.35 E0.00645
G1 X129.661 Y109.95 E0.13816
G1 X129.338 Y109.95 E0.1446
G1 X129.339 Y103.35 E0.27631
G0 F9000 X128.939 Y102.95
G1 F1800 X130.062 Y102.95 E0.29872
G1 X130.061 Y110.35 E0.4464
G1 X128.938 Y110.35 E0.46881
G1 X128.939 Y102.95 E0.61648
G0 F9000 X128.539 Y102.55
G1 F1800 X130.462 Y102.55 E0.65486
G1 X130.461 Y110.75 E0.8185
G1 X128.538 Y110.75 E0.85687
G1 X128.539 Y102.55 E1.02051
G0 F9000 X128.139 Y102.15
G1 F1800 X130.862 Y102.15 E1.07485
G1 X130.861 Y111.15 E1.25446
G1 X128.138 Y111.15 E1.3088
G1 X128.139 Y102.15 E1.4884
G0 F9000 X127.739 Y101.75
G1 F1800 X131.262 Y101.75 E1.55871
G1 X131.261 Y111.537 E1.75402
G1 X131.248 Y111.55 E1.75439
G1 X127.739 Y111.55 E1.82441
G1 X127.738 Y111.353 E1.82834
G1 X127.739 Y101.75 E2.01998
G1 F2700 E-6.98002
G1 F300 Z0.32
G0 F9000 X117.967 Y105.75 Z0.32
G1 F300 Z0.12
G1 F2700 E2.01998
G1 F1800 X115.032 Y105.75 E2.07855
G1 X115.033 Y96.464 E2.26387
G1 X115.047 Y96.45 E2.26426
G1 X117.967 Y96.45 E2.32253
G1 X117.967 Y105.75 E2.50812
G0 F9000 X117.567 Y105.35
G1 F1800 X115.432 Y105.35 E2.55073
G1 X115.433 Y96.85 E2.72036
G1 X117.567 Y96.85 E2.76294
G1 X117.567 Y105.35 E2.93257
G0 F9000 X117.167 Y104.95
G1 F1800 X115.832 Y104.95 E2.95921
G1 X115.833 Y97.25 E3.11287
G1 X117.167 Y97.25 E3.13949
G1 X117.167 Y104.95 E3.29316
G0 F9000 X116.767 Y104.55
G1 F1800 X116.232 Y104.55 E3.30383
G1 X116.233 Y97.65 E3.44153
G1 X116.767 Y97.65 E3.45219
G1 X116.767 Y104.55 E3.58988
G1 F2700 E-5.41012
G1 F300 Z0.32
G0 F9000 X105.262 Y113.75 Z0.32
G1 F300 Z0.12
G1 F2700 E3.58988
G1 F1800 X105.261 Y123.537 E3.78519
G1 X105.248 Y123.55 E3.78556
G1 X101.739 Y123.55 E3.85559
G1 X101.738 Y123.353 E3.85952
G1 X101.739 Y113.75 E4.05116
G1 X105.262 Y113.75 E4.12146
G0 F9000 X104.862 Y114.15
G1 F1800 X104.861 Y123.15 E4.30107
G1 X102.138 Y123.15 E4.35541
G1 X102.139 Y114.15 E4.53501
G1 X104.862 Y114.15 E4.58935
G0 F9000 X104.462 Y114.55
G1 F1800 X104.461 Y122.75 E4.75299
G1 X102.538 Y122.75 E4.79137
G1 X102.539 Y114.55 E4.95501
G1 X104.462 Y114.55 E4.99338
G0 F9000 X104.062 Y114.95
G1 F1800 X104.061 Y122.35 E5.14106
G1 X102.938 Y122.35 E5.16347
G1 X102.939 Y114.95 E5.31114
G1 X104.062 Y114.95 E5.33355
G0 F9000 X103.662 Y115.35
G1 F1800 X103.661 Y121.95 E5.46526
G1 X103.338 Y121.95 E5.47171
G1 X103.339 Y115.35 E5.60342
G1 X103.662 Y115.35 E5.60987
G1 F2700 E-3.39013
G1 F300 Z0.32
G0 F9000 X91.967 Y105.75 Z0.32
G1 F300 Z0.12
G1 F2700 E5.60987
G1 F1800 X89.032 Y105.75 E5.66844
G1 X89.033 Y96.464 E5.85375
G1 X89.047 Y96.45 E5.85414
G1 X91.967 Y96.45 E5.91242
G1 X91.967 Y105.75 E6.09801
G0 F9000 X91.567 Y105.35
G1 F1800 X89.432 Y105.35 E6.14061
G1 X89.433 Y96.85 E6.31024
G1 X91.567 Y96.85 E6.35283
G1 X91.567 Y105.35 E6.52245
G0 F9000 X91.167 Y104.95
G1 F1800 X89.832 Y104.95 E6.54909
G1 X89.833 Y97.25 E6.70276
G1 X91.167 Y97.25 E6.72938
G1 X91.167 Y104.95 E6.88304
G0 F9000 X90.767 Y104.55
G1 F1800 X90.232 Y104.55 E6.89372
G1 X90.233 Y97.65 E7.03141
G1 X90.767 Y97.65 E7.04207
G1 X90.767 Y104.55 E7.17977
G1 F2700 E-1.82023
G1 F300 Z0.32
G0 F9000 X79.262 Y113.75 Z0.32
G1 F300 Z0.12
G1 F2700 E7.17977
G1 F1800 X79.261 Y123.537 E7.37508
G1 X79.248 Y123.55 E7.37544
G1 X75.739 Y123.55 E7.44547
G1 X75.738 Y123.353 E7.4494
G1 X75.739 Y113.75 E7.64104
G1 X79.262 Y113.75 E7.71134
G0 F9000 X78.862 Y114.15
G1 F1800 X78.861 Y123.15 E7.89095
G1 X76.138 Y123.15 E7.94529
G1 X76.139 Y114.15 E8.12489
G1 X78.862 Y114.15 E8.17923
G0 F9000 X78.462 Y114.55
G1 F1800 X78.461 Y122.75 E8.34287
G1 X76.538 Y122.75 E8.38125
G1 X76.539 Y114.55 E8.54489
G1 X78.462 Y114.55 E8.58327
G0 F9000 X78.062 Y114.95
G1 F1800 X78.061 Y122.35 E8.73094
G1 X76.938 Y122.35 E8.75335
G1 X76.939 Y114.95 E8.90103
G1 X78.062 Y114.95 E8.92344
G0 F9000 X77.662 Y115.35
G1 F1800 X77.661 Y121.95 E9.05515
G1 X77.338 Y121.95 E9.06159
G1 X77.339 Y115.35 E9.1933
G1 X77.662 Y115.35 E9.19975
G1 F2700 E0.19975
G1 F300 Z0.32
G0 F9000 X119.662 Y135.35 Z0.32
G1 F300 Z0.12
G1 F2700 E9.19975
G1 F1800 X119.661 Y141.95 E9.33146
G1 X119.338 Y141.95 E9.3379
G1 X119.339 Y135.35 E9.46961
G1 X119.662 Y135.35 E9.47606
G0 F9000 X120.062 Y134.95
G1 F1800 X120.061 Y142.35 E9.62374
G1 X118.938 Y142.35 E9.64615
G1 X118.939 Y134.95 E9.79382
G1 X120.062 Y134.95 E9.81623
G0 F9000 X120.462 Y134.55
G1 F1800 X120.461 Y142.75 E9.97987
G1 X118.538 Y142.75 E10.01825
G1 X118.539 Y134.55 E10.18189
G1 X120.462 Y134.55 E10.22026
G0 F9000 X120.862 Y134.15
G1 F1800 X120.861 Y143.15 E10.39987
G1 X118.138 Y143.15 E10.45421
G1 X118.139 Y134.15 E10.63381
G1 X120.862 Y134.15 E10.68815
G0 F9000 X121.262 Y133.75
G1 F1800 X121.261 Y143.537 E10.88346
G1 X121.248 Y143.55 E10.88383
G1 X117.739 Y143.55 E10.95386
G1 X117.738 Y143.353 E10.95779
G1 X117.739 Y133.75 E11.14943
G1 X121.262 Y133.75 E11.21973
G1 F2700 E2.21973
G1 F300 Z0.32
G0 F9000 X132.233 Y117.65 Z0.32
G1 F300 Z0.12
G1 F2700 E11.21973
G1 F1800 X132.767 Y117.65 E11.23039
G1 X132.767 Y124.55 E11.36808
G1 X132.232 Y124.55 E11.37876
G1 X132.233 Y117.65 E11.51646
G0 F9000 X131.833 Y117.25
G1 F1800 X133.167 Y117.25 E11.54308
G1 X133.167 Y124.95 E11.69674
G1 X131.832 Y124.95 E11.72338
G1 X131.833 Y117.25 E11.87704
G0 F9000 X131.433 Y116.85
G1 F1800 X133.567 Y116.85 E11.91963
G1 X133.567 Y125.35 E12.08926
G1 X131.432 Y125.35 E12.13186
G1 X131.433 Y116.85 E12.30149
G0 F9000 X131.047 Y116.45
G1 F1800 X133.967 Y116.45 E12.35976
G1 X133.967 Y125.75 E12.54535
G1 X131.032 Y125.75 E12.60392
G1 X131.033 Y116.464 E12.78924
G1 X131.047 Y116.45 E12.78963
G1 F2700 E3.78963
G1 F300 Z0.32
G0 F9000 X141.032 Y93.75 Z0.32
G1 F300 Z0.12
G1 F2700 E12.78963
G1 F1800 X141.033 Y84.464 E12.97494
G1 X141.047 Y84.45 E12.97534
G1 X143.967 Y84.45 E13.03361
G1 X143.967 Y93.75 E13.2192
G1 X141.032 Y93.75 E13.27777
G0 F9000 X141.432 Y93.35
G1 F1800 X141.433 Y84.85 E13.4474
G1 X143.567 Y84.85 E13.48999
G1 X143.567 Y93.35 E13.65961
G1 X141.432 Y93.35 E13.70222
G0 F9000 X141.832 Y92.95
G1 F1800 X141.833 Y85.25 E13.85588
G1 X143.167 Y85.25 E13.8825
G1 X143.167 Y92.95 E14.03616
G1 X141.832 Y92.95 E14.06281
G0 F9000 X142.232 Y92.55
G1 F1800 X142.233 Y85.65 E14.2005
G1 X142.767 Y85.65 E14.21116
G1 X142.767 Y92.55 E14.34886
G1 X142.232 Y92.55 E14.35953
G1 F2700 E5.35953
G1 F300 Z0.32
;MESH:axle_2.5.stl(2)
G0 F9000 X91.457 Y111.75 Z0.32
;TYPE:WALL-INNER
G1 F300 Z0.12
G1 F2700 E14.35953
G1 F1800 X76.543 Y111.75 E14.65716
G1 X76.543 Y107.75 E14.73698
G1 X91.457 Y107.75 E15.03461
G1 X91.457 Y111.75 E15.11443
G0 F9000 X91.857 Y112.15
G1 F1800 X76.143 Y112.15 E15.42802
G1 X76.143 Y107.35 E15.52381
G1 X91.857 Y107.35 E15.8374
G1 X91.857 Y112.15 E15.93319
G0 F9000 X92.257 Y112.55
;TYPE:WALL-OUTER
G1 F1800 X75.743 Y112.55 E16.26274
G1 X75.743 Y106.95 E16.3745
G1 X92.257 Y106.95 E16.70405
G1 X92.257 Y112.55 E16.81581
G0 F9000 X91.787 Y112.08
G0 X91.067 Y111.36
;TYPE:SKIN
G1 F1800 X76.933 Y111.36 E17.09787
G1 X76.933 Y108.14 E17.16212
G1 X91.067 Y108.14 E17.44418
G1 X91.067 Y111.36 E17.50844
G0 F9000 X90.907 Y108.443
G1 F1800 X90.762 Y108.299 E17.51252
G0 F9000 X90.197 Y108.299
G1 F1800 X90.907 Y109.008 E17.53254
G0 F9000 X90.907 Y109.574
G1 F1800 X89.631 Y108.299 E17.56854
G0 F9000 X89.065 Y108.299
G1 F1800 X90.907 Y110.14 E17.62051
G0 F9000 X90.907 Y110.706
G1 F1800 X88.5 Y108.299 E17.68844
G0 F9000 X87.934 Y108.299
G1 F1800 X90.834 Y111.199 E17.77029
G0 F9000 X90.269 Y111.199
G1 F1800 X87.368 Y108.299 E17.85215
G0 F9000 X86.803 Y108.299
G1 F1800 X89.703 Y111.199 E17.93399
G0 F9000 X89.137 Y111.199
G1 F1800 X86.237 Y108.299 E18.01583
G0 F9000 X85.671 Y108.299
G1 F1800 X88.572 Y111.199 E18.09769
G0 F9000 X88.006 Y111.199
G1 F1800 X85.105 Y108.299 E18.17955
G0 F9000 X84.54 Y108.299
G1 F1800 X87.44 Y111.199 E18.2614
G0 F9000 X86.875 Y111.199
G1 F1800 X83.974 Y108.299 E18.34325
G0 F9000 X83.408 Y108.299
G1 F1800 X86.309 Y111.199 E18.42511
G0 F9000 X85.743 Y111.199
G1 F1800 X82.843 Y108.299 E18.50696
G0 F9000 X82.277 Y108.299
G1 F1800 X85.178 Y111.199 E18.58882
G0 F9000 X84.612 Y111.199
G1 F1800 X81.711 Y108.299 E18.67067
G0 F9000 X81.146 Y108.299
G1 F1800 X84.046 Y111.199 E18.75252
G0 F9000 X83.481 Y111.199
G1 F1800 X80.58 Y108.299 E18.83438
G0 F9000 X80.014 Y108.299
G1 F1800 X82.915 Y111.199 E18.91623
G0 F9000 X82.349 Y111.199
G1 F1800 X79.449 Y108.299 E18.99808
G0 F9000 X78.883 Y108.299
G1 F1800 X81.783 Y111.199 E19.07992
G0 F9000 X81.218 Y111.199
G1 F1800 X78.317 Y108.299 E19.16178
G0 F9000 X77.752 Y108.299
G1 F1800 X80.652 Y111.199 E19.24363
G0 F9000 X80.086 Y111.199
G1 F1800 X77.186 Y108.299 E19.32547
G0 F9000 X77.093 Y108.771
G1 F1800 X79.521 Y111.199 E19.39399
G0 F9000 X78.955 Y111.199
G1 F1800 X77.093 Y109.337 E19.44654
G0 F9000 X77.093 Y109.902
G1 F1800 X78.389 Y111.199 E19.48313
G0 F9000 X77.824 Y111.199
G1 F1800 X77.093 Y110.468 E19.50376
G0 F9000 X77.093 Y111.034
G1 F1800 X77.258 Y111.199 E19.50842
G1 F2700 E10.50842
G1 F300 Z0.32
;MESH:axle_2.5.stl
G0 F9000 X77.258 Y111.199 Z0.32
G0 X102.543 Y111.75
;TYPE:WALL-INNER
G1 F300 Z0.12
G1 F2700 E19.50842
G1 F1800 X102.543 Y107.75 E19.58824
G1 X117.457 Y107.75 E19.88587
G1 X117.457 Y111.75 E19.96569
G1 X102.543 Y111.75 E20.26332
G0 F9000 X102.143 Y112.15
G1 F1800 X102.143 Y107.35 E20.35911
G1 X117.857 Y107.35 E20.6727
G1 X117.857 Y112.15 E20.76849
G1 X102.143 Y112.15 E21.08208
G0 F9000 X101.743 Y112.55
;TYPE:WALL-OUTER
G1 F1800 X101.743 Y106.95 E21.19383
G1 X118.257 Y106.95 E21.52339
G1 X118.257 Y112.55 E21.63514
G1 X101.743 Y112.55 E21.96469
G0 F9000 X102.213 Y112.08
G0 X102.933 Y111.36
;TYPE:SKIN
G1 F1800 X102.933 Y108.14 E22.02895
G1 X117.067 Y108.14 E22.31101
G1 X117.067 Y111.36 E22.37527
G1 X102.933 Y111.36 E22.65733
G0 F9000 X103.28 Y111.199
G1 F1800 X103.093 Y111.012 E22.66261
G0 F9000 X103.093 Y110.447
G1 F1800 X103.845 Y111.199 E22.68383
G0 F9000 X104.411 Y111.199
G1 F1800 X103.093 Y109.881 E22.72103
G0 F9000 X103.093 Y109.315
G1 F1800 X104.977 Y111.199 E22.7742
G0 F9000 X105.542 Y111.199
G1 F1800 X103.093 Y108.75 E22.84331
G0 F9000 X103.208 Y108.299
G1 F1800 X106.108 Y111.199 E22.92516
G0 F9000 X106.674 Y111.199
G1 F1800 X103.774 Y108.299 E23.007
G0 F9000 X104.339 Y108.299
G1 F1800 X107.239 Y111.199 E23.08885
G0 F9000 X107.805 Y111.199
G1 F1800 X104.905 Y108.299 E23.17069
G0 F9000 X105.471 Y108.299
G1 F1800 X108.371 Y111.199 E23.25254
G0 F9000 X108.936 Y111.199
G1 F1800 X106.037 Y108.299 E23.33437
G0 F9000 X106.602 Y108.299
G1 F1800 X109.502 Y111.199 E23.41621
G0 F9000 X110.068 Y111.199
G1 F1800 X107.168 Y108.299 E23.49805
G0 F9000 X107.734 Y108.299
G1 F1800 X110.633 Y111.199 E23.57988
G0 F9000 X111.199 Y111.199
G1 F1800 X108.299 Y108.299 E23.66173
G0 F9000 X108.865 Y108.299
G1 F1800 X111.765 Y111.199 E23.74357
G0 F9000 X112.33 Y111.199
G1 F1800 X109.431 Y108.299 E23.8254
G0 F9000 X109.996 Y108.299
G1 F1800 X112.896 Y111.199 E23.90725
G0 F9000 X113.462 Y111.199
G1 F1800 X110.562 Y108.299 E23.98909
G0 F9000 X111.128 Y108.299
G1 F1800 X114.028 Y111.199 E24.07094
G0 F9000 X114.593 Y111.199
G1 F1800 X111.693 Y108.299 E24.15278
G0 F9000 X112.259 Y108.299
G1 F1800 X115.159 Y111.199 E24.23462
G0 F9000 X115.725 Y111.199
G1 F1800 X112.825 Y108.299 E24.31647
G0 F9000 X113.39 Y108.299
G1 F1800 X116.29 Y111.199 E24.39831
G0 F9000 X116.856 Y111.199
G1 F1800 X113.956 Y108.299 E24.48016
G0 F9000 X114.522 Y108.299
G1 F1800 X116.906 Y110.684 E24.54745
G0 F9000 X116.906 Y110.118
G1 F1800 X115.087 Y108.299 E24.59879
G0 F9000 X115.653 Y108.299
G1 F1800 X116.906 Y109.552 E24.63415
G0 F9000 X116.906 Y108.987
G1 F1800 X116.219 Y108.299 E24.65355
G0 F9000 X116.785 Y108.299
G1 F1800 X116.906 Y108.421 E24.65698
G1 F2700 E15.65698
G1 F300 Z0.32
;MESH:axle_2.5.stl(1)
G0 F9000 X116.906 Y108.421 Z0.32
G0 X118.543 Y131.75
;TYPE:WALL-INNER
G1 F300 Z0.12
G1 F2700 E24.65698
G1 F1800 X118.543 Y127.75 E24.73681
G1 X133.457 Y127.75 E25.03443
G1 X133.457 Y131.75 E25.11426
G1 X118.543 Y131.75 E25.41188
G0 F9000 X118.143 Y132.15
G1 F1800 X118.143 Y127.35 E25.50767
G1 X133.857 Y127.35 E25.82126
G1 X133.857 Y132.15 E25.91705
G1 X118.143 Y132.15 E26.23064
G0 F9000 X117.743 Y132.55
;TYPE:WALL-OUTER
G1 F1800 X117.743 Y126.95 E26.34239
G1 X134.257 Y126.95 E26.67195
G1 X134.257 Y132.55 E26.7837
G1 X117.743 Y132.55 E27.11326
G0 F9000 X118.213 Y132.08
G0 X118.933 Y131.36
;TYPE:SKIN
G1 F1800 X118.933 Y128.14 E27.17752
G1 X133.067 Y128.14 E27.45958
G1 X133.067 Y131.36 E27.52383
G1 X118.933 Y131.36 E27.80589
G0 F9000 X119.319 Y131.198
G1 F1800 X119.093 Y130.972 E27.81227
G0 F9000 X119.093 Y130.406
G1 F1800 X119.885 Y131.198 E27.83462
G0 F9000 X120.45 Y131.198
G1 F1800 X119.093 Y129.841 E27.87292
G0 F9000 X119.093 Y129.275
G1 F1800 X121.016 Y131.198 E27.92719
G0 F9000 X121.582 Y131.198
G1 F1800 X119.093 Y128.709 E27.99744
G0 F9000 X119.249 Y128.3
G1 F1800 X122.147 Y131.198 E28.07922
G0 F9000 X122.713 Y131.198
G1 F1800 X119.815 Y128.3 E28.16101
G0 F9000 X120.38 Y128.3
G1 F1800 X123.279 Y131.198 E28.24281
G0 F9000 X123.844 Y131.198
G1 F1800 X120.946 Y128.3 E28.3246
G0 F9000 X121.512 Y128.3
G1 F1800 X124.41 Y131.198 E28.40639
G0 F9000 X124.976 Y131.198
G1 F1800 X122.077 Y128.3 E28.48819
G0 F9000 X122.643 Y128.3
G1 F1800 X125.541 Y131.198 E28.56998
G0 F9000 X126.107 Y131.198
G1 F1800 X123.209 Y128.3 E28.65177
G0 F9000 X123.774 Y128.3
G1 F1800 X126.673 Y131.198 E28.73357
G0 F9000 X127.238 Y131.198
G1 F1800 X124.34 Y128.3 E28.81536
G0 F9000 X124.906 Y128.3
G1 F1800 X127.804 Y131.198 E28.89715
G0 F9000 X128.37 Y131.198
G1 F1800 X125.471 Y128.3 E28.97895
G0 F9000 X126.037 Y128.3
G1 F1800 X128.935 Y131.198 E29.06074
G0 F9000 X129.501 Y131.198
G1 F1800 X126.603 Y128.3 E29.14252
G0 F9000 X127.168 Y128.3
G1 F1800 X130.067 Y131.198 E29.22432
G0 F9000 X130.633 Y131.198
G1 F1800 X127.734 Y128.3 E29.30613
G0 F9000 X128.3 Y128.3
G1 F1800 X131.198 Y131.198 E29.38791
G0 F9000 X131.764 Y131.198
G1 F1800 X128.865 Y128.3 E29.46972
G0 F9000 X129.431 Y128.3
G1 F1800 X132.33 Y131.198 E29.55152
G0 F9000 X132.895 Y131.198
G1 F1800 X129.997 Y128.3 E29.63331
G0 F9000 X130.563 Y128.3
G1 F1800 X132.906 Y130.643 E29.69943
G0 F9000 X132.906 Y130.077
G1 F1800 X131.128 Y128.3 E29.7496
G0 F9000 X131.694 Y128.3
G1 F1800 X132.906 Y129.512 E29.7838
G0 F9000 X132.906 Y128.946
G1 F1800 X132.26 Y128.3 E29.80203
G0 F9000 X132.825 Y128.3
G1 F1800 X132.906 Y128.38 E29.8043
G1 F2700 E20.8043
G1 F300 Z0.32
;MESH:axle_2.5.stl(3)
G0 F9000 X132.906 Y128.38 Z0.32
G0 X128.543 Y99.75
;TYPE:WALL-INNER
G1 F300 Z0.12
G1 F2700 E29.8043
G1 F1800 X128.543 Y95.75 E29.88413
G1 X143.457 Y95.75 E30.18175
G1 X143.457 Y99.75 E30.26158
G1 X128.543 Y99.75 E30.5592
G0 F9000 X128.143 Y100.15
G1 F1800 X128.143 Y95.35 E30.65499
G1 X143.857 Y95.35 E30.96858
G1 X143.857 Y100.15 E31.06437
G1 X128.143 Y100.15 E31.37796
G0 F9000 X127.743 Y100.55
;TYPE:WALL-OUTER
G1 F1800 X127.743 Y94.95 E31.48972
G1 X144.257 Y94.95 E31.81927
G1 X144.257 Y100.55 E31.93102
G1 X127.743 Y100.55 E32.26058
G0 F9000 X128.213 Y100.08
G0 X128.933 Y99.36
;TYPE:SKIN
G1 F1800 X128.933 Y96.14 E32.32484
G1 X143.067 Y96.14 E32.6069
G1 X143.067 Y99.36 E32.67116
G1 X128.933 Y99.36 E32.95321
G0 F9000 X129.181 Y99.2
G1 F1800 X129.092 Y99.11 E32.95574
G0 F9000 X129.092 Y98.545
G1 F1800 X129.747 Y99.2 E32.97423
G0 F9000 X130.312 Y99.2
