;FLAVOR:Marlin
;TIME:19969
;Filament used: 16.1199m
;Layer height: 0.2
;MINX:50.743
;MINY:50.2
;MINZ:0.12
;MAXX:224.635
;MAXY:249.8
;MAXZ:15.12
;Generated with Cura_SteamEngine 4.6.0
M140 S60
M105
M190 S60
M104 S215
M105
M109 S215
M82 ;absolute extrusion mode
M201 X500.00 Y500.00 Z100.00 E5000.00 ;Setup machine max acceleration
M203 X500.00 Y500.00 Z10.00 E50.00 ;Setup machine max feedrate
M204 P500.00 R1000.00 T500.00 ;Setup Print/Retract/Travel acceleration
M205 X8.00 Y8.00 Z0.40 E5.00 ;Setup Jerk
M220 S100 ;Reset Feedrate
M221 S100 ;Reset Flowrate

G28 ;Home

G92 E0 ;Reset Extruder
G1 Z2.0 F3000 ;Move Z Axis up
G1 X10.1 Y20 Z0.28 F5000.0 ;Move to start position
G1 X10.1 Y200.0 Z0.28 F1500.0 E15 ;Draw the first line
G1 X10.4 Y200.0 Z0.28 F5000.0 ;Move to side a little
G1 X10.4 Y20 Z0.28 F1500.0 E30 ;Draw the second line
G92 E0 ;Reset Extruder
G1 Z2.0 F3000 ;Move Z Axis up

G92 E0
G92 E0
G1 F2700 E-7.5
;LAYER_COUNT:75
;LAYER:0
M107
G1 F300 Z0.32
G0 F6000 X79.125 Y86.252 Z0.32
;TYPE:SKIRT
G1 F300 Z0.12
G1 F2700 E0
G1 F1200 X79.888 Y85.581 E0.02028
G1 X80.906 Y84.799 E0.04589
G1 X81.788 Y84.213 E0.06703
G1 X81.809 Y84.201 E0.06751
G1 X82.7 Y83.764 E0.08731
G1 X83.881 Y83.276 E0.11281
G1 X84.968 Y82.918 E0.13565
G1 X84.992 Y82.912 E0.13615
G1 X85.869 Y82.745 E0.15396
G1 X87.142 Y82.578 E0.17958
G1 X87.509 Y82.539 E0.18695
G1 X87.521 Y82.538 E0.18719
G1 X88.169 Y82.511 E0.20013
G1 X125.248 Y82.511 E0.94008
G1 X125.244 Y82.478 E0.94075
G1 X125.221 Y81.883 E0.95263
G1 X125.221 Y75.547 E1.07907
G1 X125.045 Y75.031 E1.08995
G1 X124.866 Y74.262 E1.10571
G1 X124.766 Y73.478 E1.12148
G1 X124.743 Y72.883 E1.13336
G1 X124.743 Y67.117 E1.24843
G1 X124.783 Y66.328 E1.2642
G1 X124.902 Y65.548 E1.27994
G1 X125.1 Y64.783 E1.29571
G1 X125.374 Y64.043 E1.31146
G1 X125.722 Y63.334 E1.32722
G1 X126.14 Y62.663 E1.343
G1 X126.623 Y62.039 E1.35874
G1 X127.028 Y61.602 E1.37063
G1 X127.145 Y61.485 E1.37393
G1 X127.731 Y60.955 E1.3897
G1 X128.367 Y60.488 E1.40545
G1 X129.047 Y60.087 E1.4212
G1 X129.765 Y59.757 E1.43697
G1 X130.512 Y59.502 E1.45272
G1 X131.281 Y59.323 E1.46848
G1 X132.065 Y59.223 E1.48425
G1 X132.66 Y59.2 E1.49614
G1 X140.221 Y59.2 E1.64702
G1 X140.221 Y58.129 E1.6684
G1 X140.261 Y57.34 E1.68416
G1 X140.381 Y56.56 E1.69991
G1 X140.579 Y55.795 E1.71568
G1 X140.853 Y55.055 E1.73143
G1 X141.2 Y54.346 E1.74718
G1 X141.618 Y53.676 E1.76294
G1 X142.101 Y53.051 E1.7787
G1 X142.506 Y52.615 E1.79058
G1 X142.636 Y52.485 E1.79425
G1 X143.222 Y51.955 E1.81001
G1 X143.858 Y51.488 E1.82576
G1 X144.538 Y51.087 E1.84151
G1 X145.256 Y50.757 E1.85728
G1 X146.003 Y50.502 E1.87304
G1 X146.772 Y50.323 E1.88879
G1 X147.556 Y50.223 E1.90456
G1 X148.151 Y50.2 E1.91645
G1 X150.862 Y50.2 E1.97055
G1 X151.651 Y50.24 E1.98631
G1 X152.431 Y50.359 E2.00206
G1 X153.196 Y50.557 E2.01783
G1 X153.936 Y50.831 E2.03358
G1 X154.645 Y51.179 E2.04934
G1 X155.316 Y51.597 E2.06511
G1 X155.94 Y52.08 E2.08086
G1 X156.377 Y52.485 E2.09275
G1 X156.494 Y52.602 E2.09605
G1 X157.024 Y53.188 E2.11182
G1 X157.491 Y53.824 E2.12757
G1 X157.892 Y54.504 E2.14332
G1 X158.222 Y55.222 E2.15909
G1 X158.477 Y55.969 E2.17484
G1 X158.656 Y56.738 E2.1906
G1 X158.756 Y57.522 E2.20637
G1 X158.779 Y58.117 E2.21825
G1 X158.779 Y64.453 E2.3447
G1 X158.955 Y64.969 E2.35558
G1 X159.134 Y65.738 E2.37133
G1 X159.234 Y66.522 E2.3871
G1 X159.257 Y67.117 E2.39899
G1 X159.257 Y72.883 E2.51405
G1 X159.217 Y73.672 E2.52982
G1 X159.098 Y74.452 E2.54557
G1 X158.9 Y75.217 E2.56133
G1 X158.626 Y75.957 E2.57708
G1 X158.278 Y76.666 E2.59284
G1 X157.86 Y77.337 E2.60862
G1 X157.377 Y77.961 E2.62437
G1 X156.972 Y78.398 E2.63626
G1 X156.855 Y78.515 E2.63956
G1 X156.269 Y79.045 E2.65533
G1 X155.633 Y79.512 E2.67107
G1 X154.953 Y79.913 E2.68683
G1 X154.235 Y80.243 E2.7026
G1 X153.488 Y80.498 E2.71835
G1 X152.719 Y80.677 E2.7341
G1 X151.935 Y80.777 E2.74988
G1 X151.34 Y80.8 E2.76176
G1 X143.779 Y80.8 E2.91265
G1 X143.779 Y81.871 E2.93402
G1 X143.747 Y82.511 E2.94681
G1 X160.921 Y82.511 E3.28953
G1 X160.793 Y82.129 E3.29757
G1 X160.787 Y82.106 E3.29805
G1 X160.601 Y81.157 E3.31735
G1 X160.518 Y80.528 E3.33001
G1 X160.483 Y80.214 E3.33631
G1 X160.482 Y80.203 E3.33653
G1 X160.45 Y79.497 E3.35064
G1 X160.45 Y76.504 E3.41037
G1 X160.477 Y75.856 E3.42331
G1 X160.478 Y75.844 E3.42355
G1 X160.518 Y75.475 E3.43096
G1 X160.596 Y74.882 E3.44289
G1 X160.649 Y74.534 E3.44992
G1 X160.657 Y74.489 E3.45083
G1 X160.835 Y73.719 E3.4666
G1 X161.12 Y72.895 E3.484
G1 X161.364 Y72.3 E3.49683
G1 X161.672 Y71.64 E3.51137
G1 X161.683 Y71.619 E3.51184
G1 X162.084 Y70.939 E3.52759
G1 X162.422 Y70.467 E3.53918
G1 X162.804 Y69.973 E3.55164
G1 X163.312 Y69.38 E3.56722
G1 X163.33 Y69.361 E3.56775
G1 X163.901 Y68.816 E3.5835
G1 X164.245 Y68.536 E3.59235
G1 X164.747 Y68.151 E3.60498
G1 X165.481 Y67.652 E3.62269
G1 X165.501 Y67.64 E3.62315
G1 X166.527 Y67.122 E3.64609
G1 X167.106 Y66.882 E3.6586
G1 X168.178 Y66.528 E3.68113
G1 X168.401 Y66.316 E3.68727
G1 X168.745 Y66.036 E3.69612
G1 X169.247 Y65.651 E3.70874
G1 X169.981 Y65.152 E3.72646
G1 X170.001 Y65.14 E3.72692
G1 X171.027 Y64.622 E3.74986
G1 X171.606 Y64.382 E3.76236
G1 X172.701 Y64.021 E3.78537
G1 X172.725 Y64.015 E3.78587
G1 X173.615 Y63.847 E3.80394
G1 X174.24 Y63.766 E3.81652
G1 X174.594 Y63.728 E3.82362
G1 X174.606 Y63.727 E3.82386
G1 X175.254 Y63.7 E3.83681
G1 X193.241 Y63.7 E4.19576
G1 X193.889 Y63.727 E4.2087
G1 X193.901 Y63.728 E4.20894
G1 X194.303 Y63.772 E4.21701
G1 X194.958 Y63.861 E4.2302
G1 X195.734 Y64.007 E4.24596
G1 X196.492 Y64.23 E4.26173
G1 X196.875 Y64.376 E4.26991
G1 X197.456 Y64.615 E4.28244
G1 X198.327 Y65.039 E4.30178
G1 X198.35 Y65.052 E4.3023
G1 X199.287 Y65.674 E4.32475
G1 X199.783 Y66.058 E4.33726
G1 X200.354 Y66.546 E4.35225
G1 X200.371 Y66.562 E4.35272
G1 X200.918 Y67.132 E4.36849
G1 X201.214 Y67.495 E4.37783
G1 X201.599 Y67.997 E4.39046
G1 X202.098 Y68.731 E4.40817
G1 X202.11 Y68.751 E4.40863
G1 X202.628 Y69.779 E4.43161
G1 X202.867 Y70.356 E4.44407
G1 X203.193 Y71.313 E4.46425
G1 X203.2 Y71.339 E4.46478
G1 X203.403 Y72.363 E4.48562
G1 X203.484 Y72.987 E4.49817
G1 X203.526 Y73.393 E4.50632
G1 X203.527 Y73.406 E4.50658
G1 X203.55 Y74.005 E4.51854
G1 X203.549 Y82.001 E4.67811
G1 X203.528 Y82.511 E4.6883
G1 X211.825 Y82.511 E4.85387
G1 X212.473 Y82.538 E4.86681
G1 X212.485 Y82.539 E4.86706
G1 X212.864 Y82.58 E4.87466
G1 X214.167 Y82.753 E4.90089
G1 X214.943 Y82.896 E4.91664
G1 X215.701 Y83.117 E4.9324
G1 X216.119 Y83.276 E4.94132
G1 X217.3 Y83.764 E4.96682
G1 X218.289 Y84.258 E4.98888
G1 X218.311 Y84.271 E4.98939
G1 X219.092 Y84.798 E5.0082
G1 X220.111 Y85.58 E5.03383
G1 X220.877 Y86.253 E5.05418
G1 X220.894 Y86.27 E5.05466
G1 X221.57 Y87.041 E5.07512
G1 X222.35 Y88.059 E5.10071
G1 X222.847 Y88.79 E5.11835
G1 X222.859 Y88.81 E5.11882
G1 X223.376 Y89.834 E5.14171
G1 X223.866 Y91.015 E5.16723
G1 X224.193 Y91.976 E5.18748
G1 X224.2 Y92.002 E5.18802
G1 X224.402 Y93.018 E5.20869
G1 X224.568 Y94.287 E5.23423
G1 X224.611 Y94.701 E5.24254
G1 X224.612 Y94.714 E5.2428
G1 X224.635 Y95.312 E5.25474
G1 X224.635 Y204.69 E7.4375
G1 X224.608 Y205.338 E7.45044
G1 X224.607 Y205.35 E7.45068
G1 X224.568 Y205.714 E7.45799
G1 X224.402 Y206.982 E7.48351
G1 X224.215 Y207.939 E7.50297
G1 X224.209 Y207.962 E7.50344
G1 X223.866 Y208.983 E7.52494
G1 X223.375 Y210.166 E7.5505
G1 X222.886 Y211.144 E7.57232
G1 X222.873 Y211.166 E7.57283
G1 X222.351 Y211.94 E7.59146
G1 X221.573 Y212.956 E7.61699
G1 X220.895 Y213.729 E7.63751
G1 X220.876 Y213.748 E7.63805
G1 X220.107 Y214.423 E7.65847
G1 X219.087 Y215.205 E7.68412
G1 X218.354 Y215.703 E7.7018
G1 X218.334 Y215.715 E7.70227
G1 X217.297 Y216.237 E7.72544
G1 X216.122 Y216.722 E7.7508
G1 X215.378 Y216.986 E7.76656
G1 X214.71 Y217.154 E7.7803
G1 X214.086 Y217.261 E7.79294
G1 X212.853 Y217.422 E7.81775
G1 X212.491 Y217.461 E7.82502
G1 X212.479 Y217.462 E7.82526
G1 X211.831 Y217.489 E7.8382
G1 X203.53 Y217.489 E8.00386
G1 X203.55 Y218.005 E8.01416
G1 X203.549 Y226.001 E8.17373
G1 X203.522 Y226.648 E8.18665
G1 X203.521 Y226.66 E8.18689
G1 X203.484 Y227.01 E8.19392
G1 X203.404 Y227.63 E8.20639
G1 X203.215 Y228.601 E8.22613
G1 X203.209 Y228.624 E8.22661
G1 X202.872 Y229.63 E8.24778
G1 X202.631 Y230.214 E8.26039
G1 X202.211 Y231.077 E8.27954
G1 X202.198 Y231.1 E8.28007
G1 X201.578 Y232.033 E8.30242
G1 X201.196 Y232.527 E8.31489
G1 X200.688 Y233.12 E8.33047
G1 X200.67 Y233.139 E8.33099
G1 X200.099 Y233.684 E8.34674
G1 X199.755 Y233.964 E8.3556
G1 X199.253 Y234.349 E8.36822
G1 X198.519 Y234.848 E8.38593
G1 X198.499 Y234.86 E8.3864
G1 X197.473 Y235.378 E8.40933
G1 X196.894 Y235.618 E8.42184
G1 X195.799 Y235.979 E8.44485
G1 X195.775 Y235.985 E8.44534
G1 X194.885 Y236.153 E8.46342
G1 X194.26 Y236.234 E8.476
G1 X193.906 Y236.272 E8.4831
G1 X193.894 Y236.273 E8.48334
G1 X193.246 Y236.3 E8.49628
G1 X175.247 Y236.299 E8.85547
G1 X174.251 Y236.235 E8.87539
G1 X173.622 Y236.154 E8.88805
G1 X172.726 Y235.985 E8.90624
G1 X172.702 Y235.979 E8.90674
G1 X171.606 Y235.617 E8.92977
G1 X171.02 Y235.374 E8.94243
G1 X169.995 Y234.857 E8.96534
G1 X169.975 Y234.845 E8.96581
G1 X169.229 Y234.337 E8.98382
G1 X168.733 Y233.955 E8.99631
G1 X168.185 Y233.473 E9.01087
G1 X167.101 Y233.115 E9.03366
G1 X166.524 Y232.876 E9.04612
G1 X165.496 Y232.358 E9.06909
G1 X165.476 Y232.346 E9.06956
G1 X164.72 Y231.83 E9.08782
G1 X164.223 Y231.446 E9.10036
G1 X163.628 Y230.936 E9.116
G1 X163.609 Y230.918 E9.11652
G1 X163.064 Y230.347 E9.13227
G1 X162.781 Y229.999 E9.14122
G1 X162.398 Y229.499 E9.15379
G1 X161.875 Y228.724 E9.17245
G1 X161.862 Y228.702 E9.17296
G1 X161.367 Y227.711 E9.19506
G1 X161.13 Y227.137 E9.20746
G1 X160.793 Y226.129 E9.22867
G1 X160.787 Y226.106 E9.22914
G1 X160.601 Y225.157 E9.24844
G1 X160.518 Y224.528 E9.2611
G1 X160.483 Y224.214 E9.26741
G1 X160.482 Y224.203 E9.26763
G1 X160.45 Y223.497 E9.28173
G1 X160.45 Y220.504 E9.34146
G1 X160.477 Y219.856 E9.3544
G1 X160.478 Y219.844 E9.35464
G1 X160.518 Y219.475 E9.36205
G1 X160.596 Y218.882 E9.37399
G1 X160.649 Y218.534 E9.38101
G1 X160.657 Y218.489 E9.38192
G1 X160.835 Y217.719 E9.39769
G1 X160.915 Y217.489 E9.40255
G1 X158.752 Y217.489 E9.44572
G1 X158.756 Y217.522 E9.44638
G1 X158.779 Y218.117 E9.45826
G1 X158.779 Y224.453 E9.58471
G1 X158.955 Y224.969 E9.59559
G1 X159.134 Y225.738 E9.61134
G1 X159.234 Y226.522 E9.62711
G1 X159.257 Y227.117 E9.639
G1 X159.257 Y232.883 E9.75406
G1 X159.217 Y233.672 E9.76983
G1 X159.098 Y234.452 E9.78558
G1 X158.9 Y235.217 E9.80134
G1 X158.626 Y235.957 E9.81709
G1 X158.278 Y236.666 E9.83285
G1 X157.86 Y237.337 E9.84863
G1 X157.377 Y237.961 E9.86438
G1 X156.972 Y238.398 E9.87627
G1 X156.855 Y238.515 E9.87957
G1 X156.269 Y239.045 E9.89534
G1 X155.633 Y239.512 E9.91108
G1 X154.953 Y239.913 E9.92684
G1 X154.235 Y240.243 E9.94261
G1 X153.488 Y240.498 E9.95836
G1 X152.719 Y240.677 E9.97411
G1 X151.935 Y240.777 E9.98989
G1 X151.34 Y240.8 E10.00177
G1 X143.779 Y240.8 E10.15266
G1 X143.779 Y241.871 E10.17403
G1 X143.739 Y242.66 E10.1898
G1 X143.619 Y243.44 E10.20555
G1 X143.421 Y244.205 E10.22131
G1 X143.147 Y244.945 E10.23706
G1 X142.8 Y245.654 E10.25281
G1 X142.382 Y246.324 E10.26857
G1 X141.899 Y246.949 E10.28434
G1 X141.494 Y247.385 E10.29621
G1 X141.364 Y247.515 E10.29988
G1 X140.778 Y248.045 E10.31565
G1 X140.142 Y248.512 E10.33139
G1 X139.462 Y248.913 E10.34715
G1 X138.744 Y249.243 E10.36292
G1 X137.997 Y249.498 E10.37867
G1 X137.228 Y249.677 E10.39443
G1 X136.444 Y249.777 E10.4102
G1 X135.849 Y249.8 E10.42208
G1 X133.138 Y249.8 E10.47618
G1 X132.349 Y249.76 E10.49195
G1 X131.569 Y249.641 E10.50769
G1 X130.804 Y249.443 E10.52346
G1 X130.064 Y249.169 E10.53921
G1 X129.355 Y248.821 E10.55497
G1 X128.684 Y248.403 E10.57075
G1 X128.06 Y247.92 E10.5865
G1 X127.623 Y247.515 E10.59839
G1 X127.506 Y247.398 E10.60169
G1 X126.976 Y246.812 E10.61746
G1 X126.509 Y246.176 E10.6332
G1 X126.108 Y245.496 E10.64896
G1 X125.778 Y244.778 E10.66472
G1 X125.523 Y244.031 E10.68048
G1 X125.344 Y243.262 E10.69623
G1 X125.244 Y242.478 E10.71201
G1 X125.221 Y241.883 E10.72389
G1 X125.221 Y235.547 E10.85033
G1 X125.045 Y235.031 E10.86121
G1 X124.866 Y234.262 E10.87697
G1 X124.766 Y233.478 E10.89274
G1 X124.743 Y232.883 E10.90462
G1 X124.743 Y227.117 E11.01969
G1 X124.783 Y226.328 E11.03545
G1 X124.902 Y225.548 E11.0512
G1 X125.1 Y224.783 E11.06697
G1 X125.374 Y224.043 E11.08272
G1 X125.722 Y223.334 E11.09848
G1 X126.14 Y222.663 E11.11425
G1 X126.623 Y222.039 E11.13
G1 X127.028 Y221.602 E11.14189
G1 X127.145 Y221.485 E11.14519
G1 X127.731 Y220.955 E11.16096
G1 X128.367 Y220.488 E11.17671
G1 X129.047 Y220.087 E11.19246
G1 X129.765 Y219.757 E11.20823
G1 X130.512 Y219.502 E11.22398
G1 X131.281 Y219.323 E11.23974
G1 X132.065 Y219.223 E11.25551
G1 X132.66 Y219.2 E11.26739
G1 X140.221 Y219.2 E11.41828
G1 X140.221 Y218.129 E11.43965
G1 X140.253 Y217.489 E11.45244
G1 X88.164 Y217.489 E12.49193
G1 X87.516 Y217.462 E12.50488
G1 X87.504 Y217.461 E12.50512
G1 X87.139 Y217.422 E12.51244
G1 X85.872 Y217.256 E12.53794
G1 X84.993 Y217.089 E12.5558
G1 X84.969 Y217.083 E12.55629
G1 X83.878 Y216.723 E12.57922
G1 X82.694 Y216.233 E12.60479
G1 X81.664 Y215.714 E12.62781
G1 X81.644 Y215.702 E12.62827
G1 X80.905 Y215.2 E12.6461
G1 X79.887 Y214.418 E12.67172
G1 X79.124 Y213.747 E12.692
G1 X79.105 Y213.728 E12.69253
G1 X78.43 Y212.959 E12.71295
G1 X77.651 Y211.943 E12.7385
G1 X77.126 Y211.165 E12.75723
G1 X77.113 Y211.143 E12.75774
G1 X76.623 Y210.162 E12.77962
G1 X76.133 Y208.98 E12.80516
G1 X75.791 Y207.962 E12.82659
G1 X75.785 Y207.939 E12.82706
G1 X75.597 Y206.979 E12.84659
G1 X75.431 Y205.706 E12.8722
G1 X75.398 Y205.403 E12.87829
G1 X75.397 Y205.392 E12.87851
G1 X75.365 Y204.686 E12.89261
G1 X75.365 Y164.8 E13.68858
G1 X69.779 Y164.8 E13.80005
G1 X69.779 Y165.871 E13.82143
G1 X69.739 Y166.66 E13.83719
G1 X69.619 Y167.44 E13.85294
G1 X69.421 Y168.205 E13.86871
G1 X69.147 Y168.945 E13.88446
G1 X68.8 Y169.654 E13.90021
G1 X68.382 Y170.324 E13.91597
G1 X67.899 Y170.949 E13.93173
G1 X67.494 Y171.385 E13.94361
G1 X67.364 Y171.515 E13.94728
G1 X66.778 Y172.045 E13.96305
G1 X66.142 Y172.512 E13.97879
G1 X65.462 Y172.913 E13.99455
G1 X64.744 Y173.243 E14.01031
G1 X63.997 Y173.498 E14.02607
G1 X63.228 Y173.677 E14.04182
G1 X62.444 Y173.777 E14.0576
G1 X61.849 Y173.8 E14.06948
G1 X59.138 Y173.8 E14.12358
G1 X58.349 Y173.76 E14.13934
G1 X57.569 Y173.641 E14.15509
G1 X56.804 Y173.443 E14.17086
G1 X56.064 Y173.169 E14.18661
G1 X55.355 Y172.821 E14.20237
G1 X54.684 Y172.403 E14.21814
G1 X54.06 Y171.92 E14.23389
G1 X53.623 Y171.515 E14.24578
G1 X53.506 Y171.398 E14.24908
G1 X52.976 Y170.812 E14.26485
G1 X52.509 Y170.176 E14.2806
G1 X52.108 Y169.496 E14.29635
G1 X51.778 Y168.778 E14.31212
G1 X51.523 Y168.031 E14.32787
G1 X51.344 Y167.262 E14.34363
G1 X51.244 Y166.478 E14.3594
G1 X51.221 Y165.883 E14.37128
G1 X51.221 Y159.547 E14.49773
G1 X51.045 Y159.031 E14.50861
G1 X50.866 Y158.262 E14.52436
G1 X50.766 Y157.478 E14.54014
G1 X50.743 Y156.883 E14.55202
G1 X50.743 Y151.117 E14.66708
G1 X50.783 Y150.328 E14.68285
G1 X50.902 Y149.548 E14.6986
G1 X51.1 Y148.783 E14.71437
G1 X51.374 Y148.043 E14.73011
G1 X51.722 Y147.334 E14.74587
G1 X52.14 Y146.663 E14.76165
G1 X52.623 Y146.039 E14.7774
G1 X53.028 Y145.602 E14.78929
G1 X53.145 Y145.485 E14.79259
G1 X53.731 Y144.955 E14.80836
G1 X54.367 Y144.488 E14.8241
G1 X55.047 Y144.087 E14.83986
G1 X55.765 Y143.757 E14.85563
G1 X56.512 Y143.502 E14.87138
G1 X57.281 Y143.323 E14.88714
G1 X58.065 Y143.223 E14.90291
G1 X58.66 Y143.2 E14.91479
G1 X66.221 Y143.2 E15.06568
G1 X66.221 Y142.129 E15.08705
G1 X66.261 Y141.34 E15.10282
G1 X66.381 Y140.56 E15.11857
G1 X66.579 Y139.795 E15.13433
G1 X66.853 Y139.055 E15.15008
G1 X67.2 Y138.346 E15.16583
G1 X67.618 Y137.676 E15.18159
G1 X68.101 Y137.051 E15.19736
G1 X68.506 Y136.615 E15.20923
G1 X68.636 Y136.485 E15.2129
G1 X69.222 Y135.955 E15.22867
G1 X69.858 Y135.488 E15.24442
G1 X70.538 Y135.087 E15.26017
G1 X71.256 Y134.757 E15.27594
G1 X72.003 Y134.502 E15.29169
G1 X72.772 Y134.323 E15.30745
G1 X73.556 Y134.223 E15.32322
G1 X74.151 Y134.2 E15.3351
G1 X75.365 Y134.2 E15.35933
G1 X75.365 Y95.31 E16.13542
G1 X75.392 Y94.662 E16.14836
G1 X75.393 Y94.65 E16.1486
