;FLAVOR:Marlin
;TIME:31189
;Filament used: 17.5147m
;Layer height: 0.15
;MINX:6.075
;MINY:36.039
;MINZ:0.12
;MAXX:213.925
;MAXY:183.961
;MAXZ:10.82
;Generated with Cura_SteamEngine 4.6.0
M140 S60
M105
M190 S60
M104 S225
M105
M109 S225
M82 ;absolute extrusion mode
M201 X500.00 Y500.00 Z100.00 E5000.00 ;Setup machine max acceleration
M203 X500.00 Y500.00 Z10.00 E50.00 ;Setup machine max feedrate
M204 P500.00 R1000.00 T500.00 ;Setup Print/Retract/Travel acceleration
M205 X8.00 Y8.00 Z0.40 E5.00 ;Setup Jerk
M220 S100 ;Reset Feedrate
M221 S100 ;Reset Flowrate

G28 ;Home

G92 E0 ;Reset Extruder
G1 Z2.0 F3000 ;Move Z Axis up
G1 X10.1 Y20 Z0.28 F5000.0 ;Move to start position
G1 X10.1 Y200.0 Z0.28 F1500.0 E15 ;Draw the first line
G1 X10.4 Y200.0 Z0.28 F5000.0 ;Move to side a little
G1 X10.4 Y20 Z0.28 F1500.0 E30 ;Draw the second line
G92 E0 ;Reset Extruder
G1 Z2.0 F3000 ;Move Z Axis up

G92 E0
G92 E0
G1 F2700 E-9
;LAYER_COUNT:71
;LAYER:0
M107
G1 F300 Z0.32
G0 F6000 X48.703 Y58.575 Z0.32
;TYPE:SKIRT
G1 F300 Z0.12
G1 F2700 E0
G1 F1200 X50.363 Y57.332 E0.04138
G1 X52.212 Y56.562 E0.08136
G1 X54.164 Y56.305 E0.12065
G1 X56.135 Y56.564 E0.16032
G1 X58.186 Y57.468 E0.20505
G1 X59.069 Y58.146 E0.22726
G1 X59.069 Y58.145 E0.22728
G1 X59.618 Y58.566 E0.24109
G1 X60.832 Y60.158 E0.28104
G1 X61.579 Y61.967 E0.3201
G1 X61.864 Y64.105 E0.36314
G1 X61.612 Y66.028 E0.40185
G1 X60.843 Y67.89 E0.44205
G1 X59.62 Y69.481 E0.4821
G1 X58.65 Y70.226 E0.5065
G1 X58.644 Y70.23 E0.50665
G1 X58.021 Y70.707 E0.52231
G1 X57.248 Y71.028 E0.53901
G1 X57.246 Y71.029 E0.53905
G1 X56.183 Y71.471 E0.56203
G1 X54.185 Y71.737 E0.60225
G1 X52.351 Y71.491 E0.63918
G1 X52.175 Y71.475 E0.64271
G1 X50.295 Y70.695 E0.68333
G1 X48.716 Y69.487 E0.723
G1 X47.472 Y67.863 E0.76382
G1 X47.366 Y67.6 E0.76948
G1 X47.357 Y67.576 E0.76999
G1 X46.718 Y66.026 E0.80345
G1 X46.46 Y64.043 E0.84336
G1 X46.734 Y62.004 E0.88441
G1 X47.489 Y60.162 E0.92414
G1 X48.289 Y59.118 E0.95039
G1 X48.293 Y59.112 E0.95053
G1 X48.703 Y58.575 E0.96402
G0 F6000 X48.413 Y58.296
G1 F1200 X48.42 Y58.287 E0.96424
G1 X50.165 Y56.98 E1.00775
G1 X52.105 Y56.172 E1.04969
G1 X54.164 Y55.901 E1.09113
G1 X56.244 Y56.174 E1.133
G1 X58.394 Y57.122 E1.17989
G1 X59.904 Y58.282 E1.21789
G1 X61.182 Y59.959 E1.25997
G1 X61.97 Y61.864 E1.30111
G1 X62.268 Y64.104 E1.3462
G1 X62.002 Y66.132 E1.38702
G1 X61.193 Y68.091 E1.42931
G1 X59.905 Y69.767 E1.4715
G1 X58.892 Y70.544 E1.49697
G1 X58.888 Y70.548 E1.49709
G1 X58.224 Y71.056 E1.51377
G1 X57.401 Y71.398 E1.53156
G1 X57.4 Y71.398 E1.53158
G1 X56.285 Y71.861 E1.55567
G1 X54.187 Y72.14 E1.59791
G1 X52.314 Y71.889 E1.63562
G1 X52.074 Y71.867 E1.64043
G1 X50.095 Y71.045 E1.68319
G1 X48.431 Y69.772 E1.725
G1 X47.123 Y68.066 E1.7679
G1 X46.995 Y67.749 E1.77472
G1 X46.987 Y67.728 E1.77517
G1 X46.328 Y66.128 E1.8097
G1 X46.057 Y64.046 E1.8516
G1 X46.345 Y61.898 E1.89485
G1 X47.139 Y59.96 E1.93665
G1 X47.971 Y58.875 E1.96393
G1 X47.975 Y58.87 E1.96406
G1 X48.413 Y58.296 E1.97847
G0 F6000 X48.095 Y58.053
G1 F1200 X48.178 Y57.968 E1.98084
G1 X48.18 Y57.966 E1.9809
G1 X49.962 Y56.632 E2.02532
G1 X51.999 Y55.783 E2.06936
G1 X54.164 Y55.499 E2.11293
G1 X56.354 Y55.786 E2.15701
G1 X58.597 Y56.775 E2.20593
G1 X60.192 Y58 E2.24607
G1 X61.529 Y59.753 E2.29006
G1 X62.359 Y61.76 E2.3334
G1 X62.671 Y64.103 E2.38057
G1 X62.391 Y66.238 E2.42355
G1 X61.544 Y68.29 E2.46785
G1 X60.19 Y70.052 E2.51219
G1 X59.135 Y70.862 E2.53874
G1 X58.425 Y71.405 E2.55657
G1 X57.554 Y71.767 E2.5754
G1 X57.553 Y71.768 E2.57542
G1 X56.393 Y72.25 E2.60049
G1 X54.186 Y72.544 E2.64492
G1 X52.278 Y72.288 E2.68334
G1 X51.981 Y72.261 E2.68929
G1 X49.894 Y71.394 E2.73439
G1 X48.142 Y70.054 E2.77841
G1 X46.775 Y68.27 E2.82326
G1 X46.625 Y67.899 E2.83125
G1 X46.617 Y67.88 E2.83166
G1 X45.939 Y66.234 E2.86718
G1 X45.653 Y64.04 E2.91134
G1 X45.954 Y61.796 E2.95652
G1 X46.791 Y59.757 E3.00051
G1 X47.653 Y58.631 E3.0288
G1 X47.657 Y58.627 E3.02892
G1 X48.095 Y58.053 E3.04333
G0 F6000 X47.939 Y57.647
G1 F1200 X47.94 Y57.646 E3.04335
G1 X49.762 Y56.282 E3.08877
G1 X51.896 Y55.392 E3.13492
G1 X54.164 Y55.095 E3.18056
G1 X56.462 Y55.396 E3.22681
G1 X58.802 Y56.428 E3.27785
G1 X60.477 Y57.714 E3.31999
G1 X61.88 Y59.554 E3.36617
G1 X62.749 Y61.656 E3.41156
G1 X63.075 Y64.102 E3.4608
G1 X62.781 Y66.342 E3.50589
G1 X61.893 Y68.493 E3.55233
G1 X60.475 Y70.337 E3.59875
G1 X59.378 Y71.18 E3.62636
G1 X59.374 Y71.183 E3.62646
G1 X58.626 Y71.756 E3.64526
G1 X57.708 Y72.137 E3.6651
G1 X57.706 Y72.137 E3.66514
G1 X56.494 Y72.64 E3.69132
G1 X54.185 Y72.948 E3.73781
G1 X52.241 Y72.686 E3.77696
G1 X51.928 Y72.657 E3.78323
G1 X51.875 Y72.65 E3.7843
G1 X49.692 Y71.744 E3.83146
G1 X47.859 Y70.341 E3.87753
G1 X46.423 Y68.468 E3.92463
G1 X46.375 Y68.351 E3.92715
G1 X46.376 Y68.351 E3.92717
G1 X46.254 Y68.049 E3.93367
G1 X46.247 Y68.033 E3.93402
G1 X45.549 Y66.338 E3.9706
G1 X45.25 Y64.042 E4.01681
G1 X45.565 Y61.691 E4.06414
G1 X46.44 Y59.558 E4.11015
G1 X47.336 Y58.388 E4.13956
G1 X47.339 Y58.384 E4.13966
G1 X47.857 Y57.709 E4.15664
G1 X47.939 Y57.647 E4.15869
G0 F6000 X47.701 Y57.326
G1 F1200 X49.564 Y55.931 E4.20514
G1 X51.793 Y55.002 E4.25333
G1 X54.164 Y54.691 E4.30105
G1 X56.564 Y55.005 E4.34935
G1 X59.011 Y56.083 E4.40271
G1 X60.762 Y57.427 E4.44676
G1 X62.231 Y59.353 E4.4951
G1 X63.138 Y61.548 E4.5425
G1 X63.478 Y64.105 E4.59397
G1 X63.172 Y66.443 E4.64103
G1 X62.242 Y68.695 E4.68965
G1 X60.758 Y70.624 E4.73822
G1 X60.331 Y70.955 E4.749
G1 X60.331 Y70.954 E4.74902
G1 X59.62 Y71.498 E4.76689
G1 X59.617 Y71.5 E4.76696
G1 X58.827 Y72.105 E4.78682
G1 X57.861 Y72.506 E4.80769
G1 X57.86 Y72.506 E4.80771
G1 X56.6 Y73.029 E4.83493
G1 X54.184 Y73.351 E4.88357
G1 X52.3 Y73.095 E4.92152
G1 X52.205 Y73.084 E4.92343
G1 X51.862 Y73.053 E4.9303
G1 X51.772 Y73.04 E4.93211
G1 X49.49 Y72.093 E4.98142
G1 X47.573 Y70.627 E5.02958
G1 X46.074 Y68.67 E5.07877
G1 X46.004 Y68.501 E5.08242
G1 X46.005 Y68.501 E5.08244
G1 X45.883 Y68.199 E5.08894
G1 X45.877 Y68.185 E5.08925
G1 X45.16 Y66.444 E5.12682
G1 X44.846 Y64.036 E5.17528
G1 X45.175 Y61.59 E5.22453
G1 X46.091 Y59.355 E5.27274
G1 X47.018 Y58.145 E5.30316
G1 X47.021 Y58.142 E5.30324
G1 X47.572 Y57.422 E5.32133
G1 X47.699 Y57.327 E5.3245
G1 X47.701 Y57.326 E5.32454
G0 F6000 X47.46 Y57.007
G1 F1200 X47.461 Y57.006 E5.32457
G1 X49.363 Y55.582 E5.37199
G1 X51.687 Y54.613 E5.42224
G1 X54.164 Y54.288 E5.47209
G1 X56.669 Y54.616 E5.52251
G1 X56.804 Y54.673 E5.52543
G1 X59.215 Y55.736 E5.57801
G1 X61.048 Y57.143 E5.62413
G1 X62.58 Y59.152 E5.67455
G1 X63.528 Y61.447 E5.7241
G1 X63.881 Y64.101 E5.77753
G1 X63.561 Y66.549 E5.8268
G1 X62.592 Y68.896 E5.87747
G1 X61.044 Y70.908 E5.92813
G1 X59.863 Y71.816 E5.95786
G1 X59.86 Y71.818 E5.95793
G1 X59.031 Y72.453 E5.97877
G1 X58.014 Y72.875 E6.00074
G1 X56.703 Y73.42 E6.02908
G1 X54.186 Y73.755 E6.07975
G1 X52.246 Y73.491 E6.11882
G1 X51.841 Y73.453 E6.12694
G1 X51.668 Y73.43 E6.13042
G1 X49.288 Y72.442 E6.18184
G1 X47.288 Y70.912 E6.2321
G1 X45.725 Y68.872 E6.28338
G1 X45.512 Y68.349 E6.29465
G1 X45.507 Y68.337 E6.29491
G1 X44.77 Y66.547 E6.33354
G1 X44.443 Y64.039 E6.38402
G1 X44.786 Y61.48 E6.43554
G1 X45.738 Y59.159 E6.4856
G1 X46.701 Y57.902 E6.5172
G1 X46.703 Y57.899 E6.51727
G1 X47.289 Y57.134 E6.53651
G1 X47.46 Y57.007 E6.54076
G0 F6000 X47.221 Y56.686
G1 F1200 X49.165 Y55.231 E6.58921
G1 X51.582 Y54.223 E6.64147
G1 X54.164 Y53.884 E6.69344
G1 X56.772 Y54.226 E6.74593
G1 X59.42 Y55.389 E6.80365
G1 X61.334 Y56.859 E6.85181
G1 X62.929 Y58.95 E6.90429
G1 X63.917 Y61.341 E6.95592
G1 X64.285 Y64.104 E7.01155
G1 X63.951 Y66.653 E7.06285
G1 X62.942 Y69.097 E7.11562
G1 X61.329 Y71.193 E7.1684
G1 X60.106 Y72.134 E7.19919
G1 X60.104 Y72.136 E7.19925
G1 X59.234 Y72.802 E7.22111
G1 X56.811 Y73.808 E7.27347
G1 X54.182 Y74.158 E7.32639
G1 X52.193 Y73.888 E7.36645
G1 X52.132 Y73.881 E7.36768
G1 X51.776 Y73.848 E7.37481
G1 X51.563 Y73.82 E7.3791
G1 X49.087 Y72.792 E7.4326
G1 X47.001 Y71.196 E7.48501
G1 X45.377 Y69.076 E7.53831
G1 X45.26 Y68.792 E7.54444
G1 X45.259 Y68.792 E7.54446
G1 X45.141 Y68.499 E7.55076
G1 X45.137 Y68.49 E7.55096
G1 X44.379 Y66.651 E7.59065
G1 X44.039 Y64.041 E7.64318
G1 X44.397 Y61.375 E7.69686
G1 X45.39 Y58.955 E7.74906
G1 X46.383 Y57.658 E7.78166
G1 X46.385 Y57.656 E7.78171
G1 X47.001 Y56.853 E7.80191
G1 X47.1 Y56.776 E7.80441
G1 X47.22 Y56.686 E7.80741
G1 X47.221 Y56.686 E7.80743
G0 F6000 X46.981 Y56.366
G1 F1200 X48.964 Y54.881 E7.85687
G1 X51.476 Y53.834 E7.91117
G1 X54.164 Y53.482 E7.96527
G1 X56.882 Y53.838 E8.01998
G1 X57.11 Y53.933 E8.02491
G1 X59.626 Y55.043 E8.07979
G1 X61.62 Y56.574 E8.12996
G1 X63.279 Y58.75 E8.18456
G1 X64.307 Y61.237 E8.23826
G1 X64.688 Y64.098 E8.29586
G1 X64.34 Y66.759 E8.34942
G1 X63.291 Y69.299 E8.40426
G1 X61.614 Y71.478 E8.45913
G1 X60.348 Y72.452 E8.49101
G1 X59.434 Y73.152 E8.51398
G1 X56.914 Y74.199 E8.56844
G1 X54.185 Y74.562 E8.62338
G1 X52.139 Y74.284 E8.66458
G1 X52.095 Y74.279 E8.66547
G1 X51.732 Y74.246 E8.67274
G1 X51.457 Y74.209 E8.67828
G1 X48.884 Y73.141 E8.73387
G1 X46.718 Y71.483 E8.78831
G1 X45.026 Y69.275 E8.84382
G1 X44.77 Y68.648 E8.85734
G1 X44.768 Y68.642 E8.85746
G1 X43.99 Y66.753 E8.89823
G1 X43.636 Y64.036 E8.95291
G1 X44.007 Y61.272 E9.00856
G1 X45.039 Y58.756 E9.06283
G1 X46.066 Y57.415 E9.09654
G1 X46.067 Y57.414 E9.09657
G1 X46.717 Y56.566 E9.11789
G1 X46.813 Y56.491 E9.12032
G1 X46.981 Y56.366 E9.1245
G0 F6000 X46.629 Y56.13
G1 F1200 X48.764 Y54.531 E9.17773
G1 X51.373 Y53.444 E9.23414
G1 X54.147 Y53.08 E9.28997
G1 X54.181 Y53.08 E9.29065
G1 X56.983 Y53.447 E9.34704
G1 X57.283 Y53.572 E9.35353
G1 X59.831 Y54.696 E9.4091
G1 X61.867 Y56.259 E9.46033
G1 X61.904 Y56.287 E9.46125
G1 X63.629 Y58.548 E9.518
G1 X64.696 Y61.132 E9.57379
G1 X65.092 Y64.102 E9.63359
G1 X64.73 Y66.86 E9.6891
G1 X63.64 Y69.502 E9.74613
G1 X61.897 Y71.766 E9.80315
G1 X60.591 Y72.77 E9.83603
G1 X59.636 Y73.502 E9.86004
G1 X57.022 Y74.587 E9.91652
G1 X54.184 Y74.965 E9.97366
G1 X52.085 Y74.68 E10.01593
G1 X52.059 Y74.678 E10.01645
G1 X51.702 Y74.645 E10.0236
G1 X51.349 Y74.597 E10.03071
G1 X48.686 Y73.492 E10.08825
G1 X46.431 Y71.767 E10.14491
G1 X44.676 Y69.476 E10.2025
G1 X44.399 Y68.798 E10.21711
G1 X44.398 Y68.794 E10.2172
G1 X43.6 Y66.856 E10.25902
G1 X43.232 Y64.038 E10.31574
G1 X43.618 Y61.168 E10.37353
G1 X44.69 Y58.553 E10.42992
G1 X45.748 Y57.172 E10.46464
G1 X45.749 Y57.171 E10.46467
G1 X46.431 Y56.283 E10.48701
G1 X46.438 Y56.278 E10.48719
G1 X46.629 Y56.13 E10.49201
G0 F6000 X46.393 Y55.807
G1 F1200 X46.395 Y55.805 E10.49207
G1 X48.563 Y54.182 E10.54611
G1 X51.262 Y53.057 E10.60446
G1 X51.291 Y53.051 E10.60505
G1 X54.104 Y52.682 E10.66167
G1 X54.21 Y52.68 E10.66379
G1 X57.061 Y53.053 E10.72117
G1 X57.089 Y53.058 E10.72173
G1 X57.437 Y53.203 E10.72926
G1 X60.035 Y54.349 E10.78592
G1 X62.11 Y55.942 E10.83813
G1 X62.188 Y56 E10.84007
G1 X63.979 Y58.348 E10.899
G1 X65.087 Y61.028 E10.95687
G1 X65.496 Y64.101 E11.01874
G1 X65.121 Y66.964 E11.07636
G1 X63.991 Y69.701 E11.13545
G1 X62.182 Y72.051 E11.19464
G1 X59.839 Y73.85 E11.25359
G1 X57.123 Y74.978 E11.31227
G1 X54.183 Y75.369 E11.37146
G1 X52.031 Y75.077 E11.4148
G1 X52.022 Y75.076 E11.41498
G1 X51.645 Y75.041 E11.42254
G1 X51.248 Y74.988 E11.43053
G1 X48.482 Y73.84 E11.49029
G1 X46.148 Y72.054 E11.54894
G1 X44.325 Y69.675 E11.60876
G1 X44.028 Y68.948 E11.62443
G1 X44.028 Y68.947 E11.62445
G1 X43.209 Y66.96 E11.66734
G1 X42.829 Y64.037 E11.72616
G1 X43.228 Y61.066 E11.78598
G1 X44.339 Y58.354 E11.84447
G1 X46.149 Y55.995 E11.9038
G1 X46.393 Y55.807 E11.90995
G1 F2700 E2.90995
G1 F300 Z0.32
G0 F6000 X149.498 Y64.023 Z0.32
G1 F300 Z0.12
G1 F2700 E11.90995
G1 F1200 X149.896 Y61.071 E11.96939
G1 X151.008 Y58.357 E12.02793
G1 X152.821 Y55.992 E12.08739
G1 X152.944 Y55.899 E12.09047
G1 X153.173 Y55.725 E12.09621
G1 X155.235 Y54.181 E12.14762
G1 X157.932 Y53.057 E12.20593
G1 X157.961 Y53.051 E12.20652
G1 X160.774 Y52.682 E12.26313
G1 X160.874 Y52.68 E12.26513
G1 X163.734 Y53.056 E12.3227
G1 X163.756 Y53.06 E12.32314
G1 X164.087 Y53.197 E12.33029
G1 X164.087 Y53.196 E12.33031
G1 X164.409 Y53.331 E12.33728
G1 X164.409 Y53.332 E12.3373
G1 X166.715 Y54.354 E12.38763
G1 X168.866 Y56.011 E12.44182
G1 X170.645 Y58.342 E12.50034
G1 X171.757 Y61.028 E12.55835
G1 X172.166 Y64.098 E12.62016
G1 X171.791 Y66.963 E12.67782
G1 X170.665 Y69.685 E12.7366
G1 X168.858 Y72.052 E12.79603
G1 X168.615 Y72.236 E12.80211
G1 X168.613 Y72.237 E12.80216
G1 X166.502 Y73.852 E12.8552
G1 X166.378 Y73.905 E12.85789
G1 X163.787 Y74.977 E12.91385
G1 X160.813 Y75.373 E12.97372
G1 X157.978 Y74.999 E13.03079
G1 X156.675 Y74.47 E13.05885
G1 X156.675 Y74.469 E13.05887
G1 X156.32 Y74.321 E13.06655
G1 X156.318 Y74.321 E13.06659
G1 X155.175 Y73.858 E13.0912
G1 X152.813 Y72.053 E13.15052
G1 X152.801 Y72.036 E13.15094
G1 X151.02 Y69.709 E13.20941
G1 X149.878 Y66.969 E13.26865
G1 X149.498 Y64.023 E13.32793
G0 F6000 X149.902 Y64.025
G1 F1200 X150.286 Y61.173 E13.38536
G1 X151.359 Y58.556 E13.4418
G1 X152.421 Y57.172 E13.47662
G1 X152.423 Y57.17 E13.47667
G1 X153.104 Y56.28 E13.49904
G1 X153.412 Y56.045 E13.50677
G1 X155.433 Y54.532 E13.55715
G1 X158.043 Y53.444 E13.61358
G1 X160.817 Y53.08 E13.66941
G1 X160.845 Y53.08 E13.66997
G1 X163.651 Y53.449 E13.72645
G1 X164.247 Y53.698 E13.73934
G1 X166.51 Y54.701 E13.78874
G1 X168.581 Y56.297 E13.84091
G1 X170.297 Y58.545 E13.89735
G1 X171.366 Y61.129 E13.95316
G1 X171.762 Y64.099 E14.01295
G1 X171.4 Y66.859 E14.0685
G1 X170.315 Y69.484 E14.12519
G1 X168.572 Y71.767 E14.18251
G1 X168.374 Y71.917 E14.18746
G1 X166.298 Y73.505 E14.23962
G1 X166.228 Y73.535 E14.24114
G1 X163.686 Y74.586 E14.29604
G1 X160.812 Y74.969 E14.3539
G1 X158.082 Y74.609 E14.40885
G1 X156.474 Y73.952 E14.44351
G1 X156.468 Y73.95 E14.44364
G1 X155.376 Y73.508 E14.46715
G1 X153.099 Y71.768 E14.52434
G1 X151.369 Y69.508 E14.58113
G1 X150.269 Y66.866 E14.63825
G1 X149.902 Y64.025 E14.69541
G0 F6000 X150.306 Y64.022
G1 F1200 X150.675 Y61.278 E14.75066
G1 X151.708 Y58.758 E14.80501
G1 X152.738 Y57.416 E14.83877
G1 X153.388 Y56.566 E14.86013
G1 X153.474 Y56.5 E14.86229
G1 X153.653 Y56.364 E14.86678
G1 X155.631 Y54.882 E14.9161
G1 X158.146 Y53.834 E14.97047
G1 X160.835 Y53.481 E15.0246
G1 X163.543 Y53.837 E15.0791
G1 X164.103 Y54.071 E15.09121
G1 X166.301 Y55.045 E15.13919
G1 X168.295 Y56.581 E15.18942
G1 X169.947 Y58.746 E15.24377
G1 X170.977 Y61.237 E15.29756
G1 X171.358 Y64.096 E15.35512
G1 X171.01 Y66.758 E15.40869
G1 X169.966 Y69.282 E15.4632
G1 X168.287 Y71.482 E15.51843
G1 X168.133 Y71.598 E15.52228
G1 X168.127 Y71.602 E15.52242
G1 X166.097 Y73.155 E15.57343
G1 X166.075 Y73.165 E15.57391
G1 X163.578 Y74.197 E15.62783
G1 X160.812 Y74.566 E15.68352
G1 X160.587 Y74.536 E15.68805
G1 X160.586 Y74.535 E15.68807
G1 X159.453 Y74.387 E15.71088
G1 X159.453 Y74.388 E15.7109
G1 X158.184 Y74.22 E15.73644
G1 X156.983 Y73.732 E15.76231
G1 X156.983 Y73.731 E15.76233
G1 X156.628 Y73.583 E15.77001
G1 X155.576 Y73.157 E15.79266
G1 X153.384 Y71.482 E15.84771
G1 X151.718 Y69.305 E15.90242
G1 X150.659 Y66.764 E15.95735
G1 X150.306 Y64.022 E16.01252
G0 F6000 X150.71 Y64.026
G1 F1200 X151.066 Y61.379 E16.06582
G1 X152.057 Y58.96 E16.11799
G1 X153.056 Y57.659 E16.15072
G1 X153.06 Y57.654 E16.15085
G1 X153.674 Y56.851 E16.17102
G1 X153.891 Y56.686 E16.17646
G1 X155.835 Y55.231 E16.22492
G1 X158.252 Y54.223 E16.27718
G1 X160.831 Y53.885 E16.32909
G1 X163.442 Y54.228 E16.38164
G1 X163.948 Y54.44 E16.39259
G1 X166.096 Y55.392 E16.43948
G1 X168.01 Y56.867 E16.4877
G1 X169.595 Y58.945 E16.53985
G1 X170.587 Y61.341 E16.59161
G1 X170.955 Y64.101 E16.64717
G1 X170.621 Y66.652 E16.69851
G1 X169.617 Y69.08 E16.75095
G1 X168.003 Y71.195 E16.80404
G1 X167.892 Y71.279 E16.80682
G1 X167.883 Y71.285 E16.80703
G1 X165.895 Y72.806 E16.85699
G1 X163.474 Y73.807 E16.90927
G1 X160.811 Y74.162 E16.96288
G1 X160.639 Y74.139 E16.96634
G1 X160.637 Y74.139 E16.96638
G1 X158.288 Y73.829 E17.01367
G1 X156.782 Y73.214 E17.04613
G1 X156.768 Y73.208 E17.04643
G1 X155.774 Y72.805 E17.06784
G1 X153.67 Y71.198 E17.12067
G1 X152.067 Y69.102 E17.17333
G1 X151.049 Y66.661 E17.22611
G1 X150.71 Y64.026 E17.27913
G0 F6000 X151.112 Y64.028
