;FLAVOR:Marlin
;TIME:37124
;Filament used: 28.1871m
;Layer height: 0.2
;MINX:5.849
;MINY:22.525
;MINZ:0.12
;MAXX:213.699
;MAXY:207.958
;MAXZ:17.52
;Generated with Cura_SteamEngine 4.6.0
M140 S60
M105
M190 S60
M104 S225
M105
M109 S225
M82 ;absolute extrusion mode
M201 X500.00 Y500.00 Z100.00 E5000.00 ;Setup machine max acceleration
M203 X500.00 Y500.00 Z10.00 E50.00 ;Setup machine max feedrate
M204 P500.00 R1000.00 T500.00 ;Setup Print/Retract/Travel acceleration
M205 X8.00 Y8.00 Z0.40 E5.00 ;Setup Jerk
M220 S100 ;Reset Feedrate
M221 S100 ;Reset Flowrate

G28 ;Home

G92 E0 ;Reset Extruder
G1 Z2.0 F3000 ;Move Z Axis up
G1 X10.1 Y20 Z0.28 F5000.0 ;Move to start position
G1 X10.1 Y200.0 Z0.28 F1500.0 E15 ;Draw the first line
G1 X10.4 Y200.0 Z0.28 F5000.0 ;Move to side a little
G1 X10.4 Y20 Z0.28 F1500.0 E30 ;Draw the second line
G92 E0 ;Reset Extruder
G1 Z2.0 F3000 ;Move Z Axis up

G92 E0
G92 E0
G1 F2700 E-9
;LAYER_COUNT:87
;LAYER:0
M107
G1 F300 Z0.32
G0 F9000 X153.908 Y84.203 Z0.32
;TYPE:SKIRT
G1 F300 Z0.12
G1 F2700 E0
G1 F1800 X154 Y84.084 E0.003
G1 X154.023 Y84.053 E0.00377
G1 X155.158 Y82.562 E0.04117
G1 X156.674 Y81.401 E0.07927
G1 X156.748 Y81.344 E0.08114
G1 X158.613 Y80.567 E0.12146
G1 X160.607 Y80.304 E0.16159
G1 X162.566 Y80.562 E0.20102
G1 X164.478 Y81.351 E0.2423
G1 X166.058 Y82.562 E0.28203
G1 X167.29 Y84.162 E0.32233
G1 X167.357 Y84.324 E0.32583
G1 X167.361 Y84.334 E0.32604
G1 X168.055 Y86.005 E0.36215
G1 X168.314 Y87.976 E0.40182
G1 X168.035 Y90.077 E0.44412
G1 X167.254 Y91.931 E0.48426
G1 X166.426 Y92.999 E0.51123
G1 X166.421 Y93.005 E0.51139
G1 X166.269 Y93.202 E0.51635
G1 X166.189 Y93.314 E0.5191
G1 X166.067 Y93.473 E0.5231
G1 X165.105 Y94.203 E0.5472
G1 X164.758 Y94.479 E0.55605
G1 X164.461 Y94.708 E0.56353
G1 X162.626 Y95.463 E0.60313
G1 X160.65 Y95.722 E0.6429
G1 X158.572 Y95.445 E0.68473
G1 X156.739 Y94.687 E0.72432
G1 X155.168 Y93.487 E0.76377
G1 X153.918 Y91.865 E0.80463
G1 X153.149 Y90.002 E0.84486
G1 X152.912 Y88.177 E0.88158
G1 X152.913 Y88.177 E0.8816
G1 X152.899 Y88.068 E0.88379
G1 X153.179 Y85.964 E0.92615
G1 X153.908 Y84.203 E0.96419
G0 F9000 X153.558 Y84
G1 F1800 X153.705 Y83.811 E0.96896
G1 X154.875 Y82.274 E1.00751
G1 X156.543 Y80.997 E1.04943
G1 X158.506 Y80.179 E1.09187
G1 X160.607 Y79.902 E1.13416
G1 X162.67 Y80.173 E1.17569
G1 X163.678 Y80.583 E1.1974
G1 X164.678 Y81.001 E1.21903
G1 X166.345 Y82.278 E1.26094
G1 X167.638 Y83.959 E1.30326
G1 X167.726 Y84.171 E1.30784
G1 X167.73 Y84.181 E1.30806
G1 X168.446 Y85.904 E1.34529
G1 X168.718 Y87.977 E1.38701
G1 X168.426 Y90.179 E1.43134
G1 X167.601 Y92.136 E1.47373
G1 X166.742 Y93.244 E1.5017
G1 X166.586 Y93.446 E1.5068
G1 X166.505 Y93.56 E1.50959
G1 X166.352 Y93.758 E1.51458
G1 X165.346 Y94.522 E1.53979
G1 X164.666 Y95.057 E1.55706
G1 X162.728 Y95.854 E1.59887
G1 X160.649 Y96.126 E1.64072
G1 X158.472 Y95.836 E1.68454
G1 X156.537 Y95.036 E1.72633
G1 X154.881 Y93.771 E1.76792
G1 X153.571 Y92.07 E1.81076
G1 X152.76 Y90.106 E1.85316
G1 X152.495 Y88.066 E1.89422
G1 X152.789 Y85.86 E1.93863
G1 X153.558 Y84 E1.9788
G0 F9000 X153.208 Y83.798
G1 F1800 X153.368 Y83.593 E1.98398
G1 X154.588 Y81.991 E2.02417
G1 X156.344 Y80.646 E2.06831
G1 X158.402 Y79.788 E2.11281
G1 X160.607 Y79.498 E2.15719
G1 X162.77 Y79.782 E2.20072
G1 X163.833 Y80.214 E2.22362
G1 X164.88 Y80.652 E2.24627
G1 X166.629 Y81.992 E2.29024
G1 X167.988 Y83.757 E2.33469
G1 X168.096 Y84.019 E2.34035
G1 X168.1 Y84.027 E2.34053
G1 X168.834 Y85.795 E2.37873
G1 X169.121 Y87.978 E2.42267
G1 X168.815 Y90.286 E2.46913
G1 X168.813 Y90.29 E2.46922
G1 X167.948 Y92.341 E2.51364
G1 X167.059 Y93.489 E2.54262
G1 X167.055 Y93.493 E2.54273
G1 X166.636 Y94.044 E2.55654
G1 X165.588 Y94.84 E2.58281
G1 X165.247 Y95.112 E2.59151
G1 X164.864 Y95.408 E2.60117
G1 X162.836 Y96.243 E2.64494
G1 X160.649 Y96.529 E2.68895
G1 X158.363 Y96.225 E2.73497
G1 X156.336 Y95.386 E2.77875
G1 X154.599 Y94.058 E2.82239
G1 X153.22 Y92.268 E2.86748
G1 X152.37 Y90.21 E2.91191
G1 X152.359 Y90.131 E2.91351
G1 X152.092 Y88.068 E2.95502
G1 X152.401 Y85.752 E3.00165
G1 X153.208 Y83.798 E3.04384
G0 F9000 X153.052 Y83.347
G1 F1800 X153.069 Y83.326 E3.04438
G1 X154.304 Y81.704 E3.08506
G1 X156.141 Y80.297 E3.13124
G1 X158.296 Y79.4 E3.17782
G1 X160.607 Y79.095 E3.22434
G1 X162.873 Y79.393 E3.26995
G1 X163.988 Y79.845 E3.29396
G1 X165.082 Y80.302 E3.31762
G1 X166.914 Y81.707 E3.36369
G1 X168.337 Y83.555 E3.41023
G1 X168.466 Y83.867 E3.41697
G1 X168.469 Y83.874 E3.41712
G1 X169.218 Y85.676 E3.45607
G1 X169.225 Y85.693 E3.45643
G1 X169.525 Y87.978 E3.50243
G1 X169.205 Y90.389 E3.55096
G1 X169.191 Y90.423 E3.5517
G1 X168.297 Y92.543 E3.59761
G1 X168.279 Y92.567 E3.59821
G1 X167.375 Y93.734 E3.62767
G1 X166.922 Y94.33 E3.64261
G1 X165.83 Y95.159 E3.66997
G1 X165.492 Y95.429 E3.6786
G1 X165.068 Y95.757 E3.6893
G1 X162.938 Y96.633 E3.73526
G1 X160.648 Y96.933 E3.78135
G1 X158.259 Y96.615 E3.82944
G1 X156.135 Y95.736 E3.87532
G1 X154.313 Y94.343 E3.92109
G1 X152.87 Y92.469 E3.96829
G1 X151.981 Y90.318 E4.01473
G1 X151.963 Y90.186 E4.01739
G1 X151.722 Y88.331 E4.05472
G1 X151.723 Y88.331 E4.05474
G1 X151.688 Y88.063 E4.06014
G1 X152.01 Y85.651 E4.1087
G1 X152.861 Y83.592 E4.15316
G1 X153.052 Y83.347 E4.15936
G0 F9000 X152.737 Y83.102
G1 F1800 X152.75 Y83.084 E4.1598
G1 X154.015 Y81.422 E4.20148
G1 X155.941 Y79.947 E4.24989
G1 X158.193 Y79.009 E4.29858
G1 X160.607 Y78.691 E4.34717
G1 X162.973 Y79.002 E4.39479
G1 X164.142 Y79.476 E4.41996
G1 X165.285 Y79.954 E4.44469
G1 X167.199 Y81.42 E4.4928
G1 X168.688 Y83.354 E4.54151
G1 X168.836 Y83.714 E4.54928
G1 X168.838 Y83.72 E4.5494
G1 X169.588 Y85.525 E4.58841
G1 X169.616 Y85.593 E4.58988
G1 X169.928 Y87.975 E4.63782
G1 X169.594 Y90.496 E4.68857
G1 X169.56 Y90.578 E4.69034
G1 X168.647 Y92.743 E4.73723
G1 X168.598 Y92.808 E4.73885
G1 X167.691 Y93.979 E4.76841
G1 X167.688 Y93.982 E4.76849
G1 X167.204 Y94.619 E4.78446
G1 X166.072 Y95.478 E4.81282
G1 X166.028 Y95.512 E4.81393
G1 X165.737 Y95.745 E4.82137
G1 X165.272 Y96.104 E4.83309
G1 X163.037 Y97.024 E4.88132
G1 X160.651 Y97.336 E4.92934
G1 X158.155 Y97.004 E4.97959
G1 X155.932 Y96.084 E5.0276
G1 X154.028 Y94.629 E5.07542
G1 X152.52 Y92.671 E5.12474
G1 X151.593 Y90.424 E5.17325
G1 X151.567 Y90.241 E5.17694
G1 X151.285 Y88.065 E5.22073
G1 X151.621 Y85.544 E5.27148
G1 X152.511 Y83.393 E5.31794
G1 X152.737 Y83.102 E5.32529
G0 F9000 X152.421 Y82.856
G1 F1800 X152.432 Y82.841 E5.32566
G1 X153.729 Y81.137 E5.3684
G1 X155.738 Y79.599 E5.41889
G1 X158.087 Y78.62 E5.46967
G1 X160.607 Y78.288 E5.5204
G1 X163.08 Y78.614 E5.57017
G1 X164.296 Y79.107 E5.59636
G1 X165.486 Y79.605 E5.6221
G1 X167.485 Y81.137 E5.67236
G1 X169.037 Y83.152 E5.72312
G1 X169.206 Y83.562 E5.73197
G1 X169.208 Y83.567 E5.73208
G1 X170.004 Y85.483 E5.77348
G1 X170.331 Y87.979 E5.82372
G1 X169.984 Y90.599 E5.87646
G1 X169.928 Y90.734 E5.87938
G1 X168.995 Y92.947 E5.9273
G1 X168.929 Y93.034 E5.92948
G1 X168.007 Y94.224 E5.95952
G1 X168.005 Y94.226 E5.95958
G1 X167.49 Y94.904 E5.97657
G1 X166.314 Y95.796 E6.00603
G1 X166.278 Y95.824 E6.00694
G1 X165.981 Y96.062 E6.01453
G1 X165.474 Y96.454 E6.02732
G1 X163.143 Y97.413 E6.07762
G1 X160.646 Y97.739 E6.12788
G1 X158.051 Y97.394 E6.18012
G1 X155.731 Y96.434 E6.23022
G1 X153.741 Y94.913 E6.28021
G1 X152.173 Y92.877 E6.33149
G1 X151.203 Y90.529 E6.38219
G1 X151.171 Y90.296 E6.38688
G1 X150.881 Y88.063 E6.43182
G1 X151.231 Y85.44 E6.48463
G1 X152.162 Y83.189 E6.53324
G1 X152.421 Y82.856 E6.54166
G0 F9000 X152.105 Y82.611
G1 F1800 X152.114 Y82.599 E6.54196
G1 X153.447 Y80.849 E6.58586
G1 X155.535 Y79.249 E6.63835
G1 X157.98 Y78.23 E6.69121
G1 X160.607 Y77.884 E6.74409
G1 X163.18 Y78.223 E6.79588
G1 X164.45 Y78.738 E6.82323
G1 X165.689 Y79.256 E6.85003
G1 X167.77 Y80.851 E6.90235
G1 X169.388 Y82.952 E6.95527
G1 X169.576 Y83.409 E6.96513
G1 X169.577 Y83.413 E6.96522
G1 X170.378 Y85.342 E7.0069
G1 X170.395 Y85.383 E7.00778
G1 X170.735 Y87.976 E7.05997
G1 X170.373 Y90.707 E7.11495
G1 X170.297 Y90.889 E7.11889
G1 X169.345 Y93.147 E7.16779
G1 X169.245 Y93.279 E7.17109
G1 X168.11 Y94.752 E7.2082
G1 X168.107 Y94.757 E7.20832
G1 X167.774 Y95.191 E7.21923
G1 X166.527 Y96.137 E7.25047
G1 X166.226 Y96.378 E7.25817
G1 X165.676 Y96.803 E7.27204
G1 X163.246 Y97.803 E7.32448
G1 X160.649 Y98.143 E7.37674
G1 X157.946 Y97.783 E7.43116
G1 X155.53 Y96.783 E7.48334
G1 X153.456 Y95.198 E7.53543
G1 X151.823 Y93.078 E7.58884
G1 X150.815 Y90.636 E7.64156
G1 X150.775 Y90.351 E7.6473
G1 X150.774 Y90.351 E7.64732
G1 X150.478 Y88.065 E7.69332
G1 X150.842 Y85.336 E7.74826
G1 X151.815 Y82.982 E7.79909
G1 X151.846 Y82.944 E7.80007
G1 X152.105 Y82.611 E7.80849
G0 F9000 X151.796 Y82.357
G1 F1800 X153.161 Y80.565 E7.85345
G1 X155.334 Y78.9 E7.90808
G1 X157.879 Y77.84 E7.96309
G1 X160.601 Y77.481 E8.01789
G1 X160.612 Y77.481 E8.0181
G1 X163.28 Y77.832 E8.07181
G1 X164.605 Y78.369 E8.10034
G1 X165.891 Y78.907 E8.12816
G1 X168.055 Y80.565 E8.18256
G1 X169.735 Y82.747 E8.23751
G1 X169.945 Y83.257 E8.24852
G1 X169.947 Y83.26 E8.24859
G1 X170.748 Y85.191 E8.29031
G1 X170.784 Y85.278 E8.29219
G1 X171.138 Y87.981 E8.34659
G1 X170.764 Y90.806 E8.40346
G1 X170.662 Y91.052 E8.40878
G1 X170.663 Y91.052 E8.4088
G1 X169.695 Y93.347 E8.4585
G1 X169.555 Y93.532 E8.46313
G1 X169.556 Y93.532 E8.46315
G1 X168.64 Y94.714 E8.49299
G1 X168.638 Y94.715 E8.49304
G1 X168.486 Y94.912 E8.498
G1 X168.431 Y94.992 E8.49994
G1 X168.061 Y95.473 E8.51205
G1 X166.797 Y96.433 E8.54373
G1 X166.47 Y96.695 E8.55209
G1 X165.877 Y97.154 E8.56705
G1 X163.353 Y98.192 E8.62152
G1 X160.644 Y98.546 E8.67604
G1 X157.842 Y98.173 E8.73245
G1 X155.329 Y97.134 E8.78671
G1 X153.886 Y96.034 E8.82292
G1 X153.887 Y96.033 E8.82295
G1 X153.17 Y95.481 E8.84101
G1 X151.474 Y93.28 E8.89646
G1 X150.424 Y90.739 E8.95133
G1 X150.379 Y90.415 E8.95785
G1 X150.38 Y90.415 E8.95787
G1 X150.075 Y88.06 E9.00526
G1 X150.452 Y85.232 E9.0622
G1 X151.469 Y82.772 E9.11532
G1 X151.53 Y82.698 E9.11723
G1 X151.789 Y82.365 E9.12565
G1 X151.796 Y82.357 E9.12586
G0 F9000 X151.474 Y82.119
G1 F1800 X151.477 Y82.114 E9.12598
G1 X152.872 Y80.281 E9.17195
G1 X155.131 Y78.552 E9.22872
G1 X157.773 Y77.451 E9.28584
G1 X160.578 Y77.081 E9.3423
G1 X160.635 Y77.081 E9.34344
G1 X163.384 Y77.443 E9.39877
G1 X164.759 Y78 E9.42838
G1 X166.094 Y78.558 E9.45725
G1 X168.339 Y80.279 E9.5137
G1 X170.084 Y82.545 E9.57078
G1 X170.315 Y83.105 E9.58287
G1 X170.316 Y83.106 E9.58289
G1 X171.119 Y85.04 E9.62468
G1 X171.119 Y85.041 E9.6247
G1 X171.174 Y85.175 E9.62759
G1 X171.542 Y87.977 E9.68399
G1 X171.152 Y90.912 E9.74308
G1 X171.034 Y91.2 E9.74929
G1 X170.042 Y93.551 E9.80021
G1 X169.878 Y93.769 E9.80565
G1 X168.956 Y94.959 E9.8357
G1 X168.955 Y94.959 E9.83572
G1 X168.803 Y95.156 E9.84068
G1 X168.749 Y95.235 E9.84259
G1 X168.346 Y95.76 E9.8558
G1 X167.039 Y96.752 E9.88854
G1 X167.027 Y96.761 E9.88884
G1 X166.715 Y97.011 E9.89682
G1 X166.078 Y97.503 E9.91288
G1 X163.456 Y98.582 E9.96947
G1 X160.647 Y98.95 E10.026
G1 X157.734 Y98.562 E10.08465
G1 X155.13 Y97.485 E10.14088
G1 X152.885 Y95.767 E10.1973
G1 X151.125 Y93.484 E10.25482
G1 X150.035 Y90.843 E10.31184
G1 X149.982 Y90.461 E10.31953
G1 X149.671 Y88.062 E10.36781
G1 X150.063 Y85.124 E10.42696
G1 X151.12 Y82.567 E10.48218
G1 X151.197 Y82.474 E10.48459
G1 X151.215 Y82.452 E10.48515
G1 X151.474 Y82.119 E10.49357
G0 F9000 X151.158 Y81.874
G1 F1800 X152.586 Y79.997 E10.54064
G1 X154.93 Y78.202 E10.59955
G1 X157.667 Y77.062 E10.65872
G1 X157.683 Y77.059 E10.65905
G1 X160.549 Y76.681 E10.71674
G1 X160.664 Y76.681 E10.71903
G1 X163.484 Y77.052 E10.77579
G1 X164.913 Y77.631 E10.80656
G1 X166.295 Y78.209 E10.83646
G1 X168.626 Y79.995 E10.89506
G1 X170.435 Y82.345 E10.95424
G1 X170.685 Y82.952 E10.96734
G1 X171.565 Y85.073 E11.01317
G1 X171.946 Y87.978 E11.07164
G1 X171.543 Y91.016 E11.13279
G1 X171.403 Y91.355 E11.14011
G1 X170.392 Y93.751 E11.19201
G1 X170.194 Y94.014 E11.19858
G1 X169.12 Y95.401 E11.23359
G1 X169.084 Y95.454 E11.23487
G1 X168.63 Y96.045 E11.24974
G1 X168.561 Y96.099 E11.25149
G1 X167.281 Y97.071 E11.28356
G1 X167.277 Y97.074 E11.28366
G1 X166.96 Y97.328 E11.29177
G1 X166.282 Y97.852 E11.30887
G1 X163.558 Y98.973 E11.36765
G1 X160.646 Y99.354 E11.42626
G1 X157.633 Y98.953 E11.48691
G1 X154.927 Y97.833 E11.54536
G1 X152.601 Y96.054 E11.6038
G1 X150.775 Y93.684 E11.6635
G1 X149.647 Y90.951 E11.72251
G1 X149.586 Y90.516 E11.73127
G1 X149.267 Y88.06 E11.78069
G1 X149.672 Y85.023 E11.84184
G1 X150.771 Y82.366 E11.89922
G1 X150.827 Y82.291 E11.90109
G1 X150.899 Y82.207 E11.90329
G1 X151.158 Y81.874 E11.91171
G1 F2700 E2.91171
G1 F300 Z0.32
G0 F9000 X119.408 Y46.326 Z0.32
G1 F300 Z0.12
G1 F2700 E11.91171
G1 F1800 X116.488 Y46.326 E11.96998
G1 X116.488 Y38.526 E12.12564
G1 X119.423 Y38.526 E12.18421
G1 X119.422 Y46.312 E12.33959
G1 X119.408 Y46.326 E12.33999
G0 F9000 X119.022 Y45.926
G1 F1800 X116.888 Y45.926 E12.38257
G1 X116.888 Y38.926 E12.52226
G1 X119.023 Y38.926 E12.56487
G1 X119.022 Y45.926 E12.70456
G0 F9000 X118.622 Y45.526
G1 F1800 X117.288 Y45.526 E12.73118
G1 X117.288 Y39.326 E12.85491
G1 X118.623 Y39.326 E12.88155
G1 X118.622 Y45.526 E13.00528
G0 F9000 X118.222 Y45.126
G1 F1800 X117.688 Y45.126 E13.01594
G1 X117.688 Y39.726 E13.1237
G1 X118.223 Y39.726 E13.13438
G1 X118.222 Y45.126 E13.24214
G1 F2700 E4.24214
G1 F300 Z0.32
G0 F9000 X132.422 Y30.526 Z0.32
G1 F300 Z0.12
G1 F2700 E13.24214
G1 F1800 X129.487 Y30.526 E13.30071
G1 X129.488 Y22.74 E13.45609
G1 X129.502 Y22.726 E13.45648
G1 X132.422 Y22.726 E13.51476
G1 X132.422 Y30.526 E13.67041
G0 F9000 X132.022 Y30.126
G1 F1800 X129.887 Y30.126 E13.71302
G1 X129.888 Y23.126 E13.85271
G1 X132.022 Y23.126 E13.8953
G1 X132.022 Y30.126 E14.03499
G0 F9000 X131.622 Y29.726
G1 F1800 X130.287 Y29.726 E14.06163
G1 X130.288 Y23.526 E14.18536
G1 X131.622 Y23.526 E14.21198
G1 X131.622 Y29.726 E14.33571
G0 F9000 X131.222 Y29.326
G1 F1800 X130.687 Y29.326 E14.34639
G1 X130.688 Y23.926 E14.45415
G1 X131.222 Y23.926 E14.46481
G1 X131.222 Y29.326 E14.57257
G1 F2700 E5.57257
G1 F300 Z0.32
G0 F9000 X102.403 Y32.16 Z0.32
G1 F300 Z0.12
G1 F2700 E14.57257
G1 F1800 X99.468 Y32.16 E14.63114
G1 X99.469 Y24.374 E14.78652
G1 X99.483 Y24.36 E14.78691
G1 X102.403 Y24.36 E14.84518
G1 X102.403 Y32.16 E15.00084
G0 F9000 X102.003 Y31.76
G1 F1800 X99.868 Y31.76 E15.04345
G1 X99.869 Y24.76 E15.18314
G1 X102.003 Y24.76 E15.22573
G1 X102.003 Y31.76 E15.36542
G0 F9000 X101.603 Y31.36
G1 F1800 X100.268 Y31.36 E15.39206
G1 X100.269 Y25.16 E15.51579
G1 X101.603 Y25.16 E15.54241
G1 X101.603 Y31.36 E15.66614
G0 F9000 X101.203 Y30.96
G1 F1800 X100.668 Y30.96 E15.67681
G1 X100.669 Y25.56 E15.78458
G1 X101.203 Y25.56 E15.79523
G1 X101.203 Y30.96 E15.903
G1 F2700 E6.903
G1 F300 Z0.32
G0 F9000 X88.203 Y46.76 Z0.32
G1 F300 Z0.12
G1 F2700 E15.903
G1 F1800 X87.669 Y46.76 E15.91365
G1 X87.669 Y41.36 E16.02142
G1 X88.204 Y41.36 E16.03209
G1 X88.203 Y46.76 E16.13986
G0 F9000 X88.603 Y47.16
G1 F1800 X87.269 Y47.16 E16.16648
G1 X87.269 Y40.96 E16.2902
G1 X88.604 Y40.96 E16.31685
G1 X88.603 Y47.16 E16.44057
G0 F9000 X89.003 Y47.56
G1 F1800 X86.869 Y47.56 E16.48316
G1 X86.869 Y40.56 E16.62285
G1 X89.004 Y40.56 E16.66546
G1 X89.003 Y47.56 E16.80515
G0 F9000 X89.403 Y47.946
G1 F1800 X89.389 Y47.96 E16.80555
G1 X86.469 Y47.96 E16.86382
G1 X86.469 Y40.16 E17.01948
G1 X89.404 Y40.16 E17.07805
G1 X89.403 Y47.946 E17.23342
G1 F2700 E8.23342
G1 F300 Z0.32
G0 F9000 X68.28 Y33.514 Z0.32
G1 F300 Z0.12
G1 F2700 E17.23342
G1 F1800 X65.345 Y33.514 E17.292
G1 X65.346 Y25.728 E17.44737
G1 X65.36 Y25.714 E17.44777
G1 X68.28 Y25.714 E17.50604
G1 X68.28 Y33.514 E17.6617
G0 F9000 X67.88 Y33.114
G1 F1800 X65.745 Y33.114 E17.7043
G1 X65.746 Y26.114 E17.844
G1 X67.88 Y26.114 E17.88658
G1 X67.88 Y33.114 E18.02628
G0 F9000 X67.48 Y32.714
G1 F1800 X66.145 Y32.714 E18.05292
G1 X66.146 Y26.514 E18.17664
G1 X67.48 Y26.514 E18.20327
G1 X67.48 Y32.714 E18.32699
G0 F9000 X67.08 Y32.314
G1 F1800 X66.545 Y32.314 E18.33767
G1 X66.546 Y26.914 E18.44543
G1 X67.08 Y26.914 E18.45609
G1 X67.08 Y32.314 E18.56385
G1 F2700 E9.56385
G1 F300 Z0.32
G0 F9000 X54.08 Y48.114 Z0.32
G1 F300 Z0.12
G1 F2700 E18.56385
G1 F1800 X53.546 Y48.114 E18.57451
