;FLAVOR:Marlin
;TIME:5741
;Filament used: 3.3467m
;Layer height: 0.2
;MINX:69.45
;MINY:70.25
;MINZ:0.12
;MAXX:122.55
;MAXY:145.749
;MAXZ:19.52
;Generated with Cura_SteamEngine 4.6.0
M140 S60
M105
M190 S60
M104 S225
M105
M109 S225
M82 ;absolute extrusion mode
M201 X500.00 Y500.00 Z100.00 E5000.00 ;Setup machine max acceleration
M203 X500.00 Y500.00 Z10.00 E50.00 ;Setup machine max feedrate
M204 P500.00 R1000.00 T500.00 ;Setup Print/Retract/Travel acceleration
M205 X8.00 Y8.00 Z0.40 E5.00 ;Setup Jerk
M220 S100 ;Reset Feedrate
M221 S100 ;Reset Flowrate

G28 ;Home

G92 E0 ;Reset Extruder
G1 Z2.0 F3000 ;Move Z Axis up
G1 X10.1 Y20 Z0.28 F5000.0 ;Move to start position
G1 X10.1 Y200.0 Z0.28 F1500.0 E15 ;Draw the first line
G1 X10.4 Y200.0 Z0.28 F5000.0 ;Move to side a little
G1 X10.4 Y20 Z0.28 F1500.0 E30 ;Draw the second line
G92 E0 ;Reset Extruder
G1 Z2.0 F3000 ;Move Z Axis up

G92 E0
G92 E0
G1 F2700 E-9
;LAYER_COUNT:97
;LAYER:0
M107
G1 F300 Z0.32
G0 F9000 X103.338 Y89.35 Z0.32
;TYPE:SKIRT
G1 F300 Z0.12
G1 F2700 E0
G1 F1800 X103.662 Y89.35 E0.00647
G1 X103.661 Y95.95 E0.13818
G1 X103.338 Y95.95 E0.14462
G1 X103.338 Y89.35 E0.27633
G0 F9000 X102.938 Y89.024
G1 F1800 X102.929 Y88.95 E0.27782
G1 X104.073 Y88.95 E0.30065
G1 X104.062 Y89.023 E0.30212
G1 X104.061 Y96.35 E0.44834
G1 X102.938 Y96.35 E0.47075
G1 X102.938 Y89.024 E0.61695
G0 F9000 X102.538 Y89.024
G1 F1800 X102.498 Y88.745 E0.62257
G1 X102.42 Y88.572 E0.62636
G1 X102.429 Y88.55 E0.62684
G1 X104.573 Y88.55 E0.66962
G1 X104.578 Y88.562 E0.66988
G1 X104.486 Y88.806 E0.67508
G1 X104.462 Y89.023 E0.67944
G1 X104.461 Y96.75 E0.83364
G1 X102.538 Y96.75 E0.87202
G1 X102.538 Y89.024 E1.0262
G0 F9000 X102.138 Y89.024
G1 F1800 X102.098 Y88.809 E1.03056
G1 X101.97 Y88.611 E1.03527
G1 X102.074 Y88.362 E1.04065
G1 X102.116 Y88.15 E1.04497
G1 X104.878 Y88.15 E1.10008
G1 X104.913 Y88.326 E1.10367
G1 X105.03 Y88.61 E1.1098
G1 X104.914 Y88.778 E1.11387
G1 X104.862 Y89.023 E1.11887
G1 X104.861 Y97.15 E1.28105
G1 X102.138 Y97.15 E1.33539
G1 X102.138 Y89.024 E1.49755
G0 F9000 X101.738 Y89.024
G1 F1800 X101.68 Y88.883 E1.5006
G1 X101.499 Y88.701 E1.50572
G1 X101.705 Y88.208 E1.51638
G1 X101.72 Y88.131 E1.51795
G1 X101.72 Y87.75 E1.52555
G1 X105.268 Y87.75 E1.59635
G1 X105.268 Y88.097 E1.60328
G1 X105.283 Y88.173 E1.60483
G1 X105.501 Y88.702 E1.61624
G1 X105.321 Y88.882 E1.62132
G1 X105.262 Y89.023 E1.62437
G1 X105.261 Y97.537 E1.79428
G1 X105.248 Y97.55 E1.79465
G1 X101.738 Y97.55 E1.86469
G1 X101.738 Y89.024 E2.03484
G1 F2700 E-6.96516
G1 F300 Z0.32
G0 F9000 X89.967 Y96.45 Z0.32
G1 F300 Z0.12
G1 F2700 E2.03484
G1 F1800 X89.967 Y104.448 E2.19445
G1 X90.026 Y104.589 E2.1975
G1 X90.28 Y104.843 E2.20467
G1 X90.28 Y105.75 E2.22277
G1 X86.732 Y105.75 E2.29357
G1 X86.732 Y104.82 E2.31213
G1 X86.974 Y104.578 E2.31896
G1 X87.033 Y104.437 E2.32201
G1 X87.033 Y96.45 E2.4814
G1 X89.967 Y96.45 E2.53995
G0 F9000 X89.567 Y96.85
G1 F1800 X89.567 Y104.448 E2.69158
G1 X89.607 Y104.663 E2.69594
G1 X89.743 Y104.872 E2.70092
G1 X89.88 Y105.009 E2.70478
G1 X89.88 Y105.35 E2.71159
G1 X87.132 Y105.35 E2.76643
G1 X87.132 Y104.986 E2.77369
G1 X87.257 Y104.861 E2.77722
G1 X87.381 Y104.682 E2.78156
G1 X87.433 Y104.437 E2.78656
G1 X87.433 Y96.85 E2.93797
G1 X89.567 Y96.85 E2.98056
G0 F9000 X89.167 Y97.25
G1 F1800 X89.167 Y104.448 E3.1242
G1 X89.207 Y104.727 E3.12982
G1 X89.308 Y104.95 E3.13471
G1 X87.685 Y104.95 E3.1671
G1 X87.709 Y104.918 E3.1679
G1 X87.809 Y104.654 E3.17353
G1 X87.833 Y104.437 E3.17789
G1 X87.833 Y97.25 E3.32131
G1 X89.167 Y97.25 E3.34793
G0 F9000 X88.767 Y97.65
G1 F1800 X88.767 Y104.448 E3.48359
G1 X88.779 Y104.55 E3.48564
G1 X88.216 Y104.55 E3.49688
G1 X88.233 Y104.437 E3.49916
G1 X88.233 Y97.65 E3.6346
G1 X88.767 Y97.65 E3.64526
G1 F2700 E-5.35474
G1 F300 Z0.32
G0 F9000 X77.268 Y113.75 Z0.32
G1 F300 Z0.12
G1 F2700 E3.64526
G1 F1800 X77.268 Y114.097 E3.65218
G1 X77.283 Y114.173 E3.65373
G1 X77.501 Y114.702 E3.66515
G1 X77.321 Y114.882 E3.67023
G1 X77.262 Y115.023 E3.67328
G1 X77.261 Y123.537 E3.84318
G1 X77.248 Y123.55 E3.84355
G1 X73.738 Y123.55 E3.9136
G1 X73.738 Y115.024 E4.08374
G1 X73.68 Y114.883 E4.08678
G1 X73.499 Y114.701 E4.09191
G1 X73.705 Y114.208 E4.10257
G1 X73.72 Y114.131 E4.10413
G1 X73.72 Y113.75 E4.11174
G1 X77.268 Y113.75 E4.18254
G0 F9000 X76.878 Y114.15
G1 F1800 X76.913 Y114.326 E4.18612
G1 X77.03 Y114.61 E4.19225
G1 X76.914 Y114.778 E4.19633
G1 X76.862 Y115.023 E4.20132
G1 X76.861 Y123.15 E4.36351
G1 X74.138 Y123.15 E4.41785
G1 X74.138 Y115.024 E4.58001
G1 X74.098 Y114.809 E4.58438
G1 X73.97 Y114.611 E4.58908
G1 X74.074 Y114.362 E4.59447
G1 X74.116 Y114.15 E4.59878
G1 X76.878 Y114.15 E4.6539
G0 F9000 X76.573 Y114.55
G1 F1800 X76.578 Y114.562 E4.65416
G1 X76.486 Y114.806 E4.65936
G1 X76.462 Y115.023 E4.66372
G1 X76.461 Y122.75 E4.81792
G1 X74.538 Y122.75 E4.85629
G1 X74.538 Y115.024 E5.01047
G1 X74.498 Y114.745 E5.0161
G1 X74.42 Y114.572 E5.01989
G1 X74.429 Y114.55 E5.02036
G1 X76.573 Y114.55 E5.06315
G0 F9000 X76.073 Y114.95
G1 F1800 X76.062 Y115.023 E5.06462
G1 X76.061 Y122.35 E5.21084
G1 X74.938 Y122.35 E5.23325
G1 X74.938 Y115.024 E5.37945
G1 X74.929 Y114.95 E5.38093
G1 X76.073 Y114.95 E5.40376
G0 F9000 X75.662 Y115.35
G1 F1800 X75.661 Y121.95 E5.53547
G1 X75.338 Y121.95 E5.54192
G1 X75.338 Y115.35 E5.67363
G1 X75.662 Y115.35 E5.6801
G1 F2700 E-3.3199
G1 F300 Z0.32
G0 F9000 X95.268 Y135.75 Z0.32
G1 F300 Z0.12
G1 F2700 E5.6801
G1 F1800 X95.268 Y136.097 E5.68702
G1 X95.283 Y136.173 E5.68857
G1 X95.501 Y136.702 E5.69998
G1 X95.321 Y136.882 E5.70506
G1 X95.262 Y137.023 E5.70811
G1 X95.261 Y145.537 E5.87802
G1 X95.248 Y145.55 E5.87839
G1 X91.738 Y145.55 E5.94843
G1 X91.738 Y137.024 E6.11858
G1 X91.68 Y136.883 E6.12162
G1 X91.499 Y136.701 E6.12674
G1 X91.705 Y136.208 E6.13741
G1 X91.72 Y136.131 E6.13897
G1 X91.72 Y135.75 E6.14658
G1 X95.268 Y135.75 E6.21738
G0 F9000 X94.878 Y136.15
G1 F1800 X94.913 Y136.326 E6.22096
G1 X95.03 Y136.61 E6.22709
G1 X94.914 Y136.778 E6.23116
G1 X94.862 Y137.023 E6.23616
G1 X94.861 Y145.15 E6.39835
G1 X92.138 Y145.15 E6.45269
G1 X92.138 Y137.024 E6.61485
G1 X92.098 Y136.809 E6.61921
G1 X91.97 Y136.611 E6.62392
G1 X92.074 Y136.362 E6.6293
G1 X92.116 Y136.15 E6.63362
G1 X94.878 Y136.15 E6.68873
G0 F9000 X94.573 Y136.55
G1 F1800 X94.578 Y136.562 E6.68899
G1 X94.486 Y136.806 E6.6942
G1 X94.462 Y137.023 E6.69856
G1 X94.461 Y144.75 E6.85276
G1 X92.538 Y144.75 E6.89113
G1 X92.538 Y137.024 E7.04531
G1 X92.498 Y136.745 E7.05094
G1 X92.42 Y136.572 E7.05472
G1 X92.429 Y136.55 E7.0552
G1 X94.573 Y136.55 E7.09798
G0 F9000 X94.073 Y136.95
G1 F1800 X94.062 Y137.023 E7.09946
G1 X94.061 Y144.35 E7.24568
G1 X92.938 Y144.35 E7.26809
G1 X92.938 Y137.024 E7.41428
G1 X92.929 Y136.95 E7.41577
G1 X94.073 Y136.95 E7.4386
G0 F9000 X93.662 Y137.35
G1 F1800 X93.661 Y143.95 E7.57031
G1 X93.338 Y143.95 E7.57676
G1 X93.338 Y137.35 E7.70847
G1 X93.662 Y137.35 E7.71493
G1 F2700 E-1.28507
G1 F300 Z0.32
G0 F9000 X106.233 Y119.65 Z0.32
G1 F300 Z0.12
G1 F2700 E7.71493
G1 F1800 X106.767 Y119.65 E7.72559
G1 X106.767 Y126.448 E7.86125
G1 X106.779 Y126.55 E7.8633
G1 X106.216 Y126.55 E7.87454
G1 X106.233 Y126.437 E7.87682
G1 X106.233 Y119.65 E8.01226
G0 F9000 X105.833 Y119.25
G1 F1800 X107.167 Y119.25 E8.03888
G1 X107.167 Y126.448 E8.18252
G1 X107.207 Y126.727 E8.18815
G1 X107.308 Y126.95 E8.19303
G1 X105.685 Y126.95 E8.22542
G1 X105.709 Y126.918 E8.22622
G1 X105.809 Y126.654 E8.23185
G1 X105.833 Y126.437 E8.23621
G1 X105.833 Y119.25 E8.37964
G0 F9000 X105.433 Y118.85
G1 F1800 X107.567 Y118.85 E8.42222
G1 X107.567 Y126.448 E8.57385
G1 X107.607 Y126.663 E8.57821
G1 X107.743 Y126.872 E8.58319
G1 X107.88 Y127.009 E8.58706
G1 X107.88 Y127.35 E8.59386
G1 X105.132 Y127.35 E8.6487
G1 X105.132 Y126.986 E8.65596
G1 X105.257 Y126.861 E8.65949
G1 X105.381 Y126.682 E8.66384
G1 X105.433 Y126.437 E8.66883
G1 X105.433 Y118.85 E8.82024
G0 F9000 X105.033 Y118.45
G1 F1800 X107.967 Y118.45 E8.87879
G1 X107.967 Y126.448 E9.0384
G1 X108.026 Y126.589 E9.04145
G1 X108.28 Y126.843 E9.04862
G1 X108.28 Y127.75 E9.06672
G1 X104.732 Y127.75 E9.13752
G1 X104.732 Y126.82 E9.15608
G1 X104.974 Y126.578 E9.16291
G1 X105.033 Y126.437 E9.16596
G1 X105.033 Y118.45 E9.32535
G1 F2700 E0.32535
G1 F300 Z0.32
G0 F9000 X114.606 Y79.75 Z0.32
G1 F300 Z0.12
G1 F2700 E9.32535
G1 F1800 X114.604 Y78.946 E9.3414
G1 X114.974 Y78.576 E9.35184
G1 X115.033 Y78.435 E9.35489
G1 X115.033 Y70.45 E9.51424
G1 X117.967 Y70.45 E9.57279
G1 X117.967 Y78.448 E9.7324
G1 X118.026 Y78.589 E9.73545
G1 X118.386 Y78.949 E9.74561
G1 X118.386 Y79.75 E9.76159
G1 X114.606 Y79.75 E9.83703
G0 F9000 X115.005 Y79.35
G1 F1800 X115.005 Y79.111 E9.8418
G1 X115.257 Y78.859 E9.84891
G1 X115.381 Y78.68 E9.85326
G1 X115.433 Y78.435 E9.85825
G1 X115.433 Y70.85 E10.00962
G1 X117.567 Y70.85 E10.05221
G1 X117.567 Y78.448 E10.20383
G1 X117.607 Y78.663 E10.2082
G1 X117.743 Y78.872 E10.21317
G1 X117.986 Y79.115 E10.22003
G1 X117.986 Y79.35 E10.22472
G1 X115.005 Y79.35 E10.28421
G0 F9000 X115.684 Y78.95
G1 F1800 X115.709 Y78.916 E10.28505
G1 X115.809 Y78.652 E10.29069
G1 X115.833 Y78.435 E10.29504
G1 X115.833 Y71.25 E10.43843
G1 X117.167 Y71.25 E10.46505
G1 X117.167 Y78.448 E10.60869
G1 X117.207 Y78.727 E10.61432
G1 X117.308 Y78.95 E10.6192
G1 X115.684 Y78.95 E10.65161
G0 F9000 X116.215 Y78.55
G1 F1800 X116.233 Y78.435 E10.65393
G1 X116.233 Y71.65 E10.78934
G1 X116.767 Y71.65 E10.79999
G1 X116.767 Y78.448 E10.93565
G1 X116.779 Y78.55 E10.9377
G1 X116.215 Y78.55 E10.94896
G1 F2700 E1.94896
G1 F300 Z0.32
;MESH:axle_4.stl(2)
G0 F9000 X70.625 Y87.004 Z0.32
;TYPE:WALL-INNER
G1 F300 Z0.12
G1 F2700 E10.94896
G1 F1800 X70.409 Y86.839 E10.95438
G1 X70.245 Y86.625 E10.95976
G1 X70.109 Y86.447 E10.96423
G1 X69.919 Y85.988 E10.97415
G1 X69.85 Y85.46 E10.98477
G1 X69.85 Y82.54 E11.04305
G1 X69.918 Y82.017 E11.05357
G1 X70.11 Y81.552 E11.06361
G1 X70.246 Y81.374 E11.06808
G1 X70.411 Y81.159 E11.07349
G1 X70.625 Y80.995 E11.07887
G1 X70.625 Y81.159 E11.07929
G1 X70.625 Y81.431 E11.08353
G1 X70.625 Y86.569 E11.18606
G1 X70.625 Y86.839 E11.19004
G1 X70.625 Y87.004 E11.19046
G0 F9000 X70.804 Y87.383
G0 X70.997 Y87.628
G0 X74.154 Y87.77
G0 X74.346 Y87.926
G1 F1800 X74.475 Y87.906 E11.19307
G1 X74.475 Y86.511 E11.2209
G1 X74.475 Y85.96 E11.2319
G1 X74.475 Y85.925 E11.2326
G1 X74.5 Y85.96 E11.23274
G1 X74.834 Y86.397 E11.23885
G1 X75.058 Y86.689 E11.24619
G1 X75.846 Y87.294 E11.26602
G1 X75.923 Y87.327 E11.26769
G1 X76.758 Y87.673 E11.28572
G1 X76.842 Y87.686 E11.28742
G1 X77.762 Y87.807 E11.30594
G1 X77.844 Y87.792 E11.3076
G1 X78.733 Y87.676 E11.32549
G1 X79.658 Y87.293 E11.34547
G1 X79.725 Y87.24 E11.34718
G1 X79.725 Y87.239 E11.3472
G1 X80.439 Y86.692 E11.36515
G1 X81.044 Y85.904 E11.38497
G1 X81.077 Y85.827 E11.38664
G1 X81.423 Y84.992 E11.40468
G1 X81.436 Y84.908 E11.40638
G1 X81.556 Y83.991 E11.42483
G1 X81.536 Y83.865 E11.42738
G1 X81.424 Y83.011 E11.44457
G1 X81.043 Y82.092 E11.46442
G1 X80.99 Y82.025 E11.46613
G1 X80.989 Y82.025 E11.46615
G1 X80.442 Y81.311 E11.4841
G1 X79.654 Y80.706 E11.50392
G1 X79.577 Y80.673 E11.50559
G1 X78.742 Y80.327 E11.52363
G1 X78.658 Y80.314 E11.52533
G1 X77.738 Y80.193 E11.54384
G1 X77.656 Y80.208 E11.54551
G1 X76.767 Y80.324 E11.5634
G1 X75.842 Y80.707 E11.58338
G1 X75.78 Y80.756 E11.58495
G1 X75.058 Y81.309 E11.6031
G1 X74.833 Y81.605 E11.61052
G1 X74.475 Y82.076 E11.62233
G1 X74.475 Y81.485 E11.62854
G1 X74.475 Y81.484 E11.62856
G1 X74.475 Y80 E11.65817
G1 X74.355 Y80 E11.66057
G1 X74.357 Y79.985
G1 X74.42 Y79.508 E11.67017
G1 X74.608 Y79.055 E11.67996
G1 X74.911 Y78.659 E11.68991
G1 X75.303 Y78.359 E11.69976
G1 X75.763 Y78.169 E11.70969
G1 X76.29 Y78.1 E11.7203
G1 X92.205 Y78.1 E12.0379
G1 X92.737 Y78.168 E12.0486
G1 X93.199 Y78.359 E12.05858
G1 X93.591 Y78.66 E12.06844
G1 X93.892 Y79.054 E12.07833
G1 X94.081 Y79.512 E12.08822
G1 X94.149 Y80.039 E12.09882
G1 X94.15 Y87.96 E12.2569
G1 X94.082 Y88.487 E12.2675
G1 X93.893 Y88.945 E12.27739
G1 X93.593 Y89.338 E12.28726
G1 X93.2 Y89.64 E12.29715
G1 X92.738 Y89.831 E12.30712
G1 X92.199 Y89.9 E12.31797
G1 X76.292 Y89.9 E12.63541
G1 X75.758 Y89.83 E12.64616
G1 X75.305 Y89.642 E12.65594
G1 X74.909 Y89.339 E12.66589
G1 X74.609 Y88.946 E12.67576
G1 X74.419 Y88.487 E12.68567
G1 X74.346 Y87.926 E12.69696
G0 F9000 X74.875 Y87.053
G1 F1800 X75.195 Y87.299 E12.70502
G1 X75.642 Y87.642 E12.71626
G1 X75.768 Y87.696 E12.719
G1 X76.649 Y88.061 E12.73803
G1 X76.785 Y88.082 E12.74078
G1 X77.772 Y88.212 E12.76064
G1 X77.896 Y88.189 E12.76316
G1 X78.837 Y88.066 E12.7821
G1 X79.862 Y87.641 E12.80424
G1 X80.724 Y86.977 E12.82595
G1 X81.392 Y86.108 E12.84783
G1 X81.446 Y85.982 E12.85056
G1 X81.811 Y85.101 E12.86959
G1 X81.832 Y84.965 E12.87234
G1 X81.96 Y83.985 E12.89206
G1 X81.933 Y83.813 E12.89554
G1 X81.814 Y82.907 E12.91377
G1 X81.391 Y81.887 E12.93581
G1 X81.272 Y81.736 E12.93965
G1 X80.727 Y81.026 E12.95751
G1 X79.858 Y80.358 E12.97938
G1 X79.732 Y80.304 E12.98212
G1 X78.851 Y79.939 E13.00115
G1 X78.715 Y79.918 E13.00389
G1 X77.728 Y79.788 E13.02376
G1 X77.604 Y79.811 E13.02628
G1 X76.663 Y79.934 E13.04522
G1 X75.638 Y80.359 E13.06736
G1 X75.537 Y80.438 E13.06992
G1 X75.196 Y80.7 E13.0785
G1 X74.875 Y80.945 E13.08656
G1 X74.875 Y80.542 E13.09099
G1 X74.875 Y80.541 E13.09101
G1 X74.875 Y79.6 E13.10979
G1 X74.814 Y79.6 E13.11101
G1 X74.823 Y79.579
G1 X74.956 Y79.259 E13.11765
G1 X75.197 Y78.944 E13.12556
G1 X75.504 Y78.709 E13.13328
G1 X75.867 Y78.559 E13.14112
G1 X76.319 Y78.5 E13.15021
G1 X92.177 Y78.5 E13.46668
G1 X92.633 Y78.558 E13.47585
G1 X92.998 Y78.709 E13.48373
G1 X93.305 Y78.945 E13.49146
G1 X93.542 Y79.255 E13.49925
G1 X93.691 Y79.616 E13.50704
G1 X93.749 Y80.067 E13.51612
G1 X93.75 Y87.932 E13.67307
G1 X93.692 Y88.383 E13.68214
G1 X93.543 Y88.744 E13.68994
G1 X93.307 Y89.054 E13.69771
G1 X92.999 Y89.29 E13.70546
G1 X92.634 Y89.441 E13.71334
G1 X92.171 Y89.5 E13.72265
G1 X76.321 Y89.5 E14.03896
G1 X75.859 Y89.439 E14.04826
G1 X75.509 Y89.294 E14.05582
G1 X75.195 Y89.054 E14.0637
G1 X74.959 Y88.745 E14.07146
G1 X74.809 Y88.383 E14.07928
G1 X74.793 Y88.262 E14.08172
G1 X74.875 Y88.249 E14.08338
G1 X74.875 Y87.457 E14.09918
G1 X74.875 Y87.456 E14.0992
G1 X74.875 Y87.053 E14.10364
G0 F9000 X74.075 Y87.562
;TYPE:WALL-OUTER
G1 F1800 X74.075 Y80.4 E14.24656
G1 X71.273 Y80.4 E14.30248
G1 X71.025 Y80.439 E14.30749
G1 X71.025 Y87.6 E14.45039
G1 X73.825 Y87.6 E14.50627
G1 X74.075 Y87.562 E14.51132
G1 F2700 E5.51132
G0 F9000 X74.085 Y87.735
G0 X77.715 Y87.698
G0 X77.753 Y87.402
G1 F2700 E14.51132
G1 F1800 X77.787 Y87.396 E14.51201
G1 X78.629 Y87.286 E14.52895
G1 X79.453 Y86.945 E14.54675
G1 X79.477 Y86.926 E14.54736
G1 X80.154 Y86.407 E14.56438
G1 X80.696 Y85.7 E14.58216
G1 X80.708 Y85.672 E14.58277
G1 X81.035 Y84.883 E14.59981
G1 X81.04 Y84.851 E14.60046
G1 X81.152 Y83.997 E14.61765
G1 X81.141 Y83.929 E14.61902
G1 X81.034 Y83.115 E14.63541
G1 X80.695 Y82.297 E14.65308
G1 X80.676 Y82.273 E14.65369
G1 X80.157 Y81.596 E14.67071
G1 X79.45 Y81.054 E14.68849
G1 X79.422 Y81.042 E14.6891
G1 X78.633 Y80.715 E14.70614
G1 X78.601 Y80.71 E14.70679
G1 X77.747 Y80.598 E14.72398
G1 X77.713 Y80.604 E14.72466
G1 X76.871 Y80.714 E14.74161
G1 X76.047 Y81.055 E14.75941
G1 X76.023 Y81.074 E14.76002
G1 X75.344 Y81.594 E14.77708
G1 X74.823 Y82.276 E14.79421
G1 X74.801 Y82.307 E14.79497
G1 X74.474 Y83.098 E14.81205
G1 X74.462 Y83.136 E14.81285
G1 X74.349 Y84.006 E14.83035
G1 X74.461 Y84.863 E14.8476
G1 X74.473 Y84.901 E14.8484
G1 X74.8 Y85.692 E14.86548
G1 X74.822 Y85.723 E14.86624
G1 X75.343 Y86.404 E14.88335
G1 X76.05 Y86.946 E14.90113
G1 X76.078 Y86.958 E14.90173
G1 X76.867 Y87.285 E14.91878
G1 X76.899 Y87.29 E14.91942
G1 X77.753 Y87.402 E14.93661
G0 F9000 X77.763 Y87.841
G1 F2700 E5.93661
G0 F9000 X92.762 Y89.931
G0 X92.842 Y90.221
G1 F2700 E14.93661
G1 F1800 X92.227 Y90.3 E14.94899
G1 X76.263 Y90.3 E15.26756
G1 X75.657 Y90.221 E15.27976
G1 X75.101 Y89.99 E15.29178
G1 X74.623 Y89.624 E15.30379
G1 X74.259 Y89.147 E15.31576
G1 X74.029 Y88.591 E15.32777
G1 X73.926 Y87.8 E15.34369
G1 X71.763 Y87.8 E15.38685
G1 X71.157 Y87.721 E15.39905
G1 X70.601 Y87.49 E15.41107
G1 X70.123 Y87.124 E15.42308
G1 X69.759 Y86.648 E15.43504
