;FLAVOR:Marlin
;TIME:17573
;Filament used: 13.2257m
;Layer height: 0.2
;MINX:40.865
;MINY:49.261
;MINZ:0.12
;MAXX:179.135
;MAXY:170.739
;MAXZ:10.72
;Generated with Cura_SteamEngine 4.6.0
M140 S60
M105
M190 S60
M104 S225
M105
M109 S225
M82 ;absolute extrusion mode
M201 X500.00 Y500.00 Z100.00 E5000.00 ;Setup machine max acceleration
M203 X500.00 Y500.00 Z10.00 E50.00 ;Setup machine max feedrate
M204 P500.00 R1000.00 T500.00 ;Setup Print/Retract/Travel acceleration
M205 X8.00 Y8.00 Z0.40 E5.00 ;Setup Jerk
M220 S100 ;Reset Feedrate
M221 S100 ;Reset Flowrate

G28 ;Home

G92 E0 ;Reset Extruder
G1 Z2.0 F3000 ;Move Z Axis up
G1 X10.1 Y20 Z0.28 F5000.0 ;Move to start position
G1 X10.1 Y200.0 Z0.28 F1500.0 E15 ;Draw the first line
G1 X10.4 Y200.0 Z0.28 F5000.0 ;Move to side a little
G1 X10.4 Y20 Z0.28 F1500.0 E30 ;Draw the second line
G92 E0 ;Reset Extruder
G1 Z2.0 F3000 ;Move Z Axis up

G92 E0
G92 E0
G1 F2700 E-9
;LAYER_COUNT:53
;LAYER:0
M107
G1 F300 Z0.32
G0 F9000 X41.265 Y60.689 Z0.32
;TYPE:SKIRT
G1 F300 Z0.12
G1 F2700 E0
G1 F1800 X41.765 Y60.69 E0.00998
G1 X41.765 Y64.427 E0.08455
G1 X41.265 Y64.428 E0.09453
G1 X41.265 Y60.689 E0.16915
G0 F9000 X41.408 Y60.288
G1 F1800 X42.165 Y60.291 E0.18425
G1 X42.165 Y64.826 E0.27476
G1 X40.886 Y64.829 E0.30028
G1 X40.865 Y64.808 E0.30087
G1 X40.865 Y60.301 E0.39081
G1 X40.873 Y60.292 E0.39105
G1 X41.408 Y60.288 E0.40173
G1 F2700 E-8.59827
G1 F300 Z0.32
G0 F9000 X107.732 Y169.439 Z0.32
G1 F300 Z0.12
G1 F2700 E0.40173
G1 F1800 X112.265 Y169.439 E0.49219
G1 X112.267 Y170.739 E0.51814
G1 X107.732 Y170.738 E0.60864
G1 X107.728 Y170.456 E0.61426
G1 X107.732 Y169.439 E0.63456
G0 F9000 X108.131 Y169.839
G1 F1800 X111.866 Y169.839 E0.7091
G1 X111.866 Y170.339 E0.71907
G1 X108.128 Y170.339 E0.79367
G1 X108.131 Y169.839 E0.80365
G1 F2700 E-8.19635
G1 F300 Z0.32
G0 F9000 X178.235 Y60.694 Z0.32
G1 F300 Z0.12
G1 F2700 E0.80365
G1 F1800 X178.735 Y60.693 E0.81363
G1 X178.735 Y64.432 E0.88824
G1 X178.235 Y64.431 E0.89822
G1 X178.235 Y60.694 E0.9728
G0 F9000 X177.835 Y60.295
G1 F1800 X179.114 Y60.292 E0.99832
G1 X179.135 Y60.313 E0.99891
G1 X179.134 Y64.83 E1.08905
G1 X178.632 Y64.833 E1.09907
G1 X177.835 Y64.83 E1.11498
G1 X177.835 Y60.295 E1.20548
G1 F2700 E-7.79452
G1 F300 Z0.32
;MESH:shaker_bearing_platform.stl
G0 F9000 X142.5 Y78.816 Z0.32
;TYPE:WALL-INNER
G1 F300 Z0.12
G1 F2700 E1.20548
G1 F1800 X142.5 Y78.332 E1.21514
G1 X142.446 Y78.278 E1.21666
G1 X142.423 Y78.098 E1.22028
G1 X142.146 Y77.433 E1.23466
G1 X142.054 Y77.341 E1.23725
G1 X141.759 Y76.962 E1.24684
G1 X141.223 Y76.555 E1.26027
G1 X141.105 Y76.517 E1.26274
G1 X140.588 Y76.301 E1.27392
G1 X140.445 Y76.301 E1.27678
G1 X139.98 Y76.244 E1.28613
G1 X139.37 Y76.324 E1.2984
G1 X138.684 Y76.603 E1.31318
G1 X138.591 Y76.696 E1.31581
G1 X138.212 Y76.991 E1.32539
G1 X137.805 Y77.526 E1.33881
G1 X137.771 Y77.63 E1.34099
G1 X137.551 Y78.163 E1.3525
G1 X137.551 Y78.305 E1.35533
G1 X137.494 Y78.77 E1.36468
G1 X137.573 Y79.372 E1.3768
G1 X137.619 Y79.499 E1.37949
G1 X137.854 Y80.067 E1.39176
G1 X137.946 Y80.159 E1.39436
G1 X138.241 Y80.538 E1.40394
G1 X138.777 Y80.945 E1.41737
G1 X138.895 Y80.983 E1.41985
G1 X139.412 Y81.199 E1.43103
G1 X139.555 Y81.199 E1.43388
G1 X140.02 Y81.256 E1.44323
G1 X140.622 Y81.177 E1.45535
G1 X140.749 Y81.131 E1.45804
G1 X141.317 Y80.896 E1.47031
G1 X141.414 Y80.799 E1.47305
G1 X141.786 Y80.509 E1.48246
G1 X142.195 Y79.974 E1.4959
G1 X142.229 Y79.87 E1.49808
G1 X142.449 Y79.337 E1.50959
G1 X142.449 Y79.205 E1.51222
G1 X142.5 Y78.816 E1.52005
G0 F9000 X142.1 Y78.79
G1 F1800 X142.1 Y78.498 E1.52588
G1 X142.067 Y78.465 E1.52681
G1 X142.033 Y78.202 E1.5321
G1 X141.807 Y77.66 E1.54382
G1 X141.752 Y77.605 E1.54537
G1 X141.475 Y77.249 E1.55438
G1 X141.035 Y76.914 E1.56541
G1 X140.961 Y76.89 E1.56696
G1 X140.508 Y76.701 E1.57676
G1 X140.421 Y76.701 E1.5785
G1 X139.982 Y76.647 E1.58732
G1 X139.473 Y76.714 E1.59757
G1 X138.91 Y76.943 E1.6097
G1 X138.855 Y76.998 E1.61125
G1 X138.499 Y77.275 E1.62025
G1 X138.164 Y77.715 E1.63129
G1 X138.145 Y77.773 E1.6325
G1 X137.951 Y78.242 E1.64263
G1 X137.951 Y78.329 E1.64437
G1 X137.897 Y78.768 E1.6532
G1 X137.964 Y79.277 E1.66344
G1 X137.992 Y79.355 E1.6651
G1 X138.193 Y79.84 E1.67557
G1 X138.248 Y79.895 E1.67712
G1 X138.525 Y80.251 E1.68613
G1 X138.965 Y80.586 E1.69716
G1 X139.039 Y80.61 E1.69871
G1 X139.492 Y80.799 E1.70851
G1 X139.579 Y80.799 E1.71025
G1 X140.018 Y80.853 E1.71907
G1 X140.527 Y80.786 E1.72932
G1 X140.605 Y80.758 E1.73097
G1 X141.09 Y80.557 E1.74145
G1 X141.149 Y80.498 E1.74311
G1 X141.5 Y80.225 E1.75199
G1 X141.836 Y79.785 E1.76304
G1 X141.855 Y79.727 E1.76425
G1 X142.049 Y79.258 E1.77438
G1 X142.049 Y79.176 E1.77602
G1 X142.1 Y78.79 E1.78379
G0 F9000 X141.688 Y78.652
;TYPE:WALL-OUTER
G1 F1800 X141.643 Y78.307 E1.79073
G1 X141.468 Y77.887 E1.79981
G1 X141.45 Y77.869 E1.80032
G1 X141.191 Y77.536 E1.80874
G1 X140.845 Y77.272 E1.81742
G1 X140.821 Y77.264 E1.81793
G1 X140.428 Y77.101 E1.82642
G1 X140.396 Y77.101 E1.82706
G1 X139.984 Y77.05 E1.83534
G1 X139.567 Y77.105 E1.84374
G1 X139.539 Y77.115 E1.84433
G1 X139.137 Y77.282 E1.85302
G1 X139.119 Y77.3 E1.85352
G1 X138.786 Y77.559 E1.86194
G1 X138.522 Y77.905 E1.87063
G1 X138.515 Y77.926 E1.87107
G1 X138.351 Y78.322 E1.87962
G1 X138.351 Y78.354 E1.88026
G1 X138.3 Y78.766 E1.88855
G1 X138.355 Y79.183 E1.89694
G1 X138.365 Y79.211 E1.89753
G1 X138.532 Y79.613 E1.90622
G1 X138.55 Y79.631 E1.90673
G1 X138.809 Y79.964 E1.91515
G1 X139.155 Y80.228 E1.92383
G1 X139.179 Y80.236 E1.92434
G1 X139.572 Y80.399 E1.93283
G1 X139.604 Y80.399 E1.93347
G1 X140.016 Y80.45 E1.94175
G1 X140.433 Y80.395 E1.95015
G1 X140.461 Y80.385 E1.95074
G1 X140.863 Y80.218 E1.95943
G1 X140.882 Y80.199 E1.95996
G1 X141.214 Y79.941 E1.96835
G1 X141.478 Y79.595 E1.97704
G1 X141.485 Y79.574 E1.97748
G1 X141.649 Y79.178 E1.98603
G1 X141.649 Y79.146 E1.98667
G1 X141.7 Y78.763 E1.99438
G1 X141.7 Y78.664 E1.99636
G1 X141.688 Y78.652 E1.9967
G0 F9000 X142.08 Y78.454
G1 F2700 E-7.0033
G0 F9000 X142.165 Y78.444
G0 X141.781 Y77.579
G0 X141.503 Y77.221
G0 X140.974 Y76.853
G0 X140.423 Y76.662
G0 X139.982 Y76.607
G0 X79.982 Y76.607
G0 X79.463 Y76.676
G0 X78.829 Y76.969
G0 X78.471 Y77.247
G0 X77.5 Y78.684
;TYPE:WALL-INNER
G1 F2700 E1.9967
G1 F1800 X77.5 Y79.168 E2.00636
G1 X77.554 Y79.222 E2.00788
G1 X77.577 Y79.402 E2.0115
G1 X77.854 Y80.067 E2.02588
G1 X77.946 Y80.159 E2.02847
G1 X78.241 Y80.538 E2.03806
G1 X78.777 Y80.945 E2.05149
G1 X78.895 Y80.983 E2.05396
G1 X79.412 Y81.199 E2.06514
G1 X79.555 Y81.199 E2.068
G1 X80.02 Y81.256 E2.07735
G1 X80.622 Y81.177 E2.08946
G1 X80.749 Y81.131 E2.09216
G1 X81.317 Y80.896 E2.10443
G1 X81.414 Y80.799 E2.10716
G1 X81.786 Y80.509 E2.11658
G1 X82.195 Y79.974 E2.13002
G1 X82.229 Y79.87 E2.1322
G1 X82.449 Y79.337 E2.14371
G1 X82.449 Y79.196 E2.14652
G1 X82.506 Y78.73 E2.15589
G1 X82.427 Y78.128 E2.16801
G1 X82.381 Y78.001 E2.1707
G1 X82.146 Y77.433 E2.18297
G1 X82.054 Y77.341 E2.18556
G1 X81.759 Y76.962 E2.19515
G1 X81.223 Y76.555 E2.20858
G1 X81.105 Y76.517 E2.21105
G1 X80.588 Y76.301 E2.22223
G1 X80.445 Y76.301 E2.22509
G1 X79.98 Y76.244 E2.23444
G1 X79.37 Y76.324 E2.24671
G1 X78.684 Y76.603 E2.26149
G1 X78.591 Y76.696 E2.26412
G1 X78.212 Y76.991 E2.2737
G1 X77.805 Y77.526 E2.28712
G1 X77.771 Y77.63 E2.2893
G1 X77.551 Y78.163 E2.30081
G1 X77.551 Y78.295 E2.30344
G1 X77.5 Y78.684 E2.31127
G0 F9000 X77.9 Y78.71
G1 F1800 X77.9 Y79.002 E2.3171
G1 X77.933 Y79.035 E2.31803
G1 X77.967 Y79.298 E2.32332
G1 X78.193 Y79.84 E2.33504
G1 X78.248 Y79.895 E2.33659
G1 X78.525 Y80.251 E2.34559
G1 X78.965 Y80.586 E2.35663
G1 X79.039 Y80.61 E2.35818
G1 X79.492 Y80.799 E2.36798
G1 X79.579 Y80.799 E2.36971
G1 X80.018 Y80.853 E2.37854
G1 X80.527 Y80.786 E2.38879
G1 X80.605 Y80.758 E2.39044
G1 X81.09 Y80.557 E2.40092
G1 X81.149 Y80.498 E2.40258
G1 X81.5 Y80.225 E2.41146
G1 X81.836 Y79.785 E2.4225
G1 X81.855 Y79.727 E2.42372
G1 X82.049 Y79.258 E2.43385
G1 X82.049 Y79.171 E2.43559
G1 X82.103 Y78.732 E2.44441
G1 X82.036 Y78.223 E2.45466
G1 X82.008 Y78.145 E2.45631
G1 X81.807 Y77.66 E2.46679
G1 X81.752 Y77.605 E2.46834
G1 X81.475 Y77.249 E2.47734
G1 X81.035 Y76.914 E2.48838
G1 X80.961 Y76.89 E2.48993
G1 X80.508 Y76.701 E2.49973
G1 X80.421 Y76.701 E2.50146
G1 X79.982 Y76.647 E2.51029
G1 X79.473 Y76.714 E2.52054
G1 X78.91 Y76.943 E2.53267
G1 X78.855 Y76.998 E2.53422
G1 X78.499 Y77.275 E2.54322
G1 X78.164 Y77.715 E2.55426
G1 X78.145 Y77.773 E2.55547
G1 X77.951 Y78.242 E2.5656
G1 X77.951 Y78.324 E2.56724
G1 X77.9 Y78.71 E2.57501
G0 F9000 X78.312 Y78.848
;TYPE:WALL-OUTER
G1 F1800 X78.357 Y79.193 E2.58195
G1 X78.532 Y79.613 E2.59103
G1 X78.55 Y79.631 E2.59154
G1 X78.809 Y79.964 E2.59996
G1 X79.155 Y80.228 E2.60864
G1 X79.179 Y80.236 E2.60915
G1 X79.572 Y80.399 E2.61764
G1 X79.604 Y80.399 E2.61828
G1 X80.016 Y80.45 E2.62656
G1 X80.433 Y80.395 E2.63496
G1 X80.461 Y80.385 E2.63555
G1 X80.863 Y80.218 E2.64424
G1 X80.882 Y80.199 E2.64477
G1 X81.214 Y79.941 E2.65316
G1 X81.478 Y79.595 E2.66185
G1 X81.485 Y79.574 E2.66229
G1 X81.649 Y79.178 E2.67084
G1 X81.649 Y79.146 E2.67148
G1 X81.7 Y78.734 E2.67977
G1 X81.645 Y78.317 E2.68816
G1 X81.635 Y78.289 E2.68875
G1 X81.468 Y77.887 E2.69744
G1 X81.45 Y77.869 E2.69795
G1 X81.191 Y77.536 E2.70637
G1 X80.845 Y77.272 E2.71505
G1 X80.821 Y77.264 E2.71556
G1 X80.428 Y77.101 E2.72405
G1 X80.396 Y77.101 E2.72469
G1 X79.984 Y77.05 E2.73297
G1 X79.567 Y77.105 E2.74137
G1 X79.539 Y77.115 E2.74196
G1 X79.137 Y77.282 E2.75065
G1 X79.119 Y77.3 E2.75115
G1 X78.786 Y77.559 E2.75957
G1 X78.522 Y77.905 E2.76826
G1 X78.515 Y77.926 E2.7687
G1 X78.351 Y78.322 E2.77725
G1 X78.351 Y78.354 E2.77789
G1 X78.3 Y78.737 E2.7856
G1 X78.3 Y78.836 E2.78758
G1 X78.312 Y78.848 E2.78792
G0 F9000 X77.92 Y79.046
G1 F2700 E-6.21208
G0 F9000 X77.835 Y79.056
G0 X82.143 Y138.732
G0 X82.099 Y139.163
G0 X81.414 Y140.799
;TYPE:WALL-INNER
G1 F2700 E2.78792
G1 F1800 X81.786 Y140.509 E2.79733
G1 X82.195 Y139.974 E2.81077
G1 X82.229 Y139.87 E2.81295
G1 X82.449 Y139.337 E2.82446
G1 X82.449 Y139.196 E2.82727
G1 X82.506 Y138.73 E2.83664
G1 X82.427 Y138.128 E2.84876
G1 X82.381 Y138.001 E2.85145
G1 X82.146 Y137.433 E2.86372
G1 X82.054 Y137.341 E2.86632
G1 X81.759 Y136.962 E2.8759
G1 X81.223 Y136.555 E2.88933
G1 X81.105 Y136.517 E2.89181
G1 X80.588 Y136.301 E2.90299
G1 X80.445 Y136.301 E2.90584
G1 X79.98 Y136.244 E2.91519
G1 X79.37 Y136.324 E2.92747
G1 X78.684 Y136.603 E2.94225
G1 X78.591 Y136.696 E2.94487
G1 X78.212 Y136.991 E2.95446
G1 X77.805 Y137.526 E2.96787
G1 X77.771 Y137.63 E2.97005
G1 X77.551 Y138.163 E2.98156
G1 X77.551 Y138.295 E2.9842
G1 X77.5 Y138.684 E2.99202
G1 X77.5 Y139.168 E3.00168
G1 X77.554 Y139.222 E3.00321
G1 X77.577 Y139.402 E3.00683
G1 X77.854 Y140.067 E3.0212
G1 X77.946 Y140.159 E3.0238
G1 X78.241 Y140.538 E3.03339
G1 X78.777 Y140.945 E3.04682
G1 X78.895 Y140.983 E3.04929
G1 X79.412 Y141.199 E3.06047
G1 X79.555 Y141.199 E3.06333
G1 X80.02 Y141.256 E3.07267
G1 X80.622 Y141.177 E3.08479
G1 X80.749 Y141.131 E3.08749
G1 X81.317 Y140.896 E3.09975
G1 X81.414 Y140.799 E3.10249
G0 F9000 X81.149 Y140.498
G1 F1800 X81.5 Y140.225 E3.11136
G1 X81.836 Y139.785 E3.12241
G1 X81.855 Y139.727 E3.12363
G1 X82.049 Y139.258 E3.13376
G1 X82.049 Y139.171 E3.1355
G1 X82.103 Y138.732 E3.14432
G1 X82.036 Y138.223 E3.15457
G1 X82.008 Y138.145 E3.15622
G1 X81.807 Y137.66 E3.1667
G1 X81.752 Y137.605 E3.16825
G1 X81.475 Y137.249 E3.17725
G1 X81.035 Y136.914 E3.18829
G1 X80.961 Y136.89 E3.18984
G1 X80.508 Y136.701 E3.19964
G1 X80.421 Y136.701 E3.20137
G1 X79.982 Y136.647 E3.2102
G1 X79.473 Y136.714 E3.22044
G1 X78.91 Y136.943 E3.23257
G1 X78.855 Y136.998 E3.23413
G1 X78.499 Y137.275 E3.24313
G1 X78.164 Y137.715 E3.25416
G1 X78.145 Y137.773 E3.25538
G1 X77.951 Y138.242 E3.26551
G1 X77.951 Y138.324 E3.26715
G1 X77.9 Y138.71 E3.27492
G1 X77.9 Y139.002 E3.28074
G1 X77.933 Y139.035 E3.28167
G1 X77.967 Y139.298 E3.28697
G1 X78.193 Y139.84 E3.29869
G1 X78.248 Y139.895 E3.30024
G1 X78.525 Y140.251 E3.30924
G1 X78.965 Y140.586 E3.32028
G1 X79.039 Y140.61 E3.32183
G1 X79.492 Y140.799 E3.33162
G1 X79.579 Y140.799 E3.33336
G1 X80.018 Y140.853 E3.34219
G1 X80.527 Y140.786 E3.35243
G1 X80.605 Y140.758 E3.35409
G1 X81.09 Y140.557 E3.36456
G1 X81.149 Y140.498 E3.36623
G0 F9000 X80.863 Y140.218
;TYPE:WALL-OUTER
G1 F1800 X80.882 Y140.199 E3.36676
G1 X81.214 Y139.941 E3.37515
G1 X81.478 Y139.595 E3.38384
G1 X81.485 Y139.574 E3.38428
G1 X81.649 Y139.178 E3.39283
G1 X81.649 Y139.146 E3.39347
G1 X81.7 Y138.734 E3.40176
G1 X81.645 Y138.317 E3.41015
G1 X81.635 Y138.289 E3.41074
G1 X81.468 Y137.887 E3.41943
G1 X81.45 Y137.869 E3.41994
G1 X81.191 Y137.536 E3.42836
G1 X80.845 Y137.272 E3.43704
G1 X80.821 Y137.264 E3.43755
G1 X80.428 Y137.101 E3.44604
G1 X80.396 Y137.101 E3.44668
G1 X79.984 Y137.05 E3.45496
G1 X79.567 Y137.105 E3.46336
G1 X79.539 Y137.115 E3.46395
G1 X79.137 Y137.282 E3.47264
G1 X79.119 Y137.3 E3.47314
G1 X78.786 Y137.559 E3.48156
G1 X78.522 Y137.905 E3.49025
G1 X78.515 Y137.926 E3.49069
G1 X78.351 Y138.322 E3.49924
G1 X78.351 Y138.354 E3.49988
G1 X78.3 Y138.737 E3.50759
G1 X78.3 Y138.836 E3.50957
G1 X78.312 Y138.848 E3.50991
G1 X78.357 Y139.193 E3.51685
G1 X78.532 Y139.613 E3.52593
G1 X78.55 Y139.631 E3.52644
G1 X78.809 Y139.964 E3.53486
G1 X79.155 Y140.228 E3.54354
G1 X79.179 Y140.236 E3.54405
G1 X79.572 Y140.399 E3.55254
G1 X79.604 Y140.399 E3.55318
G1 X80.016 Y140.45 E3.56146
G1 X80.433 Y140.395 E3.56985
G1 X80.461 Y140.385 E3.57045
G1 X80.863 Y140.218 E3.57914
G0 F9000 X81.108 Y140.582
G1 F2700 E-5.42086
G0 F9000 X81.145 Y140.64
G0 X139.555 Y141.199
;TYPE:WALL-INNER
G1 F2700 E3.57914
G1 F1800 X140.02 Y141.256 E3.58848
G1 X140.622 Y141.177 E3.6006
G1 X140.749 Y141.131 E3.6033
G1 X141.317 Y140.896 E3.61556
G1 X141.414 Y140.799 E3.6183
G1 X141.786 Y140.509 E3.62771
G1 X142.195 Y139.974 E3.64115
G1 X142.229 Y139.87 E3.64334
G1 X142.449 Y139.337 E3.65484
G1 X142.449 Y139.205 E3.65748
G1 X142.5 Y138.816 E3.66531
G1 X142.5 Y138.332 E3.67497
G1 X142.446 Y138.278 E3.67649
G1 X142.423 Y138.098 E3.68011
G1 X142.146 Y137.433 E3.69449
G1 X142.054 Y137.341 E3.69708
G1 X141.759 Y136.962 E3.70667
G1 X141.223 Y136.555 E3.7201
G1 X141.105 Y136.517 E3.72257
G1 X140.588 Y136.301 E3.73375
G1 X140.445 Y136.301 E3.73661
G1 X139.98 Y136.244 E3.74596
G1 X139.37 Y136.324 E3.75823
G1 X138.684 Y136.603 E3.77301
G1 X138.591 Y136.696 E3.77564
G1 X138.212 Y136.991 E3.78522
G1 X137.805 Y137.526 E3.79864
G1 X137.771 Y137.63 E3.80082
G1 X137.551 Y138.163 E3.81233
G1 X137.551 Y138.305 E3.81516
G1 X137.494 Y138.77 E3.82451
G1 X137.573 Y139.372 E3.83663
G1 X137.619 Y139.499 E3.83932
G1 X137.854 Y140.067 E3.85159
G1 X137.946 Y140.159 E3.85419
G1 X138.241 Y140.538 E3.86377
G1 X138.777 Y140.945 E3.8772
G1 X138.895 Y140.983 E3.87967
G1 X139.412 Y141.199 E3.89086
G1 X139.555 Y141.199 E3.89371
G0 F9000 X139.579 Y140.799
G1 F1800 X140.018 Y140.853 E3.90254
G1 X140.527 Y140.786 E3.91278
G1 X140.605 Y140.758 E3.91444
G1 X141.09 Y140.557 E3.92491
G1 X141.149 Y140.498 E3.92658
G1 X141.5 Y140.225 E3.93545
G1 X141.836 Y139.785 E3.9465
G1 X141.855 Y139.727 E3.94772
G1 X142.049 Y139.258 E3.95785
G1 X142.049 Y139.176 E3.95948
G1 X142.1 Y138.79 E3.96725
G1 X142.1 Y138.498 E3.97308
G1 X142.067 Y138.465 E3.97401
G1 X142.033 Y138.202 E3.9793
G1 X141.807 Y137.66 E3.99102
G1 X141.752 Y137.605 E3.99257
G1 X141.475 Y137.249 E4.00158
G1 X141.035 Y136.914 E4.01261
G1 X140.961 Y136.89 E4.01416
G1 X140.508 Y136.701 E4.02396
G1 X140.421 Y136.701 E4.0257
G1 X139.982 Y136.647 E4.03452
G1 X139.473 Y136.714 E4.04477
G1 X138.91 Y136.943 E4.0569
G1 X138.855 Y136.998 E4.05845
G1 X138.499 Y137.275 E4.06745
G1 X138.164 Y137.715 E4.07849
G1 X138.145 Y137.773 E4.07971
G1 X137.951 Y138.242 E4.08983
G1 X137.951 Y138.329 E4.09157
G1 X137.897 Y138.768 E4.1004
G1 X137.964 Y139.277 E4.11064
G1 X137.992 Y139.355 E4.1123
G1 X138.193 Y139.84 E4.12277
G1 X138.248 Y139.895 E4.12432
G1 X138.525 Y140.251 E4.13333
G1 X138.965 Y140.586 E4.14436
G1 X139.039 Y140.61 E4.14591
G1 X139.492 Y140.799 E4.15571
G1 X139.579 Y140.799 E4.15745
G0 F9000 X139.572 Y140.399
;TYPE:WALL-OUTER
G1 F1800 X139.604 Y140.399 E4.15809
G1 X140.016 Y140.45 E4.16637
