;FLAVOR:Marlin
;TIME:10255
;Filament used: 6.88937m
;Layer height: 0.2
;MINX:82.95
;MINY:71.499
;MINZ:0.12
;MAXX:124.05
;MAXY:167.8
;MAXZ:19.92
;Generated with Cura_SteamEngine 4.6.0
M140 S60
M105
M190 S60
M104 S225
M105
M109 S225
M82 ;absolute extrusion mode
M201 X500.00 Y500.00 Z100.00 E5000.00 ;Setup machine max acceleration
M203 X500.00 Y500.00 Z10.00 E50.00 ;Setup machine max feedrate
M204 P500.00 R1000.00 T500.00 ;Setup Print/Retract/Travel acceleration
M205 X8.00 Y8.00 Z0.40 E5.00 ;Setup Jerk
M220 S100 ;Reset Feedrate
M221 S100 ;Reset Flowrate

G28 ;Home

G92 E0 ;Reset Extruder
G1 Z2.0 F3000 ;Move Z Axis up
G1 X10.1 Y20 Z0.28 F5000.0 ;Move to start position
G1 X10.1 Y200.0 Z0.28 F1500.0 E15 ;Draw the first line
G1 X10.4 Y200.0 Z0.28 F5000.0 ;Move to side a little
G1 X10.4 Y20 Z0.28 F1500.0 E30 ;Draw the second line
G92 E0 ;Reset Extruder
G1 Z2.0 F3000 ;Move Z Axis up

G92 E0
G92 E0
G1 F2700 E-9
;LAYER_COUNT:100
;LAYER:0
M107
G1 F300 Z0.32
;MESH:rod_v1.3_fdm.stl
G0 F9000 X91.311 Y167 Z0.32
;TYPE:WALL-INNER
G1 F300 Z0.12
G1 F2700 E0
G1 F1800 X91.112 Y167 E0.00397
G1 X84.69 Y167 E0.13213
G1 X84.689 Y77.761 E1.91299
G1 X84.69 Y73 E2.008
G1 X91.31 Y73 E2.14011
G1 X91.311 Y166.801 E4.01201
G1 X91.311 Y167 E4.01458
G0 F9000 X91.711 Y167.16
G1 F1800 X91.711 Y167.318 E4.01773
G1 X91.711 Y167.4 E4.01937
G1 X91.553 Y167.4 E4.02164
G1 X84.29 Y167.4 E4.16658
G1 X84.289 Y77.761 E5.95542
G1 X84.29 Y72.6 E6.05842
G1 X91.71 Y72.6 E6.20649
G1 X91.711 Y167.16 E8.09354
G0 F9000 X92.11 Y167.8
;TYPE:WALL-OUTER
G1 F1800 X83.89 Y167.8 E8.25758
G1 X83.889 Y77.761 E10.0544
G1 X83.89 Y72.2 E10.16538
G1 X92.11 Y72.2 E10.32942
G1 X92.111 Y167.318 E12.2276
G1 X92.11 Y167.8 E12.23722
G0 F9000 X91.641 Y167.33
G0 X90.921 Y166.61
;TYPE:SKIN
G1 F1800 X85.08 Y166.61 E12.35378
G1 X85.079 Y77.761 E14.12686
G1 X85.08 Y73.39 E14.21409
G1 X90.92 Y73.39 E14.33063
G1 X90.921 Y166.61 E16.19094
G0 F9000 X85.556 Y166.449
G1 F1800 X85.238 Y166.131 E16.19991
G0 F9000 X85.238 Y165.566
G1 F1800 X86.122 Y166.449 E16.22485
G0 F9000 X86.687 Y166.449
G1 F1800 X85.238 Y165 E16.26574
G0 F9000 X85.238 Y164.434
G1 F1800 X87.253 Y166.449 E16.32261
G0 F9000 X87.819 Y166.449
G1 F1800 X85.238 Y163.869 E16.39543
G0 F9000 X85.238 Y163.303
G1 F1800 X88.384 Y166.449 E16.48422
G0 F9000 X88.95 Y166.449
G1 F1800 X85.238 Y162.737 E16.58898
G0 F9000 X85.238 Y162.172
G1 F1800 X89.516 Y166.449 E16.7097
G0 F9000 X90.081 Y166.449
G1 F1800 X85.238 Y161.606 E16.84638
G0 F9000 X85.238 Y161.04
G1 F1800 X90.647 Y166.449 E16.99904
G0 F9000 X90.76 Y165.996
G1 F1800 X85.238 Y160.475 E17.15486
G0 F9000 X85.238 Y159.909
G1 F1800 X90.76 Y165.431 E17.31071
G0 F9000 X90.76 Y164.865
G1 F1800 X85.238 Y159.343 E17.46655
G0 F9000 X85.238 Y158.777
G1 F1800 X90.76 Y164.299 E17.62239
G0 F9000 X90.76 Y163.734
G1 F1800 X85.238 Y158.212 E17.77824
G0 F9000 X85.238 Y157.646
G1 F1800 X90.76 Y163.168 E17.93408
G0 F9000 X90.76 Y162.602
G1 F1800 X85.238 Y157.08 E18.08992
G0 F9000 X85.238 Y156.515
G1 F1800 X90.76 Y162.037 E18.24576
G0 F9000 X90.76 Y161.471
G1 F1800 X85.238 Y155.949 E18.40161
G0 F9000 X85.238 Y155.383
G1 F1800 X90.76 Y160.905 E18.55745
G0 F9000 X90.76 Y160.339
G1 F1800 X85.238 Y154.818 E18.71328
G0 F9000 X85.238 Y154.252
G1 F1800 X90.76 Y159.774 E18.86912
G0 F9000 X90.76 Y159.208
G1 F1800 X85.238 Y153.686 E19.02496
G0 F9000 X85.238 Y153.121
G1 F1800 X90.76 Y158.642 E19.18079
G0 F9000 X90.76 Y158.077
G1 F1800 X85.238 Y152.555 E19.33663
G0 F9000 X85.238 Y151.989
G1 F1800 X90.76 Y157.511 E19.49248
G0 F9000 X90.76 Y156.945
G1 F1800 X85.238 Y151.424 E19.64831
G0 F9000 X85.238 Y150.858
G1 F1800 X90.76 Y156.38 E19.80415
G0 F9000 X90.76 Y155.814
G1 F1800 X85.238 Y150.292 E19.95999
G0 F9000 X85.238 Y149.727
G1 F1800 X90.76 Y155.248 E20.11582
G0 F9000 X90.76 Y154.683
G1 F1800 X85.238 Y149.161 E20.27166
G0 F9000 X85.238 Y148.595
G1 F1800 X90.76 Y154.117 E20.42751
G0 F9000 X90.76 Y153.551
G1 F1800 X85.238 Y148.029 E20.58335
G0 F9000 X85.238 Y147.464
G1 F1800 X90.76 Y152.986 E20.73919
G0 F9000 X90.76 Y152.42
G1 F1800 X85.238 Y146.898 E20.89503
G0 F9000 X85.238 Y146.332
G1 F1800 X90.76 Y151.854 E21.05088
G0 F9000 X90.76 Y151.289
G1 F1800 X85.238 Y145.767 E21.20672
G0 F9000 X85.238 Y145.201
G1 F1800 X90.76 Y150.723 E21.36256
G0 F9000 X90.76 Y150.157
G1 F1800 X85.238 Y144.635 E21.51841
G0 F9000 X85.238 Y144.07
G1 F1800 X90.76 Y149.591 E21.67423
G0 F9000 X90.76 Y149.026
G1 F1800 X85.238 Y143.504 E21.83008
G0 F9000 X85.238 Y142.938
G1 F1800 X90.76 Y148.46 E21.98592
G0 F9000 X90.76 Y147.894
G1 F1800 X85.238 Y142.373 E22.14175
G0 F9000 X85.238 Y141.807
G1 F1800 X90.76 Y147.329 E22.29759
G0 F9000 X90.76 Y146.763
G1 F1800 X85.238 Y141.241 E22.45343
G0 F9000 X85.238 Y140.676
G1 F1800 X90.76 Y146.197 E22.60926
G0 F9000 X90.76 Y145.632
G1 F1800 X85.238 Y140.11 E22.76511
G0 F9000 X85.238 Y139.544
G1 F1800 X90.76 Y145.066 E22.92095
G0 F9000 X90.76 Y144.5
G1 F1800 X85.238 Y138.979 E23.07678
G0 F9000 X85.238 Y138.413
G1 F1800 X90.76 Y143.935 E23.23262
G0 F9000 X90.76 Y143.369
G1 F1800 X85.238 Y137.847 E23.38846
G0 F9000 X85.238 Y137.281
G1 F1800 X90.76 Y142.803 E23.54431
G0 F9000 X90.76 Y142.238
G1 F1800 X85.238 Y136.716 E23.70015
G0 F9000 X85.238 Y136.15
G1 F1800 X90.76 Y141.672 E23.85599
G0 F9000 X90.76 Y141.106
G1 F1800 X85.238 Y135.584 E24.01183
G0 F9000 X85.238 Y135.019
G1 F1800 X90.76 Y140.541 E24.16768
G0 F9000 X90.76 Y139.975
G1 F1800 X85.238 Y134.453 E24.32352
G0 F9000 X85.238 Y133.887
G1 F1800 X90.76 Y139.409 E24.47936
G0 F9000 X90.76 Y138.843
G1 F1800 X85.238 Y133.322 E24.63519
G0 F9000 X85.238 Y132.756
G1 F1800 X90.76 Y138.278 E24.79103
G0 F9000 X90.76 Y137.712
G1 F1800 X85.238 Y132.19 E24.94688
G0 F9000 X85.238 Y131.625
G1 F1800 X90.76 Y137.146 E25.1027
G0 F9000 X90.76 Y136.581
G1 F1800 X85.238 Y131.059 E25.25855
G0 F9000 X85.238 Y130.493
G1 F1800 X90.76 Y136.015 E25.41439
G0 F9000 X90.76 Y135.449
G1 F1800 X85.238 Y129.928 E25.57022
G0 F9000 X85.238 Y129.362
G1 F1800 X90.76 Y134.884 E25.72606
G0 F9000 X90.76 Y134.318
G1 F1800 X85.238 Y128.796 E25.8819
G0 F9000 X85.238 Y128.23
G1 F1800 X90.76 Y133.752 E26.03775
G0 F9000 X90.76 Y133.187
G1 F1800 X85.238 Y127.665 E26.19359
G0 F9000 X85.238 Y127.099
G1 F1800 X90.76 Y132.621 E26.34943
G0 F9000 X90.76 Y132.055
G1 F1800 X85.238 Y126.533 E26.50528
G0 F9000 X85.238 Y125.968
G1 F1800 X90.76 Y131.49 E26.66112
G0 F9000 X90.76 Y130.924
G1 F1800 X85.238 Y125.402 E26.81696
G0 F9000 X85.238 Y124.836
G1 F1800 X90.76 Y130.358 E26.9728
G0 F9000 X90.76 Y129.792
G1 F1800 X85.238 Y124.271 E27.12863
G0 F9000 X85.238 Y123.705
G1 F1800 X90.76 Y129.227 E27.28448
G0 F9000 X90.76 Y128.661
G1 F1800 X85.238 Y123.139 E27.44032
G0 F9000 X85.238 Y122.574
G1 F1800 X90.76 Y128.095 E27.59615
G0 F9000 X90.76 Y127.53
G1 F1800 X85.238 Y122.007 E27.752
G0 F9000 X85.238 Y121.442
G1 F1800 X90.76 Y126.964 E27.90785
G0 F9000 X90.76 Y126.398
G1 F1800 X85.238 Y120.876 E28.06369
G0 F9000 X85.238 Y120.31
G1 F1800 X90.76 Y125.833 E28.21955
G0 F9000 X90.76 Y125.267
G1 F1800 X85.238 Y119.744 E28.3754
G0 F9000 X85.238 Y119.179
G1 F1800 X90.76 Y124.701 E28.53125
G0 F9000 X90.76 Y124.136
G1 F1800 X85.238 Y118.613 E28.6871
G0 F9000 X85.238 Y118.047
G1 F1800 X90.76 Y123.57 E28.84296
G0 F9000 X90.76 Y123.004
G1 F1800 X85.238 Y117.482 E28.9988
G0 F9000 X85.238 Y116.916
G1 F1800 X90.76 Y122.439 E29.15466
G0 F9000 X90.76 Y121.873
G1 F1800 X85.238 Y116.35 E29.31052
G0 F9000 X85.238 Y115.785
G1 F1800 X90.76 Y121.307 E29.46636
G0 F9000 X90.76 Y120.742
G1 F1800 X85.238 Y115.219 E29.62222
G0 F9000 X85.238 Y114.653
G1 F1800 X90.76 Y120.176 E29.77807
G0 F9000 X90.759 Y119.609
G1 F1800 X85.238 Y114.088 E29.93389
G0 F9000 X85.238 Y113.522
G1 F1800 X90.759 Y119.044 E30.08972
G0 F9000 X90.759 Y118.478
G1 F1800 X85.238 Y112.956 E30.24554
G0 F9000 X85.238 Y112.391
G1 F1800 X90.759 Y117.912 E30.40136
G0 F9000 X90.759 Y117.347
G1 F1800 X85.238 Y111.825 E30.55719
G0 F9000 X85.238 Y111.259
G1 F1800 X90.759 Y116.781 E30.71302
G0 F9000 X90.759 Y116.215
G1 F1800 X85.238 Y110.694 E30.86883
G0 F9000 X85.238 Y110.128
G1 F1800 X90.759 Y115.65 E31.02466
G0 F9000 X90.759 Y115.084
G1 F1800 X85.238 Y109.562 E31.18049
G0 F9000 X85.238 Y108.996
G1 F1800 X90.759 Y114.518 E31.33632
G0 F9000 X90.759 Y113.953
G1 F1800 X85.238 Y108.431 E31.49215
G0 F9000 X85.238 Y107.865
G1 F1800 X90.759 Y113.387 E31.64797
G0 F9000 X90.759 Y112.821
G1 F1800 X85.238 Y107.299 E31.8038
G0 F9000 X85.238 Y106.734
G1 F1800 X90.759 Y112.256 E31.95963
G0 F9000 X90.759 Y111.69
G1 F1800 X85.238 Y106.168 E32.11546
G0 F9000 X85.238 Y105.602
G1 F1800 X90.759 Y111.124 E32.27129
G0 F9000 X90.759 Y110.558
G1 F1800 X85.238 Y105.037 E32.4271
G0 F9000 X85.238 Y104.471
G1 F1800 X90.759 Y109.993 E32.58293
G0 F9000 X90.759 Y109.427
G1 F1800 X85.238 Y103.905 E32.73876
G0 F9000 X85.238 Y103.34
G1 F1800 X90.759 Y108.861 E32.89458
G0 F9000 X90.759 Y108.296
G1 F1800 X85.238 Y102.774 E33.0504
G0 F9000 X85.238 Y102.208
G1 F1800 X90.759 Y107.73 E33.20623
G0 F9000 X90.759 Y107.164
G1 F1800 X85.238 Y101.643 E33.36205
G0 F9000 X85.238 Y101.077
G1 F1800 X90.759 Y106.599 E33.51788
G0 F9000 X90.759 Y106.033
G1 F1800 X85.238 Y100.511 E33.6737
G0 F9000 X85.238 Y99.946
G1 F1800 X90.759 Y105.467 E33.82952
G0 F9000 X90.759 Y104.902
G1 F1800 X85.238 Y99.38 E33.98535
G0 F9000 X85.238 Y98.814
G1 F1800 X90.759 Y104.336 E34.14118
G0 F9000 X90.759 Y103.77
G1 F1800 X85.238 Y98.248 E34.297
G0 F9000 X85.238 Y97.683
G1 F1800 X90.759 Y103.205 E34.45283
G0 F9000 X90.759 Y102.639
G1 F1800 X85.238 Y97.117 E34.60866
G0 F9000 X85.238 Y96.551
G1 F1800 X90.759 Y102.073 E34.76449
G0 F9000 X90.759 Y101.508
G1 F1800 X85.238 Y95.986 E34.92032
G0 F9000 X85.238 Y95.42
G1 F1800 X90.759 Y100.942 E35.07615
G0 F9000 X90.759 Y100.376
G1 F1800 X85.238 Y94.854 E35.23198
G0 F9000 X85.238 Y94.289
G1 F1800 X90.759 Y99.81 E35.38779
G0 F9000 X90.759 Y99.245
G1 F1800 X85.238 Y93.723 E35.54362
G0 F9000 X85.238 Y93.157
G1 F1800 X90.759 Y98.679 E35.69945
G0 F9000 X90.759 Y98.113
G1 F1800 X85.238 Y92.592 E35.85526
G0 F9000 X85.238 Y92.026
G1 F1800 X90.759 Y97.548 E36.01109
G0 F9000 X90.759 Y96.982
G1 F1800 X85.238 Y91.46 E36.16692
G0 F9000 X85.238 Y90.895
G1 F1800 X90.759 Y96.416 E36.32273
G0 F9000 X90.759 Y95.851
G1 F1800 X85.238 Y90.329 E36.47856
G0 F9000 X85.238 Y89.763
G1 F1800 X90.759 Y95.285 E36.63439
G0 F9000 X90.759 Y94.719
G1 F1800 X85.238 Y89.197 E36.79022
G0 F9000 X85.238 Y88.632
G1 F1800 X90.759 Y94.154 E36.94605
G0 F9000 X90.759 Y93.588
G1 F1800 X85.238 Y88.066 E37.10188
G0 F9000 X85.238 Y87.5
G1 F1800 X90.759 Y93.022 E37.25771
G0 F9000 X90.759 Y92.457
G1 F1800 X85.238 Y86.935 E37.41354
G0 F9000 X85.238 Y86.369
G1 F1800 X90.759 Y91.891 E37.56936
G0 F9000 X90.759 Y91.325
G1 F1800 X85.238 Y85.803 E37.72519
G0 F9000 X85.238 Y85.238
G1 F1800 X90.759 Y90.759 E37.88101
G0 F9000 X90.759 Y90.194
G1 F1800 X85.238 Y84.672 E38.03684
G0 F9000 X85.238 Y84.106
G1 F1800 X90.759 Y89.628 E38.19266
G0 F9000 X90.759 Y89.062
G1 F1800 X85.238 Y83.541 E38.34848
G0 F9000 X85.238 Y82.975
G1 F1800 X90.759 Y88.497 E38.50431
G0 F9000 X90.759 Y87.931
G1 F1800 X85.238 Y82.409 E38.66014
G0 F9000 X85.238 Y81.844
G1 F1800 X90.759 Y87.365 E38.81595
G0 F9000 X90.759 Y86.8
G1 F1800 X85.238 Y81.278 E38.97178
G0 F9000 X85.238 Y80.712
G1 F1800 X90.759 Y86.234 E39.12761
G0 F9000 X90.759 Y85.668
G1 F1800 X85.238 Y80.147 E39.28342
G0 F9000 X85.238 Y79.581
G1 F1800 X90.759 Y85.103 E39.43925
G0 F9000 X90.759 Y84.537
G1 F1800 X85.238 Y79.015 E39.59508
G0 F9000 X85.238 Y78.449
G1 F1800 X90.759 Y83.971 E39.75091
G0 F9000 X90.759 Y83.406
G1 F1800 X85.238 Y77.884 E39.90674
G0 F9000 X85.238 Y77.318
G1 F1800 X90.759 Y82.84 E40.06257
G0 F9000 X90.759 Y82.274
G1 F1800 X85.238 Y76.752 E40.21839
G0 F9000 X85.238 Y76.187
G1 F1800 X90.759 Y81.709 E40.37422
G0 F9000 X90.759 Y81.143
G1 F1800 X85.238 Y75.622 E40.53004
G0 F9000 X85.238 Y75.056
G1 F1800 X90.759 Y80.577 E40.68585
G0 F9000 X90.759 Y80.011
G1 F1800 X85.238 Y74.49 E40.84167
G0 F9000 X85.238 Y73.925
G1 F1800 X90.759 Y79.446 E40.99748
G0 F9000 X90.759 Y78.88
G1 F1800 X85.429 Y73.549 E41.14792
G0 F9000 X85.994 Y73.549
G1 F1800 X90.759 Y78.314 E41.2824
G0 F9000 X90.759 Y77.749
G1 F1800 X86.56 Y73.549 E41.40092
G0 F9000 X87.126 Y73.549
G1 F1800 X90.759 Y77.183 E41.50346
G0 F9000 X90.759 Y76.617
G1 F1800 X87.691 Y73.549 E41.59005
G0 F9000 X88.257 Y73.549
G1 F1800 X90.759 Y76.052 E41.66067
G0 F9000 X90.759 Y75.486
G1 F1800 X88.823 Y73.549 E41.71533
G0 F9000 X89.388 Y73.549
G1 F1800 X90.759 Y74.92 E41.75402
G0 F9000 X90.759 Y74.355
G1 F1800 X89.954 Y73.549 E41.77675
G0 F9000 X90.52 Y73.549
G1 F1800 X90.759 Y73.789 E41.78351
G1 F2700 E32.78351
G1 F300 Z0.32
;MESH:body_v1.3_fdm.stl
G0 F9000 X90.759 Y73.789 Z0.32
G0 X123.25 Y145.457
;TYPE:WALL-INNER
G1 F300 Z0.12
G1 F2700 E41.78351
G1 F1800 X96.75 Y145.457 E42.31235
G1 X96.75 Y74.543 E43.72751
G1 X123.25 Y74.543 E44.25635
G1 X123.25 Y78 E44.32534
G1 X110.184 Y78 E44.58608
G1 X109.921 Y78.034 E44.59138
G1 X109.79 Y78.034 E44.59399
G1 X109.55 Y78.134 E44.59918
G1 X109.409 Y78.134 E44.60199
G1 X108.543 Y78.803 E44.62383
G1 X108.543 Y78.954 E44.62684
G1 X108.384 Y79.16 E44.63204
G1 X108.384 Y79.301 E44.63485
G1 X108.284 Y79.541 E44.64004
G1 X108.284 Y79.672 E44.64265
G1 X108.25 Y79.935 E44.64795
G1 X108.25 Y137.562 E45.79795
G1 X108.302 Y138.004 E45.80684
G1 X108.384 Y138.2 E45.81108
G1 X108.384 Y138.341 E45.81389
G1 X109.053 Y139.207 E45.83573
G1 X109.204 Y139.207 E45.83874
G1 X109.41 Y139.366 E45.84393
G1 X109.551 Y139.366 E45.84675
G1 X109.791 Y139.466 E45.85194
G1 X109.922 Y139.466 E45.85455
G1 X110.185 Y139.5 E45.85984
G1 X123.25 Y139.5 E46.12057
G1 X123.25 Y145.457 E46.23945
G0 F9000 X123.65 Y145.857
G1 F1800 X96.35 Y145.857 E46.78425
G1 X96.35 Y74.143 E48.21538
G1 X123.65 Y74.143 E48.76018
G1 X123.65 Y78.4 E48.84513
G1 X110.21 Y78.4 E49.11334
G1 X109.95 Y78.434 E49.11858
G1 X109.87 Y78.434 E49.12017
G1 X109.63 Y78.534 E49.12536
G1 X109.545 Y78.534 E49.12706
G1 X108.943 Y78.999 E49.14224
G1 X108.943 Y79.09 E49.14405
G1 X108.784 Y79.296 E49.14925
G1 X108.784 Y79.381 E49.15094
G1 X108.684 Y79.621 E49.15613
G1 X108.684 Y79.701 E49.15773
G1 X108.65 Y79.961 E49.16296
G1 X108.65 Y137.538 E50.31197
G1 X108.693 Y137.902 E50.31929
G1 X108.784 Y138.12 E50.324
G1 X108.784 Y138.205 E50.3257
G1 X109.249 Y138.807 E50.34088
G1 X109.34 Y138.807 E50.34269
G1 X109.546 Y138.966 E50.34789
G1 X109.631 Y138.966 E50.34958
G1 X109.871 Y139.066 E50.35477
G1 X109.951 Y139.066 E50.35637
G1 X110.211 Y139.1 E50.3616
G1 X123.65 Y139.1 E50.62979
G1 X123.65 Y145.857 E50.76463
G0 F9000 X124.05 Y146.257
;TYPE:WALL-OUTER
G1 F1800 X95.95 Y146.257 E51.3254
G1 X95.95 Y73.743 E52.77249
G1 X124.05 Y73.743 E53.33326
G1 X124.05 Y78.8 E53.43418
G1 X110.236 Y78.8 E53.70985
G1 X109.98 Y78.834 E53.715
G1 X109.95 Y78.834 E53.7156
G1 X109.709 Y78.934 E53.72081
G1 X109.681 Y78.934 E53.72137
G1 X109.343 Y79.195 E53.72989
G1 X109.343 Y79.226 E53.73051
G1 X109.184 Y79.432 E53.7357
G1 X109.184 Y79.46 E53.73626
G1 X109.084 Y79.701 E53.74147
G1 X109.084 Y79.731 E53.74207
G1 X109.05 Y79.987 E53.74722
G1 X109.05 Y137.514 E54.89523
G1 X109.084 Y137.8 E54.90098
G1 X109.184 Y138.041 E54.90619
G1 X109.184 Y138.069 E54.90675
G1 X109.445 Y138.407 E54.91527
G1 X109.476 Y138.407 E54.91589
G1 X109.682 Y138.566 E54.92108
G1 X109.71 Y138.566 E54.92164
G1 X109.951 Y138.666 E54.92685
G1 X109.981 Y138.666 E54.92745
G1 X110.237 Y138.7 E54.9326
G1 X124.05 Y138.7 E55.20825
G1 X124.05 Y146.257 E55.35906
G0 F9000 X123.58 Y145.787
G0 X122.86 Y145.067
;TYPE:SKIN
G1 F1800 X97.14 Y145.067 E55.87233
G1 X97.14 Y74.933 E57.27193
G1 X122.86 Y74.933 E57.7852
G1 X122.86 Y77.61 E57.83862
G1 X110.159 Y77.61 E58.09209
G1 X109.9 Y77.644 E58.0973
G1 X109.712 Y77.644 E58.10105
G1 X109.472 Y77.744 E58.10624
G1 X109.276 Y77.744 E58.11015
G1 X108.153 Y78.612 E58.13848
G1 X108.153 Y78.822 E58.14267
G1 X107.994 Y79.027 E58.14784
G1 X107.994 Y79.223 E58.15176
G1 X107.894 Y79.463 E58.15694
G1 X107.894 Y79.651 E58.1607
G1 X107.86 Y79.91 E58.16591
G1 X107.86 Y137.585 E59.31688
G1 X107.921 Y138.103 E59.32728
G1 X107.994 Y138.28 E59.33111
G1 X107.994 Y138.474 E59.33498
G1 X108.862 Y139.597 E59.3633
G1 X109.072 Y139.597 E59.36749
G1 X109.277 Y139.756 E59.37267
