;FLAVOR:Marlin
;TIME:22181
;Filament used: 19.3971m
;Layer height: 0.2
;MINX:34.875
;MINY:64.839
;MINZ:0.12
;MAXX:265.125
;MAXY:235.161
;MAXZ:10.72
;Generated with Cura_SteamEngine 4.6.0
M140 S60
M105
M190 S60
M104 S215
M105
M109 S215
M82 ;absolute extrusion mode
M201 X500.00 Y500.00 Z100.00 E5000.00 ;Setup machine max acceleration
M203 X500.00 Y500.00 Z10.00 E50.00 ;Setup machine max feedrate
M204 P500.00 R1000.00 T500.00 ;Setup Print/Retract/Travel acceleration
M205 X8.00 Y8.00 Z0.40 E5.00 ;Setup Jerk
M220 S100 ;Reset Feedrate
M221 S100 ;Reset Flowrate

G28 ;Home

G92 E0 ;Reset Extruder
G1 Z2.0 F3000 ;Move Z Axis up
G1 X10.1 Y20 Z0.28 F5000.0 ;Move to start position
G1 X10.1 Y200.0 Z0.28 F1500.0 E15 ;Draw the first line
G1 X10.4 Y200.0 Z0.28 F5000.0 ;Move to side a little
G1 X10.4 Y20 Z0.28 F1500.0 E30 ;Draw the second line
G92 E0 ;Reset Extruder
G1 Z2.0 F3000 ;Move Z Axis up

G92 E0
G92 E0
G1 F2700 E-7.5
;LAYER_COUNT:53
;LAYER:0
M107
G1 F300 Z0.32
G0 F6000 X249.253 Y65.65 Z0.32
;TYPE:SKIRT
G1 F300 Z0.12
G1 F2700 E0
G1 F1200 X250.125 Y65.7 E0.01743
G1 X250.777 Y65.769 E0.03051
G1 X251.233 Y65.829 E0.03969
G1 X251.864 Y65.921 E0.05242
G1 X252.751 Y66.09 E0.07044
G1 X253.619 Y66.338 E0.08845
G1 X254.127 Y66.523 E0.09924
G1 X255.131 Y66.923 E0.12081
G1 X255.634 Y67.139 E0.13173
G1 X256.447 Y67.531 E0.14975
G1 X257.222 Y67.994 E0.16776
G1 X257.676 Y68.312 E0.17882
G1 X258.429 Y68.875 E0.19759
G1 X258.956 Y69.291 E0.21098
G1 X259.639 Y69.881 E0.229
G1 X260.268 Y70.53 E0.24703
G1 X260.619 Y70.947 E0.25791
G1 X261.109 Y71.563 E0.27362
G1 X261.317 Y71.835 E0.28045
G1 X261.622 Y72.246 E0.29066
G1 X262.128 Y72.994 E0.30869
G1 X262.565 Y73.784 E0.3267
G1 X262.782 Y74.25 E0.33696
G1 X263.09 Y74.957 E0.35235
G1 X263.217 Y75.263 E0.35896
G1 X263.415 Y75.761 E0.36966
G1 X263.711 Y76.614 E0.38767
G1 X263.922 Y77.446 E0.4048
G1 X263.956 Y77.609 E0.40813
G1 X264.071 Y78.268 E0.42148
G1 X264.165 Y78.962 E0.43545
G1 X264.243 Y79.63 E0.44887
G1 X264.248 Y79.67 E0.44968
G1 X264.313 Y80.614 E0.46856
G1 X264.325 Y81.292 E0.48209
G1 X264.325 Y218.454 E3.21931
G1 X264.324 Y218.602 E3.22226
G1 X264.314 Y219.289 E3.23597
G1 X264.264 Y220.156 E3.2533
G1 X264.2 Y220.766 E3.26554
G1 X264.141 Y221.219 E3.27466
G1 X264.043 Y221.894 E3.28827
G1 X263.874 Y222.781 E3.30629
G1 X263.627 Y223.649 E3.3243
G1 X263.438 Y224.17 E3.33536
G1 X263.158 Y224.88 E3.35059
G1 X263.04 Y225.165 E3.35675
G1 X262.826 Y225.663 E3.36757
G1 X262.433 Y226.476 E3.38559
G1 X261.97 Y227.251 E3.4036
G1 X261.655 Y227.702 E3.41458
G1 X260.993 Y228.59 E3.43668
G1 X260.691 Y228.973 E3.44642
G1 X260.101 Y229.656 E3.46443
G1 X259.452 Y230.285 E3.48246
G1 X259.013 Y230.654 E3.49391
G1 X258.011 Y231.441 E3.51933
G1 X257.723 Y231.655 E3.5265
G1 X256.975 Y232.161 E3.54452
G1 X256.185 Y232.599 E3.56254
G1 X255.713 Y232.819 E3.57294
G1 X254.99 Y233.134 E3.58867
G1 X254.687 Y233.26 E3.59522
G1 X254.202 Y233.453 E3.60564
G1 X253.657 Y233.653 E3.61722
G1 X253.645 Y233.657 E3.61748
G1 X253.35 Y233.75 E3.62365
G1 X253.34 Y233.753 E3.62386
G1 X252.464 Y233.974 E3.64189
G1 X251.895 Y234.074 E3.65342
G1 X251.001 Y234.201 E3.67144
G1 X250.056 Y234.308 E3.69041
G1 X250.034 Y234.31 E3.69086
G1 X249.32 Y234.35 E3.70513
G1 X248.672 Y234.361 E3.71806
G1 X51.582 Y234.361 E7.6512
G1 X51.434 Y234.36 E7.65416
G1 X50.747 Y234.35 E7.66787
G1 X49.875 Y234.3 E7.6853
G1 X49.21 Y234.229 E7.69865
G1 X48.767 Y234.171 E7.70756
G1 X48.141 Y234.08 E7.72019
G1 X47.254 Y233.911 E7.7382
G1 X46.385 Y233.663 E7.75624
G1 X45.866 Y233.475 E7.76725
G1 X44.877 Y233.08 E7.78851
G1 X44.375 Y232.865 E7.79941
G1 X43.562 Y232.473 E7.81742
G1 X42.786 Y232.011 E7.83544
G1 X42.324 Y231.688 E7.84669
G1 X41.571 Y231.125 E7.86545
G1 X41.044 Y230.709 E7.87885
G1 X40.361 Y230.119 E7.89686
G1 X39.732 Y229.47 E7.9149
G1 X39.381 Y229.053 E7.92578
G1 X38.891 Y228.437 E7.94148
G1 X38.683 Y228.165 E7.94832
G1 X38.378 Y227.754 E7.95853
G1 X37.872 Y227.006 E7.97655
G1 X37.435 Y226.216 E7.99457
G1 X37.218 Y225.75 E8.00483
G1 X36.91 Y225.043 E8.02022
G1 X36.783 Y224.738 E8.02681
G1 X36.577 Y224.22 E8.03793
G1 X36.281 Y223.367 E8.05595
G1 X35.994 Y222.128 E8.08133
G1 X35.84 Y221.068 E8.10271
G1 X35.756 Y220.358 E8.11698
G1 X35.691 Y219.524 E8.13367
G1 X35.677 Y219.014 E8.14385
G1 X35.675 Y218.754 E8.14904
G1 X35.675 Y81.546 E10.88717
G1 X35.676 Y81.398 E10.89013
G1 X35.686 Y80.711 E10.90384
G1 X35.736 Y79.844 E10.92117
G1 X35.8 Y79.234 E10.93341
G1 X35.86 Y78.773 E10.94269
G1 X35.959 Y78.095 E10.95636
G1 X36.129 Y77.208 E10.97438
G1 X36.377 Y76.34 E10.9924
G1 X36.564 Y75.825 E11.00333
G1 X36.96 Y74.835 E11.02461
G1 X37.174 Y74.337 E11.03543
G1 X37.567 Y73.524 E11.05345
G1 X38.03 Y72.749 E11.07146
G1 X38.345 Y72.298 E11.08244
G1 X39.007 Y71.41 E11.10455
G1 X39.309 Y71.027 E11.11428
G1 X39.899 Y70.344 E11.13229
G1 X40.548 Y69.715 E11.15033
G1 X40.987 Y69.346 E11.16177
G1 X41.989 Y68.559 E11.1872
G1 X42.277 Y68.345 E11.19436
G1 X43.025 Y67.839 E11.21238
G1 X43.815 Y67.401 E11.23041
G1 X44.286 Y67.182 E11.24077
G1 X45.318 Y66.737 E11.2632
G1 X45.801 Y66.545 E11.27357
G1 X46.476 Y66.304 E11.28787
G1 X46.498 Y66.297 E11.28834
G1 X47.37 Y66.062 E11.30636
G1 X48.05 Y65.934 E11.32017
G1 X48.999 Y65.799 E11.3393
G1 X49.944 Y65.692 E11.35827
G1 X49.966 Y65.69 E11.35872
G1 X50.68 Y65.65 E11.37299
G1 X51.328 Y65.639 E11.38592
G1 X248.418 Y65.639 E15.31906
G1 X248.566 Y65.64 E15.32202
G1 X249.253 Y65.65 E15.33573
G0 F6000 X249.259 Y65.25
G1 F1200 X250.165 Y65.302 E15.35384
G1 X250.827 Y65.372 E15.36712
G1 X251.29 Y65.433 E15.37644
G1 X251.921 Y65.525 E15.38917
G1 X252.826 Y65.697 E15.40755
G1 X253.712 Y65.947 E15.42592
G1 X254.274 Y66.15 E15.43785
G1 X254.988 Y66.431 E15.45316
G1 X255.289 Y66.555 E15.45966
G1 X255.792 Y66.771 E15.47058
G1 X256.621 Y67.171 E15.48895
G1 X257.413 Y67.641 E15.50733
G1 X257.914 Y67.99 E15.51951
G1 X258.414 Y68.36 E15.53193
G1 X258.677 Y68.561 E15.53853
G1 X259.204 Y68.977 E15.55193
G1 X259.901 Y69.578 E15.5703
G1 X260.543 Y70.238 E15.58867
G1 X260.932 Y70.698 E15.60069
G1 X261.422 Y71.314 E15.6164
G1 X261.638 Y71.596 E15.62349
G1 X261.943 Y72.007 E15.6337
G1 X262.459 Y72.77 E15.65208
G1 X262.907 Y73.574 E15.67045
G1 X263.149 Y74.09 E15.68183
G1 X263.457 Y74.797 E15.69722
G1 X263.589 Y75.115 E15.70409
G1 X263.787 Y75.613 E15.71478
G1 X264.09 Y76.482 E15.73315
G1 X264.314 Y77.365 E15.75133
G1 X264.348 Y77.528 E15.75465
G1 X264.467 Y78.213 E15.76852
G1 X264.562 Y78.916 E15.78268
G1 X264.64 Y79.584 E15.7961
G1 X264.645 Y79.624 E15.79691
G1 X264.712 Y80.605 E15.81653
G1 X264.725 Y81.292 E15.83024
G1 X264.725 Y218.454 E18.56746
G1 X264.724 Y218.608 E18.57053
G1 X264.714 Y219.295 E18.58424
G1 X264.662 Y220.196 E18.60225
G1 X264.597 Y220.816 E18.61469
G1 X264.537 Y221.276 E18.62395
G1 X264.439 Y221.951 E18.63756
G1 X264.267 Y222.855 E18.65593
G1 X264.018 Y223.742 E18.67431
G1 X263.81 Y224.317 E18.68651
G1 X263.408 Y225.323 E18.70813
G1 X263.194 Y225.821 E18.71895
G1 X262.794 Y226.65 E18.73732
G1 X262.324 Y227.442 E18.7557
G1 X261.976 Y227.94 E18.76782
G1 X261.307 Y228.837 E18.79015
G1 X261.005 Y229.22 E18.79989
G1 X260.404 Y229.918 E18.81827
G1 X259.745 Y230.561 E18.83664
G1 X259.261 Y230.967 E18.84925
G1 X258.249 Y231.762 E18.87493
G1 X257.961 Y231.976 E18.88209
G1 X257.199 Y232.493 E18.90047
G1 X256.395 Y232.941 E18.91883
G1 X255.873 Y233.186 E18.93034
G1 X255.15 Y233.501 E18.94608
G1 X254.835 Y233.632 E18.95289
G1 X254.35 Y233.825 E18.9633
G1 X253.783 Y234.032 E18.97535
G1 X253.465 Y234.133 E18.98201
G1 X253.455 Y234.136 E18.98222
G1 X252.562 Y234.362 E19.0006
G1 X251.953 Y234.47 E19.01294
G1 X251.362 Y234.557 E19.02486
G1 X251.048 Y234.598 E19.03118
G1 X250.093 Y234.706 E19.05036
G1 X250.071 Y234.708 E19.0508
G1 X249.328 Y234.75 E19.06565
G1 X248.672 Y234.761 E19.07875
G1 X51.582 Y234.761 E23.01189
G1 X51.428 Y234.76 E23.01496
G1 X50.741 Y234.75 E23.02868
G1 X49.835 Y234.698 E23.04679
G1 X49.159 Y234.626 E23.06035
G1 X48.709 Y234.567 E23.06941
G1 X48.083 Y234.476 E23.08203
G1 X47.179 Y234.304 E23.1004
G1 X46.293 Y234.054 E23.11877
G1 X45.719 Y233.847 E23.13095
G1 X44.72 Y233.448 E23.15241
G1 X44.218 Y233.233 E23.16331
G1 X43.388 Y232.834 E23.18169
G1 X42.596 Y232.365 E23.20006
G1 X42.086 Y232.01 E23.21246
G1 X41.586 Y231.64 E23.22487
G1 X41.323 Y231.439 E23.23148
G1 X40.796 Y231.023 E23.24488
G1 X40.099 Y230.422 E23.26324
G1 X39.457 Y229.762 E23.28162
G1 X39.068 Y229.302 E23.29364
G1 X38.578 Y228.686 E23.30935
G1 X38.362 Y228.404 E23.31643
G1 X38.057 Y227.993 E23.32665
G1 X37.541 Y227.23 E23.34503
G1 X37.093 Y226.426 E23.3634
G1 X36.851 Y225.91 E23.37477
G1 X36.543 Y225.203 E23.39016
G1 X36.411 Y224.886 E23.39701
G1 X36.205 Y224.368 E23.40814
G1 X35.903 Y223.499 E23.4265
G1 X35.599 Y222.194 E23.45324
G1 X35.442 Y221.115 E23.475
G1 X35.358 Y220.405 E23.48926
G1 X35.292 Y219.538 E23.50662
G1 X35.277 Y219.018 E23.517
G1 X35.275 Y218.758 E23.52219
G1 X35.275 Y81.546 E26.2604
G1 X35.276 Y81.392 E26.26347
G1 X35.286 Y80.705 E26.27718
G1 X35.338 Y79.804 E26.29519
G1 X35.403 Y79.184 E26.30764
G1 X35.464 Y78.715 E26.31707
G1 X35.563 Y78.037 E26.33075
G1 X35.736 Y77.133 E26.34912
G1 X35.986 Y76.247 E26.36749
G1 X36.192 Y75.678 E26.37956
G1 X36.592 Y74.677 E26.40107
G1 X36.806 Y74.179 E26.41189
G1 X37.206 Y73.35 E26.43026
G1 X37.676 Y72.558 E26.44864
G1 X38.024 Y72.06 E26.46076
G1 X38.693 Y71.163 E26.48309
G1 X38.995 Y70.78 E26.49283
G1 X39.596 Y70.082 E26.51121
G1 X40.255 Y69.439 E26.52958
G1 X40.739 Y69.033 E26.54219
G1 X41.751 Y68.238 E26.56787
G1 X42.039 Y68.024 E26.57503
G1 X42.801 Y67.507 E26.59341
G1 X43.605 Y67.059 E26.61178
G1 X44.126 Y66.815 E26.62326
G1 X44.851 Y66.499 E26.63904
G1 X45.17 Y66.366 E26.64594
G1 X45.653 Y66.174 E26.65631
G1 X46.355 Y65.923 E26.67119
G1 X46.377 Y65.916 E26.67165
G1 X47.266 Y65.675 E26.69003
G1 X47.99 Y65.539 E26.70473
G1 X48.952 Y65.402 E26.72412
G1 X49.907 Y65.294 E26.7433
G1 X49.929 Y65.292 E26.74374
G1 X50.672 Y65.25 E26.75859
G1 X51.328 Y65.239 E26.77169
G1 X248.418 Y65.239 E30.70483
G1 X248.572 Y65.24 E30.7079
G1 X249.259 Y65.25 E30.72161
G0 F6000 X249.265 Y64.85
G1 F1200 X250.205 Y64.904 E30.7404
G1 X250.877 Y64.975 E30.75389
G1 X251.348 Y65.037 E30.76337
G1 X251.979 Y65.129 E30.77609
G1 X252.9 Y65.304 E30.7948
G1 X253.804 Y65.556 E30.81353
G1 X254.42 Y65.778 E30.8266
G1 X255.134 Y66.059 E30.84191
G1 X255.446 Y66.188 E30.84865
G1 X255.949 Y66.404 E30.85957
G1 X256.795 Y66.81 E30.8783
G1 X257.602 Y67.287 E30.89701
G1 X258.152 Y67.669 E30.91037
G1 X258.925 Y68.247 E30.92963
G1 X259.452 Y68.663 E30.94303
G1 X260.162 Y69.275 E30.96174
G1 X260.818 Y69.945 E30.98045
G1 X261.245 Y70.449 E30.99363
G1 X261.735 Y71.065 E31.00934
G1 X261.959 Y71.358 E31.0167
G1 X262.264 Y71.769 E31.02691
G1 X262.791 Y72.545 E31.04563
G1 X263.249 Y73.363 E31.06434
G1 X263.516 Y73.931 E31.07687
G1 X263.824 Y74.638 E31.09225
G1 X263.961 Y74.967 E31.09937
G1 X264.159 Y75.465 E31.11006
G1 X264.468 Y76.35 E31.12877
G1 X264.705 Y77.283 E31.14798
G1 X264.739 Y77.446 E31.1513
G1 X264.863 Y78.157 E31.1657
G1 X264.96 Y78.869 E31.18004
G1 X265.038 Y79.537 E31.19347
G1 X265.042 Y79.578 E31.19429
G1 X265.112 Y80.596 E31.21465
G1 X265.125 Y81.292 E31.22854
G1 X265.125 Y218.454 E33.96576
G1 X265.124 Y218.614 E33.96895
G1 X265.114 Y219.301 E33.98266
G1 X265.06 Y220.236 E34.00135
G1 X264.994 Y220.866 E34.01399
G1 X264.933 Y221.333 E34.02339
G1 X264.835 Y222.008 E34.037
G1 X264.661 Y222.93 E34.05573
G1 X264.409 Y223.833 E34.07444
G1 X264.182 Y224.464 E34.08782
G1 X263.902 Y225.174 E34.10305
G1 X263.775 Y225.481 E34.10968
G1 X263.561 Y225.979 E34.1205
G1 X263.155 Y226.824 E34.13921
G1 X262.678 Y227.631 E34.15791
G1 X262.298 Y228.178 E34.17121
G1 X261.621 Y229.085 E34.19379
G1 X261.319 Y229.468 E34.20352
G1 X260.707 Y230.179 E34.22225
G1 X260.037 Y230.835 E34.24096
G1 X259.509 Y231.281 E34.25475
G1 X258.755 Y231.878 E34.27394
G1 X258.488 Y232.083 E34.28066
G1 X258.2 Y232.297 E34.28782
G1 X257.424 Y232.824 E34.30654
G1 X256.606 Y233.283 E34.32526
G1 X256.033 Y233.552 E34.33789
G1 X255.31 Y233.867 E34.35363
G1 X254.983 Y234.003 E34.3607
G1 X254.498 Y234.196 E34.37111
G1 X253.91 Y234.412 E34.38362
G1 X253.898 Y234.416 E34.38387
G1 X253.58 Y234.516 E34.39052
G1 X253.57 Y234.519 E34.39073
G1 X252.661 Y234.75 E34.40944
G1 X252.011 Y234.866 E34.42262
G1 X251.094 Y234.996 E34.4411
G1 X250.129 Y235.105 E34.46048
G1 X250.107 Y235.107 E34.46092
G1 X249.336 Y235.15 E34.47633
G1 X248.672 Y235.161 E34.48959
G1 X51.582 Y235.161 E38.42273
G1 X51.422 Y235.16 E38.42592
G1 X50.735 Y235.15 E38.43964
G1 X49.795 Y235.096 E38.45843
G1 X49.108 Y235.023 E38.47221
G1 X48.652 Y234.963 E38.48139
G1 X48.026 Y234.872 E38.49401
G1 X47.104 Y234.697 E38.51274
G1 X46.201 Y234.445 E38.53145
G1 X45.572 Y234.219 E38.54479
G1 X44.562 Y233.816 E38.56649
G1 X44.06 Y233.601 E38.57739
G1 X43.215 Y233.195 E38.5961
G1 X42.407 Y232.719 E38.61481
G1 X41.848 Y232.331 E38.62839
G1 X41.075 Y231.753 E38.64765
G1 X40.548 Y231.337 E38.66105
G1 X39.838 Y230.725 E38.67976
G1 X39.182 Y230.055 E38.69847
G1 X38.755 Y229.551 E38.71165
G1 X38.265 Y228.935 E38.72736
G1 X38.041 Y228.642 E38.73472
G1 X37.736 Y228.231 E38.74493
G1 X37.209 Y227.455 E38.76365
G1 X36.751 Y226.637 E38.78236
G1 X36.484 Y226.069 E38.79489
G1 X36.176 Y225.362 E38.81028
G1 X36.04 Y225.034 E38.81736
G1 X35.834 Y224.516 E38.82849
G1 X35.525 Y223.63 E38.84721
G1 X35.292 Y222.722 E38.86592
G1 X35.205 Y222.259 E38.87532
G1 X35.045 Y221.162 E38.89744
G1 X34.961 Y220.452 E38.91171
G1 X34.892 Y219.553 E38.92971
G1 X34.877 Y219.021 E38.94033
G1 X34.875 Y218.761 E38.94551
G1 X34.875 Y81.546 E41.68379
G1 X34.876 Y81.386 E41.68698
G1 X34.886 Y80.699 E41.70069
G1 X34.94 Y79.764 E41.71938
G1 X35.006 Y79.134 E41.73202
G1 X35.068 Y78.658 E41.7416
G1 X35.167 Y77.98 E41.75528
G1 X35.342 Y77.058 E41.774
G1 X35.595 Y76.155 E41.79272
G1 X35.82 Y75.531 E41.80596
G1 X36.099 Y74.824 E41.82112
G1 X36.225 Y74.519 E41.82771
G1 X36.439 Y74.021 E41.83853
G1 X36.845 Y73.176 E41.85724
G1 X37.322 Y72.369 E41.87594
G1 X37.702 Y71.822 E41.88923
G1 X38.379 Y70.915 E41.91182
G1 X38.681 Y70.532 E41.92155
G1 X39.293 Y69.821 E41.94028
G1 X39.963 Y69.165 E41.95899
G1 X40.491 Y68.719 E41.97278
G1 X41.245 Y68.122 E41.99197
G1 X41.512 Y67.917 E41.99869
G1 X41.8 Y67.703 E42.00585
G1 X42.576 Y67.176 E42.02457
G1 X43.394 Y66.717 E42.04329
G1 X43.966 Y66.448 E42.0559
G1 X44.691 Y66.132 E42.07169
G1 X45.023 Y65.994 E42.07886
G1 X45.506 Y65.802 E42.08923
G1 X46.234 Y65.542 E42.10466
G1 X46.256 Y65.535 E42.10512
G1 X47.161 Y65.289 E42.12384
G1 X47.929 Y65.143 E42.13944
G1 X48.906 Y65.004 E42.15913
G1 X49.871 Y64.895 E42.17851
G1 X49.893 Y64.893 E42.17895
G1 X50.664 Y64.85 E42.19436
G1 X51.328 Y64.839 E42.20761
G1 X248.418 Y64.839 E46.14076
G1 X248.578 Y64.84 E46.14395
G1 X249.265 Y64.85 E46.15766
G1 F2700 E38.65766
G1 F300 Z0.32
G0 F6000 X194.153 Y100.175 Z0.32
G1 F300 Z0.12
G1 F2700 E46.15766
G1 F1200 X195.105 Y98.929 E46.18895
G1 X195.104 Y98.929 E46.18897
G1 X195.389 Y98.561 E46.19826
G1 X195.42 Y98.536 E46.19906
G1 X196.866 Y97.428 E46.23541
G1 X198.669 Y96.646 E46.27463
G1 X198.854 Y96.568 E46.27864
G1 X200.828 Y96.308 E46.31837
G1 X202.799 Y96.566 E46.35804
G1 X204.71 Y97.358 E46.39932
G1 X205.997 Y98.345 E46.43169
G1 X206.287 Y98.564 E46.43894
G1 X207.517 Y100.173 E46.47936
G1 X208.283 Y102.018 E46.51922
G1 X208.539 Y103.97 E46.55851
G1 X208.263 Y106.039 E46.60017
G1 X207.493 Y107.904 E46.64043
G1 X206.286 Y109.483 E46.68009
G1 X204.684 Y110.712 E46.72039
G1 X204.615 Y110.741 E46.72188
G1 X204.615 Y110.74 E46.7219
G1 X204.153 Y110.931 E46.73188
G1 X204.152 Y110.932 E46.73191
G1 X202.857 Y111.463 E46.75984
G1 X200.793 Y111.738 E46.80139
G1 X200.289 Y111.672 E46.81153
G1 X199.761 Y111.587 E46.82221
G1 X198.828 Y111.474 E46.84096
G1 X196.997 Y110.714 E46.88052
G1 X195.385 Y109.486 E46.92096
G1 X194.17 Y107.898 E46.96087
G1 X193.407 Y106.05 E47.00076
G1 X193.129 Y103.968 E47.04268
G1 X193.384 Y102.029 E47.08171
G1 X194.153 Y100.175 E47.12176
G0 F6000 X193.803 Y99.974
G1 F1200 X195.107 Y98.272 E47.16455
G1 X195.173 Y98.222 E47.16621
G1 X195.177 Y98.219 E47.16631
G1 X196.664 Y97.08 E47.20368
G1 X198.752 Y96.178 E47.24907
G1 X200.832 Y95.904 E47.29094
