;FLAVOR:Marlin
;TIME:19911
;Filament used: 10.265m
;Layer height: 0.15
;MINX:28.852
;MINY:53.9
;MINZ:0.12
;MAXX:191.148
;MAXY:166.1
;MAXZ:13.47
;Generated with Cura_SteamEngine 4.6.0
M140 S60
M105
M190 S60
M104 S225
M105
M109 S225
M82 ;absolute extrusion mode
M201 X500.00 Y500.00 Z100.00 E5000.00 ;Setup machine max acceleration
M203 X500.00 Y500.00 Z10.00 E50.00 ;Setup machine max feedrate
M204 P500.00 R1000.00 T500.00 ;Setup Print/Retract/Travel acceleration
M205 X8.00 Y8.00 Z0.40 E5.00 ;Setup Jerk
M220 S100 ;Reset Feedrate
M221 S100 ;Reset Flowrate

G28 ;Home

G92 E0 ;Reset Extruder
G1 Z2.0 F3000 ;Move Z Axis up
G1 X10.1 Y20 Z0.28 F5000.0 ;Move to start position
G1 X10.1 Y200.0 Z0.28 F1500.0 E15 ;Draw the first line
G1 X10.4 Y200.0 Z0.28 F5000.0 ;Move to side a little
G1 X10.4 Y20 Z0.28 F1500.0 E30 ;Draw the second line
G92 E0 ;Reset Extruder
G1 Z2.0 F3000 ;Move Z Axis up

G92 E0
G92 E0
G1 F2700 E-9
;LAYER_COUNT:90
;LAYER:0
M107
G1 F300 Z0.32
G0 F6000 X42.202 Y56.187 Z0.32
;TYPE:SKIRT
G1 F300 Z0.12
G1 F2700 E0
G1 F1200 X42.937 Y55.688 E0.01773
G1 X42.957 Y55.676 E0.01819
G1 X43.988 Y55.156 E0.04124
G1 X45.17 Y54.667 E0.06676
G1 X46.26 Y54.308 E0.08967
G1 X46.284 Y54.302 E0.09016
G1 X47.156 Y54.136 E0.10787
G1 X48.43 Y53.968 E0.13352
G1 X48.802 Y53.928 E0.14098
G1 X48.814 Y53.927 E0.14122
G1 X49.462 Y53.9 E0.15417
G1 X178.346 Y53.9 E2.72619
G1 X178.994 Y53.927 E2.73913
G1 X179.369 Y53.967 E2.74666
G1 X180.639 Y54.133 E2.77222
G1 X181.52 Y54.3 E2.79011
G1 X181.544 Y54.306 E2.7906
G1 X182.64 Y54.668 E2.81364
G1 X183.824 Y55.159 E2.83922
G1 X184.804 Y55.649 E2.86108
G1 X184.826 Y55.662 E2.86159
G1 X185.611 Y56.192 E2.88049
G1 X186.626 Y56.972 E2.90604
G1 X187.388 Y57.642 E2.92629
G1 X187.405 Y57.659 E2.92677
G1 X188.076 Y58.422 E2.94705
G1 X188.858 Y59.44 E2.97266
G1 X189.444 Y60.322 E2.99379
G1 X189.456 Y60.343 E2.99428
G1 X189.893 Y61.235 E3.0141
G1 X190.38 Y62.414 E3.03956
G1 X190.703 Y63.364 E3.05958
G1 X190.71 Y63.39 E3.06012
G1 X190.91 Y64.391 E3.08049
G1 X191.079 Y65.663 E3.1061
G1 X191.124 Y66.092 E3.1147
G1 X191.125 Y66.105 E3.11496
G1 X191.148 Y66.703 E3.12691
G1 X191.148 Y153.294 E4.85492
G1 X191.121 Y153.942 E4.86787
G1 X191.12 Y153.954 E4.86811
G1 X191.081 Y154.32 E4.87545
G1 X190.914 Y155.594 E4.90109
G1 X190.727 Y156.549 E4.92051
G1 X190.721 Y156.572 E4.92099
G1 X190.382 Y157.584 E4.94229
G1 X189.892 Y158.769 E4.96788
G1 X189.399 Y159.756 E4.98989
G1 X189.386 Y159.778 E4.9904
G1 X188.856 Y160.562 E5.00929
G1 X188.077 Y161.576 E5.03481
G1 X187.407 Y162.339 E5.05507
G1 X187.388 Y162.358 E5.05561
G1 X186.624 Y163.029 E5.0759
G1 X185.607 Y163.81 E5.10149
G1 X184.869 Y164.312 E5.1193
G1 X184.849 Y164.324 E5.11976
G1 X183.818 Y164.844 E5.14281
G1 X182.636 Y165.333 E5.16833
G1 X181.546 Y165.692 E5.19124
G1 X181.522 Y165.698 E5.19173
G1 X180.65 Y165.864 E5.20944
G1 X179.376 Y166.032 E5.23509
G1 X179.004 Y166.072 E5.24255
G1 X178.992 Y166.073 E5.24279
G1 X178.344 Y166.1 E5.25574
G1 X49.46 Y166.1 E7.82776
G1 X48.812 Y166.073 E7.8407
G1 X48.8 Y166.072 E7.84094
G1 X48.437 Y166.033 E7.84823
G1 X47.167 Y165.867 E7.87379
G1 X46.286 Y165.7 E7.89168
G1 X46.262 Y165.694 E7.89217
G1 X45.165 Y165.332 E7.91523
G1 X43.979 Y164.84 E7.94085
G1 X42.955 Y164.323 E7.96374
G1 X42.935 Y164.311 E7.96421
G1 X42.198 Y163.81 E7.98199
G1 X41.182 Y163.03 E8.00755
G1 X40.417 Y162.358 E8.02787
G1 X40.398 Y162.339 E8.02841
G1 X39.723 Y161.57 E8.04883
G1 X38.944 Y160.554 E8.07438
G1 X38.419 Y159.776 E8.09311
G1 X38.406 Y159.754 E8.09362
G1 X37.912 Y158.765 E8.11568
G1 X37.424 Y157.584 E8.14118
G1 X37.086 Y156.574 E8.16244
G1 X37.08 Y156.551 E8.16291
G1 X36.894 Y155.6 E8.18225
G1 X36.726 Y154.324 E8.20793
G1 X36.691 Y154.012 E8.2142
G1 X36.69 Y154.001 E8.21442
G1 X36.658 Y153.295 E8.22852
G1 X36.658 Y125.358 E8.78603
G1 X36.6 Y125.346 E8.78722
G1 X35.514 Y124.988 E8.81003
G1 X34.933 Y124.748 E8.82258
G1 X33.898 Y124.227 E8.8457
G1 X33.878 Y124.215 E8.84617
G1 X33.127 Y123.703 E8.86431
G1 X32.633 Y123.322 E8.87676
G1 X31.882 Y122.661 E8.89672
G1 X31.863 Y122.642 E8.89726
G1 X31.202 Y121.892 E8.91721
G1 X30.817 Y121.393 E8.92979
G1 X30.203 Y120.466 E8.95198
G1 X30.19 Y120.443 E8.9525
G1 X29.771 Y119.583 E8.97159
G1 X29.531 Y119.002 E8.98414
G1 X29.193 Y117.993 E9.00537
G1 X29.187 Y117.97 E9.00585
G1 X28.998 Y116.996 E9.02565
G1 X28.918 Y116.374 E9.03816
G1 X28.857 Y115.602 E9.05362
G1 X28.852 Y115.309 E9.05947
G1 X28.852 Y104.635 E9.27248
G1 X28.875 Y104.037 E9.28442
G1 X28.876 Y104.024 E9.28468
G1 X28.917 Y103.627 E9.29264
G1 X28.997 Y103.005 E9.30516
G1 X29.186 Y102.031 E9.32496
G1 X29.192 Y102.008 E9.32543
G1 X29.53 Y100.999 E9.34667
G1 X29.77 Y100.418 E9.35921
G1 X30.189 Y99.558 E9.3783
G1 X30.202 Y99.535 E9.37883
G1 X30.816 Y98.608 E9.40102
G1 X31.201 Y98.109 E9.4136
G1 X31.862 Y97.359 E9.43355
G1 X31.881 Y97.34 E9.43408
G1 X32.626 Y96.683 E9.45391
G1 X33.119 Y96.302 E9.46634
G1 X34.019 Y95.702 E9.48793
G1 X34.04 Y95.69 E9.48841
G1 X34.933 Y95.253 E9.50825
G1 X35.519 Y95.011 E9.5209
G1 X36.604 Y94.653 E9.5437
G1 X36.658 Y94.641 E9.54481
G1 X36.658 Y66.702 E10.10236
G1 X36.685 Y66.054 E10.1153
G1 X36.686 Y66.042 E10.11554
G1 X36.725 Y65.679 E10.12283
G1 X36.891 Y64.409 E10.14839
G1 X37.078 Y63.451 E10.16787
G1 X37.084 Y63.428 E10.16834
G1 X37.425 Y62.411 E10.18975
G1 X37.916 Y61.226 E10.21534
G1 X38.407 Y60.244 E10.23725
G1 X38.42 Y60.222 E10.23776
G1 X38.947 Y59.442 E10.25655
G1 X39.725 Y58.428 E10.28206
G1 X40.398 Y57.661 E10.30242
G1 X40.417 Y57.642 E10.30295
G1 X41.184 Y56.968 E10.32333
G1 X42.202 Y56.187 E10.34894
G0 F6000 X42.446 Y56.505
G1 F1200 X43.143 Y56.031 E10.36576
G1 X43.163 Y56.019 E10.36622
G1 X44.141 Y55.526 E10.38808
G1 X45.323 Y55.037 E10.41361
G1 X46.357 Y54.696 E10.43533
G1 X46.381 Y54.69 E10.43583
G1 X47.209 Y54.533 E10.45265
G1 X48.483 Y54.365 E10.47829
G1 X48.835 Y54.327 E10.48535
G1 X48.847 Y54.326 E10.4856
G1 X49.462 Y54.3 E10.49788
G1 X178.346 Y54.3 E13.0699
G1 X178.961 Y54.326 E13.08218
G1 X179.317 Y54.363 E13.08933
G1 X180.587 Y54.529 E13.11489
G1 X181.423 Y54.688 E13.13187
G1 X181.447 Y54.694 E13.13236
G1 X182.487 Y55.037 E13.15422
G1 X183.671 Y55.528 E13.17979
G1 X184.601 Y55.993 E13.20054
G1 X184.623 Y56.006 E13.20105
G1 X185.367 Y56.509 E13.21898
G1 X186.382 Y57.289 E13.24452
G1 X187.106 Y57.924 E13.26374
G1 X187.123 Y57.941 E13.26422
G1 X187.758 Y58.666 E13.28345
G1 X188.54 Y59.684 E13.30907
G1 X189.097 Y60.521 E13.32913
G1 X189.109 Y60.542 E13.32962
G1 X189.523 Y61.388 E13.34841
G1 X190.01 Y62.567 E13.37387
G1 X190.317 Y63.468 E13.39286
G1 X190.324 Y63.494 E13.3934
G1 X190.514 Y64.443 E13.41272
G1 X190.683 Y65.715 E13.43832
G1 X190.725 Y66.122 E13.44649
G1 X190.726 Y66.135 E13.44675
G1 X190.748 Y66.703 E13.45809
G1 X190.748 Y153.294 E15.18611
G1 X190.722 Y153.909 E15.19839
G1 X190.721 Y153.921 E15.19863
G1 X190.684 Y154.268 E15.2056
G1 X190.517 Y155.542 E15.23124
G1 X190.34 Y156.448 E15.24966
G1 X190.334 Y156.471 E15.25014
G1 X190.012 Y157.431 E15.27034
G1 X189.522 Y158.616 E15.29593
G1 X189.055 Y159.553 E15.31682
G1 X189.042 Y159.575 E15.31733
G1 X188.539 Y160.318 E15.33524
G1 X187.76 Y161.332 E15.36076
G1 X187.125 Y162.057 E15.37999
G1 X187.106 Y162.076 E15.38053
G1 X186.38 Y162.712 E15.39979
G1 X185.363 Y163.493 E15.42538
G1 X184.663 Y163.969 E15.44227
G1 X184.643 Y163.981 E15.44274
G1 X183.665 Y164.474 E15.46459
G1 X182.483 Y164.963 E15.49012
G1 X181.449 Y165.304 E15.51185
G1 X181.425 Y165.31 E15.51234
G1 X180.597 Y165.467 E15.52916
G1 X179.323 Y165.635 E15.5548
G1 X178.971 Y165.673 E15.56187
G1 X178.959 Y165.674 E15.56211
G1 X178.344 Y165.7 E15.57439
G1 X49.46 Y165.7 E18.14641
G1 X48.845 Y165.674 E18.1587
G1 X48.833 Y165.673 E18.15894
G1 X48.489 Y165.637 E18.16584
G1 X47.219 Y165.471 E18.1914
G1 X46.383 Y165.312 E18.20838
G1 X46.359 Y165.306 E18.20887
G1 X45.318 Y164.962 E18.23075
G1 X44.132 Y164.47 E18.25638
G1 X43.161 Y163.98 E18.27808
G1 X43.141 Y163.968 E18.27855
G1 X42.442 Y163.493 E18.29541
G1 X41.426 Y162.713 E18.32097
G1 X40.699 Y162.076 E18.34026
G1 X40.68 Y162.057 E18.3408
G1 X40.04 Y161.327 E18.36017
G1 X39.261 Y160.311 E18.38572
G1 X38.763 Y159.573 E18.40349
G1 X38.75 Y159.551 E18.404
G1 X38.282 Y158.612 E18.42494
G1 X37.794 Y157.431 E18.45044
G1 X37.473 Y156.473 E18.4706
G1 X37.467 Y156.45 E18.47107
G1 X37.29 Y155.548 E18.48942
G1 X37.122 Y154.272 E18.5151
G1 X37.089 Y153.976 E18.52105
G1 X37.088 Y153.965 E18.52127
G1 X37.058 Y153.295 E18.53465
G1 X37.058 Y125.028 E19.09875
G1 X36.721 Y124.964 E19.10559
G1 X36.697 Y124.958 E19.10609
G1 X35.667 Y124.618 E19.12773
G1 X35.086 Y124.378 E19.14028
G1 X34.104 Y123.884 E19.16222
G1 X34.084 Y123.872 E19.16268
G1 X33.372 Y123.387 E19.17987
G1 X32.878 Y123.006 E19.19232
G1 X32.164 Y122.379 E19.21129
G1 X32.145 Y122.36 E19.21182
G1 X31.519 Y121.647 E19.23076
G1 X31.134 Y121.148 E19.24333
G1 X30.551 Y120.269 E19.26438
G1 X30.538 Y120.246 E19.26491
G1 X30.141 Y119.43 E19.28302
G1 X29.901 Y118.849 E19.29556
G1 X29.58 Y117.892 E19.31571
G1 X29.574 Y117.869 E19.31618
G1 X29.394 Y116.945 E19.33497
G1 X29.314 Y116.323 E19.34748
G1 X29.257 Y115.59 E19.36215
G1 X29.252 Y115.309 E19.36776
G1 X29.252 Y104.635 E19.58077
G1 X29.274 Y104.067 E19.59212
G1 X29.275 Y104.054 E19.59238
G1 X29.313 Y103.678 E19.59992
G1 X29.393 Y103.056 E19.61243
G1 X29.573 Y102.132 E19.63122
G1 X29.579 Y102.109 E19.6317
G1 X29.9 Y101.152 E19.65184
G1 X30.14 Y100.571 E19.66438
G1 X30.537 Y99.755 E19.68249
G1 X30.55 Y99.732 E19.68302
G1 X31.133 Y98.853 E19.70407
G1 X31.518 Y98.354 E19.71665
G1 X32.144 Y97.641 E19.73558
G1 X32.163 Y97.622 E19.73612
G1 X32.871 Y97 E19.75492
G1 X33.364 Y96.619 E19.76736
G1 X34.218 Y96.049 E19.78785
G1 X34.239 Y96.037 E19.78833
G1 X35.085 Y95.622 E19.80714
G1 X35.671 Y95.38 E19.81979
G1 X36.701 Y95.041 E19.84143
G1 X36.725 Y95.035 E19.84192
G1 X37.058 Y94.972 E19.84868
G1 X37.058 Y66.702 E20.41284
G1 X37.084 Y66.087 E20.42513
G1 X37.085 Y66.075 E20.42537
G1 X37.121 Y65.731 E20.43227
G1 X37.287 Y64.461 E20.45783
G1 X37.465 Y63.552 E20.47631
G1 X37.471 Y63.529 E20.47679
G1 X37.795 Y62.564 E20.4971
G1 X38.286 Y61.379 E20.5227
G1 X38.751 Y60.447 E20.54348
G1 X38.764 Y60.425 E20.54399
G1 X39.264 Y59.685 E20.56182
G1 X40.042 Y58.671 E20.58732
G1 X40.68 Y57.943 E20.60664
G1 X40.699 Y57.924 E20.60718
G1 X41.428 Y57.286 E20.62651
G1 X42.446 Y56.505 E20.65211
G0 F6000 X42.689 Y56.822
G1 F1200 X43.349 Y56.374 E20.66803
G1 X43.369 Y56.362 E20.6685
G1 X44.294 Y55.896 E20.68917
G1 X45.476 Y55.407 E20.71469
G1 X46.454 Y55.084 E20.73525
G1 X46.478 Y55.078 E20.73574
G1 X47.261 Y54.929 E20.75165
G1 X48.535 Y54.761 E20.77729
G1 X48.869 Y54.725 E20.784
G1 X48.881 Y54.724 E20.78424
G1 X49.462 Y54.7 E20.79584
G1 X178.346 Y54.7 E23.36786
G1 X178.927 Y54.724 E23.37947
G1 X179.265 Y54.76 E23.38625
G1 X180.535 Y54.926 E23.41181
G1 X181.326 Y55.076 E23.42787
G1 X181.35 Y55.082 E23.42837
G1 X182.333 Y55.407 E23.44903
G1 X183.517 Y55.898 E23.47461
G1 X184.397 Y56.338 E23.49424
G1 X184.419 Y56.351 E23.49475
G1 X185.123 Y56.827 E23.51171
G1 X186.138 Y57.607 E23.53726
G1 X186.823 Y58.207 E23.55543
G1 X186.84 Y58.224 E23.55591
G1 X187.441 Y58.91 E23.57411
G1 X188.223 Y59.928 E23.59973
G1 X188.75 Y60.719 E23.6187
G1 X188.762 Y60.74 E23.61918
G1 X189.154 Y61.541 E23.63697
G1 X189.641 Y62.72 E23.66243
G1 X189.93 Y63.572 E23.68038
G1 X189.937 Y63.598 E23.68092
G1 X190.117 Y64.496 E23.6992
G1 X190.286 Y65.768 E23.72481
G1 X190.326 Y66.153 E23.73253
G1 X190.327 Y66.166 E23.73279
G1 X190.348 Y66.703 E23.74352
G1 X190.348 Y153.294 E25.47153
G1 X190.324 Y153.875 E25.48314
G1 X190.323 Y153.887 E25.48338
G1 X190.288 Y154.216 E25.48998
G1 X190.121 Y155.49 E25.51562
G1 X189.953 Y156.347 E25.53305
G1 X189.947 Y156.37 E25.53352
G1 X189.643 Y157.278 E25.55263
G1 X189.153 Y158.463 E25.57822
G1 X188.71 Y159.349 E25.59799
G1 X188.697 Y159.371 E25.5985
G1 X188.222 Y160.075 E25.61545
G1 X187.443 Y161.089 E25.64097
G1 X186.842 Y161.774 E25.65915
G1 X186.823 Y161.793 E25.65969
G1 X186.136 Y162.395 E25.67792
G1 X185.119 Y163.176 E25.70351
G1 X184.457 Y163.626 E25.71948
G1 X184.437 Y163.638 E25.71995
G1 X183.512 Y164.104 E25.74061
G1 X182.33 Y164.593 E25.76614
G1 X181.352 Y164.916 E25.7867
G1 X181.328 Y164.922 E25.78719
G1 X180.545 Y165.071 E25.8031
G1 X179.271 Y165.239 E25.82874
G1 X178.937 Y165.275 E25.83544
G1 X178.925 Y165.276 E25.83568
G1 X178.344 Y165.3 E25.84729
G1 X49.46 Y165.3 E28.41931
G1 X48.879 Y165.276 E28.43091
G1 X48.867 Y165.275 E28.43115
G1 X48.541 Y165.24 E28.4377
G1 X47.271 Y165.074 E28.46326
G1 X46.48 Y164.924 E28.47932
G1 X46.456 Y164.918 E28.47982
G1 X45.472 Y164.593 E28.5005
G1 X44.286 Y164.101 E28.52612
G1 X43.367 Y163.637 E28.54666
G1 X43.347 Y163.625 E28.54713
G1 X42.685 Y163.175 E28.5631
G1 X41.669 Y162.395 E28.58866
G1 X40.982 Y161.793 E28.60689
G1 X40.963 Y161.774 E28.60743
G1 X40.358 Y161.083 E28.62576
G1 X39.579 Y160.067 E28.65131
G1 X39.108 Y159.369 E28.66811
G1 X39.095 Y159.347 E28.66862
G1 X38.652 Y158.459 E28.68842
G1 X38.164 Y157.278 E28.71393
G1 X37.86 Y156.372 E28.733
G1 X37.854 Y156.349 E28.73347
G1 X37.687 Y155.496 E28.75082
G1 X37.519 Y154.22 E28.7765
G1 X37.488 Y153.94 E28.78212
G1 X37.487 Y153.929 E28.78234
G1 X37.458 Y153.295 E28.79501
G1 X37.458 Y124.697 E29.36571
G1 X36.818 Y124.576 E29.37871
G1 X36.794 Y124.57 E29.3792
G1 X35.819 Y124.249 E29.39969
G1 X35.238 Y124.009 E29.41223
G1 X34.31 Y123.541 E29.43297
G1 X34.29 Y123.529 E29.43344
G1 X33.616 Y123.07 E29.44971
G1 X33.122 Y122.689 E29.46216
G1 X32.447 Y122.096 E29.48009
G1 X32.428 Y122.077 E29.48063
G1 X31.836 Y121.403 E29.49853
G1 X31.451 Y120.904 E29.51111
G1 X30.899 Y120.072 E29.53103
G1 X30.886 Y120.049 E29.53156
G1 X30.51 Y119.278 E29.54868
G1 X30.27 Y118.697 E29.56122
G1 X29.967 Y117.791 E29.58029
G1 X29.961 Y117.768 E29.58076
G1 X29.791 Y116.894 E29.59853
G1 X29.711 Y116.272 E29.61105
G1 X29.657 Y115.579 E29.62492
G1 X29.652 Y115.309 E29.63031
G1 X29.652 Y104.635 E29.84332
G1 X29.673 Y104.098 E29.85404
G1 X29.674 Y104.085 E29.8543
G1 X29.71 Y103.729 E29.86144
G1 X29.79 Y103.107 E29.87396
G1 X29.96 Y102.233 E29.89173
G1 X29.966 Y102.21 E29.8922
G1 X30.269 Y101.304 E29.91127
G1 X30.509 Y100.723 E29.92381
G1 X30.885 Y99.952 E29.94093
G1 X30.898 Y99.929 E29.94146
G1 X31.45 Y99.097 E29.96138
G1 X31.835 Y98.598 E29.97396
G1 X32.427 Y97.924 E29.99186
G1 X32.446 Y97.905 E29.9924
G1 X33.116 Y97.316 E30.0102
G1 X33.609 Y96.935 E30.02263
G1 X34.416 Y96.396 E30.042
G1 X34.437 Y96.384 E30.04248
G1 X35.238 Y95.992 E30.06028
G1 X35.824 Y95.75 E30.07293
G1 X36.798 Y95.429 E30.0934
G1 X36.822 Y95.423 E30.09389
G1 X37.458 Y95.303 E30.10681
G1 X37.458 Y66.702 E30.67757
G1 X37.482 Y66.121 E30.68918
G1 X37.483 Y66.109 E30.68942
G1 X37.518 Y65.783 E30.69596
G1 X37.684 Y64.513 E30.72152
G1 X37.852 Y63.653 E30.739
G1 X37.858 Y63.63 E30.73948
G1 X38.164 Y62.717 E30.7587
G1 X38.655 Y61.532 E30.78429
G1 X39.096 Y60.651 E30.80395
G1 X39.109 Y60.629 E30.80446
G1 X39.581 Y59.929 E30.82131
G1 X40.359 Y58.915 E30.84682
G1 X40.963 Y58.226 E30.8651
G1 X40.982 Y58.207 E30.86564
G1 X41.671 Y57.603 E30.88392
G1 X42.689 Y56.822 E30.90953
G0 F6000 X42.933 Y57.14
G1 F1200 X43.554 Y56.717 E30.92452
G1 X43.574 Y56.705 E30.92499
G1 X44.447 Y56.265 E30.9445
G1 X45.629 Y55.776 E30.97003
G1 X46.551 Y55.472 E30.9894
G1 X46.575 Y55.466 E30.98989
G1 X47.313 Y55.326 E31.00488
G1 X48.587 Y55.158 E31.03053
G1 X48.902 Y55.124 E31.03685
G1 X48.914 Y55.123 E31.03709
G1 X49.462 Y55.1 E31.04804
G1 X178.346 Y55.1 E33.62006
G1 X178.894 Y55.123 E33.631
G1 X179.213 Y55.157 E33.6374
G1 X180.483 Y55.323 E33.66296
G1 X181.229 Y55.464 E33.67811
G1 X181.253 Y55.47 E33.67861
G1 X182.18 Y55.776 E33.69809
G1 X183.364 Y56.267 E33.72367
G1 X184.194 Y56.682 E33.74219
G1 X184.216 Y56.695 E33.7427
G1 X184.88 Y57.144 E33.75869
G1 X185.895 Y57.924 E33.78424
G1 X186.54 Y58.49 E33.80136
G1 X186.557 Y58.507 E33.80184
G1 X187.124 Y59.153 E33.81899
G1 X187.906 Y60.171 E33.84461
G1 X188.402 Y60.917 E33.86249
G1 X188.414 Y60.938 E33.86297
G1 X188.784 Y61.693 E33.87975
G1 X189.271 Y62.872 E33.90521
G1 X189.544 Y63.676 E33.92215
G1 X189.551 Y63.702 E33.92269
G1 X189.721 Y64.549 E33.93993
G1 X189.89 Y65.821 E33.96554
G1 X189.928 Y66.184 E33.97282
